; generated by Slic3r 1.1.7 on 2014-12-12 at 20:40:22

; perimeters extrusion width = 0.40mm
; infill extrusion width = 0.42mm
; solid infill extrusion width = 0.42mm
; top infill extrusion width = 0.42mm

G21 ; set units to millimeters
M107
M104 S215 ; set temperature
G28 ; home all axes
G29; calibrate bed leveling
G1 Z5 F5000 ; lift nozzle
G28 X ; Go to corner x
G28 Y ; Go to corner y

M109 S215 ; wait for temperature to be reached
G90 ; use absolute coordinates
G92 E0
M82 ; use absolute distances for extrusion
G1 F1800.000 E-1.00000
G1 Z0.600 F7800.000
G92 E0
G1 X17.802 Y59.695 F7800.000
G1 Z0.300 F7800.000
G1 E1.00000 F1800.000
G1 X132.198 Y59.695 E5.14887 F1080.000
G1 X135.305 Y62.802 E5.30824
G1 X135.305 Y87.198 E6.19300 F1080.000
G1 X132.198 Y90.305 E6.35236
G1 X17.802 Y90.305 E10.50123
G1 X14.695 Y87.198 E10.66060
G1 X14.695 Y62.802 E11.54535
G1 X17.760 Y59.738 E11.70254
G1 X17.936 Y60.017 F7800.000
G1 X132.064 Y60.017 E15.84176 F1080.000
G1 X134.983 Y62.936 E15.99146 F1080.000
G1 X134.983 Y87.064 E16.86656
G1 X132.064 Y89.983 E17.01627
G1 X17.936 Y89.983 E21.15548
G1 X15.017 Y87.064 E21.30519
G1 X15.017 Y62.936 E22.18029
G1 X17.893 Y60.059 E22.32781
G1 X18.069 Y60.338 F7800.000
G1 X131.931 Y60.338 E26.45737 F1080.000
G1 X134.662 Y63.069 E26.59742
G1 X134.662 Y86.931 E27.46286 F1080.000
G1 X131.931 Y89.662 E27.60291
G1 X18.069 Y89.662 E31.73246
G1 X15.338 Y86.931 E31.87251
G1 X15.338 Y63.069 E32.73795
G1 X18.026 Y60.381 E32.87582
G1 X18.202 Y60.660 F7800.000
G1 X131.798 Y60.660 E36.99572 F1080.000
G1 X134.340 Y63.202 E37.12611 F1080.000
G1 X134.340 Y74.795 E37.54657
G1 X134.268 Y74.867 E37.55027
G1 X134.268 Y75.134 E37.55993
G1 X134.340 Y75.206 E37.56364
G1 X134.340 Y86.798 E37.98406
G1 X131.798 Y89.340 E38.11445
G1 X18.202 Y89.340 E42.23435
G1 X15.660 Y86.798 E42.36474
G1 X15.660 Y75.206 E42.78516
G1 X15.732 Y75.134 E42.78887
G1 X15.732 Y74.867 E42.79853
G1 X15.660 Y74.795 E42.80223
G1 X15.660 Y63.202 E43.22269
G1 X18.160 Y60.702 E43.35090
G1 X18.335 Y60.981 F7800.000
G1 X131.665 Y60.981 E47.46114 F1080.000
G1 X134.019 Y63.335 E47.58187
G1 X134.019 Y74.662 E47.99268 F1080.000
G1 X133.813 Y74.867 E48.00321
G1 X133.813 Y75.134 E48.01287
G1 X134.019 Y75.339 E48.02341
G1 X134.019 Y86.665 E48.43417
G1 X131.665 Y89.019 E48.55490
G1 X18.335 Y89.019 E52.66514
G1 X15.981 Y86.665 E52.78587
G1 X15.981 Y75.339 E53.19664
G1 X16.187 Y75.134 E53.20717
G1 X16.187 Y74.867 E53.21683
G1 X15.981 Y74.662 E53.22737
G1 X15.981 Y63.335 E53.63817
G1 X18.293 Y61.024 E53.75672
G1 X18.468 Y61.303 F7800.000
G1 X131.532 Y61.303 E57.85730 F1080.000
G1 X133.697 Y63.468 E57.96838 F1080.000
G1 X133.697 Y74.529 E58.36952
G1 X133.359 Y74.867 E58.38688
G1 X133.359 Y75.134 E58.39654
G1 X133.697 Y75.472 E58.41391
G1 X133.697 Y86.532 E58.81501
G1 X131.532 Y88.697 E58.92609
G1 X18.468 Y88.697 E63.02667
G1 X16.303 Y86.532 E63.13774
G1 X16.303 Y75.472 E63.53885
G1 X16.641 Y75.134 E63.55621
G1 X16.641 Y74.867 E63.56587
G1 X16.303 Y74.529 E63.58324
G1 X16.303 Y63.468 E63.98438
G1 X18.426 Y61.345 E64.09327
G1 X18.601 Y61.624 F7800.000
G1 X131.399 Y61.624 E68.18420 F1080.000
G1 X133.376 Y63.601 E68.28561
G1 X133.376 Y74.396 E68.67709 F1080.000
G1 X132.904 Y74.867 E68.70129
G1 X132.904 Y75.134 E68.71095
G1 X133.376 Y75.605 E68.73514
G1 X133.376 Y86.399 E69.12659
G1 X131.399 Y88.376 E69.22801
G1 X18.601 Y88.376 E73.31893
G1 X16.624 Y86.399 E73.42034
G1 X16.624 Y75.605 E73.81179
G1 X17.096 Y75.134 E73.83598
G1 X17.096 Y74.867 E73.84564
G1 X16.624 Y74.396 E73.86984
G1 X16.624 Y63.601 E74.26132
G1 X18.559 Y61.667 E74.36056
G1 X18.735 Y61.946 F7800.000
G1 X131.265 Y61.946 E78.44182 F1080.000
G1 X133.054 Y63.735 E78.53358 F1080.000
G1 X133.054 Y74.262 E78.91541
G1 X132.449 Y74.867 E78.94643
G1 X132.449 Y75.134 E78.95609
G1 X133.054 Y75.739 E78.98711
G1 X133.054 Y86.265 E79.36890
G1 X131.265 Y88.054 E79.46066
G1 X18.735 Y88.054 E83.54192
G1 X16.946 Y86.265 E83.63368
G1 X16.946 Y75.739 E84.01547
G1 X17.551 Y75.134 E84.04649
G1 X17.551 Y74.867 E84.05615
G1 X16.946 Y74.262 E84.08718
G1 X16.946 Y63.735 E84.46900
G1 X18.692 Y61.988 E84.55858
G1 X18.868 Y62.267 F7800.000
G1 X131.132 Y62.267 E88.63019 F1080.000
G1 X132.733 Y63.868 E88.71228
G1 X132.733 Y74.129 E89.08445 F1080.000
G1 X131.995 Y74.867 E89.12231
G1 X131.995 Y75.134 E89.13196
G1 X132.733 Y75.872 E89.16982
G1 X132.733 Y86.132 E89.54195
G1 X131.132 Y87.733 E89.62405
G1 X18.868 Y87.733 E93.69565
G1 X17.267 Y86.132 E93.77775
G1 X17.267 Y75.872 E94.14988
G1 X18.005 Y75.134 E94.18773
G1 X18.005 Y74.867 E94.19739
G1 X17.267 Y74.129 E94.23525
G1 X17.267 Y63.868 E94.60741
G1 X18.825 Y62.310 E94.68733
G1 X19.001 Y62.589 F7800.000
G1 X130.999 Y62.589 E98.74928 F1080.000
G1 X132.411 Y64.001 E98.82172 F1080.000
G1 X132.411 Y73.996 E99.18423
G1 X131.540 Y74.867 E99.22891
G1 X131.540 Y75.134 E99.23857
G1 X132.411 Y76.005 E99.28326
G1 X132.411 Y85.999 E99.64573
G1 X130.999 Y87.411 E99.71817
G1 X19.001 Y87.411 E103.78012
G1 X17.589 Y85.999 E103.85255
G1 X17.589 Y76.005 E104.21503
G1 X18.460 Y75.134 E104.25971
G1 X18.460 Y74.867 E104.26937
G1 X17.589 Y73.996 E104.31405
G1 X17.589 Y64.001 E104.67656
G1 X18.958 Y62.631 E104.74682
G1 X19.134 Y62.910 F7800.000
G1 X130.866 Y62.910 E108.79911 F1080.000
G1 X132.090 Y64.134 E108.86189
G1 X132.090 Y73.863 E109.21474 F1080.000
G1 X131.086 Y74.867 E109.26626
G1 X131.086 Y75.134 E109.27592
G1 X132.090 Y76.138 E109.32743
G1 X132.090 Y85.866 E109.68024
G1 X130.866 Y87.090 E109.74302
G1 X19.134 Y87.090 E113.79531
G1 X17.910 Y85.866 E113.85809
G1 X17.910 Y76.138 E114.21091
G1 X18.914 Y75.134 E114.26242
G1 X18.914 Y74.867 E114.27208
G1 X17.910 Y73.863 E114.32359
G1 X17.910 Y64.134 E114.67644
G1 X19.092 Y62.952 E114.73705
G1 X19.267 Y63.231 F7800.000
G1 X130.733 Y63.231 E118.77968 F1080.000
G1 X131.769 Y64.267 E118.83280 F1080.000
G1 X131.769 Y73.730 E119.17599
G1 X130.631 Y74.867 E119.23433
G1 X130.631 Y75.134 E119.24399
G1 X131.769 Y76.271 E119.30234
G1 X131.769 Y85.733 E119.64549
G1 X130.733 Y86.769 E119.69861
G1 X19.267 Y86.769 E123.74124
G1 X18.231 Y85.733 E123.79437
G1 X18.231 Y76.271 E124.13752
G1 X19.369 Y75.134 E124.19586
G1 X19.369 Y74.867 E124.20552
G1 X18.231 Y73.730 E124.26387
G1 X18.231 Y64.267 E124.60706
G1 X19.225 Y63.274 E124.65800
G1 F1800.000 E123.65800
G1 Z0.600 F7800.000
G92 E0
G1 X36.980 Y74.808 F7800.000
G1 Z0.300 F7800.000
G1 E1.00000 F1800.000
G1 X37.840 Y74.348 E1.03539 F1080.000
G1 X38.425 Y73.471 E1.07361
G1 X39.130 Y72.986 E1.10465
G1 X39.968 Y72.807 E1.13572
G1 X40.810 Y72.962 E1.16679
G1 X41.574 Y73.471 E1.20007 F1080.000
G1 X42.038 Y74.190 E1.23110
G1 X42.193 Y74.969 E1.25992
G1 X42.014 Y75.870 E1.29323
G1 X41.529 Y76.575 E1.32427
G1 X40.869 Y77.015 E1.35305
G1 X40.031 Y77.194 E1.38412
G1 X39.130 Y77.015 E1.41743
G1 X38.425 Y76.530 E1.44847
G1 X37.840 Y75.653 E1.48669
G1 X36.980 Y75.193 E1.52209
G1 X36.980 Y74.868 E1.53388
G1 X37.661 Y74.868 F7800.000
G1 X37.661 Y74.808 E1.53606 F1080.000
G1 X38.063 Y74.593 E1.55257
G1 X38.702 Y73.658 E1.59365
G1 X39.314 Y73.264 E1.62004
G1 X40.031 Y73.134 E1.64647
G1 X40.685 Y73.264 E1.67065 F1080.000
G1 X41.297 Y73.658 E1.69704
G1 X41.736 Y74.315 E1.72569
G1 X41.866 Y74.969 E1.74987
G1 X41.736 Y75.686 E1.77630
G1 X41.297 Y76.343 E1.80495
G1 X40.685 Y76.737 E1.83134
G1 X40.031 Y76.867 E1.85551
G1 X39.314 Y76.737 E1.88195
G1 X38.657 Y76.298 E1.91060
G1 X38.063 Y75.408 E1.94940
G1 X37.661 Y75.193 E1.96592
G1 X37.661 Y74.928 E1.97555
G1 X38.243 Y74.928 F7800.000
G1 X38.243 Y74.903 E1.97645 F1080.000
G1 X38.889 Y73.935 E2.01867
G1 X39.381 Y73.591 E2.04043
G1 X39.968 Y73.462 E2.06222
G1 X40.560 Y73.567 E2.08403
G1 X41.110 Y73.935 E2.10803 F1080.000
G1 X41.433 Y74.440 E2.12978
G1 X41.538 Y74.969 E2.14932
G1 X41.409 Y75.619 E2.17337
G1 X41.110 Y76.066 E2.19287
G1 X40.618 Y76.410 E2.21463
G1 X39.968 Y76.539 E2.23867
G1 X39.381 Y76.410 E2.26047
G1 X38.889 Y76.066 E2.28223
G1 X38.243 Y75.098 E2.32445
G1 X38.243 Y74.988 E2.32844
G1 X38.629 Y74.988 F7800.000
G1 X38.629 Y74.903 E2.33152 F1080.000
G1 X39.166 Y74.122 E2.36589
G1 X39.565 Y73.870 E2.38301
G1 X40.031 Y73.790 E2.40017
G1 X40.434 Y73.870 E2.41508 F1080.000
G1 X40.833 Y74.122 E2.43219
G1 X41.130 Y74.566 E2.45155
G1 X41.210 Y74.969 E2.46646
G1 X41.130 Y75.435 E2.48363
G1 X40.833 Y75.879 E2.50299
G1 X40.434 Y76.131 E2.52010
G1 X40.031 Y76.211 E2.53501
G1 X39.565 Y76.131 E2.55218
G1 X39.121 Y75.834 E2.57154
G1 X38.629 Y75.098 E2.60366
G1 X38.629 Y75.048 E2.60547
G1 X39.016 Y75.048 F7800.000
G1 X39.016 Y74.903 E2.61072 F1080.000
G1 X39.397 Y74.353 E2.63499
G1 X39.690 Y74.173 E2.64747
G1 X39.968 Y74.118 E2.65774
G1 X40.309 Y74.173 E2.67027
G1 X40.647 Y74.398 E2.68499 F1080.000
G1 X40.827 Y74.691 E2.69747
G1 X40.882 Y74.969 E2.70774
G1 X40.827 Y75.310 E2.72027
G1 X40.602 Y75.648 E2.73499
G1 X40.309 Y75.828 E2.74747
G1 X40.031 Y75.883 E2.75774
G1 X39.690 Y75.828 E2.77027
G1 X39.352 Y75.603 E2.78499
G1 X39.021 Y75.106 E2.80664
G1 X39.402 Y75.098 F7800.000
G1 X39.402 Y74.903 E2.81370 F1080.000
G1 X39.584 Y74.630 E2.82560
G1 X39.815 Y74.476 E2.83569
G1 X40.031 Y74.445 E2.84359
G1 X40.242 Y74.500 E2.85148 F1080.000
G1 X40.370 Y74.585 E2.85706
G1 X40.500 Y74.758 E2.86491
G1 X40.555 Y75.032 E2.87505
G1 X40.524 Y75.185 E2.88068
G1 X40.415 Y75.371 E2.88852
G1 X40.184 Y75.525 E2.89860
G1 X40.031 Y75.556 E2.90424
G1 X39.815 Y75.525 E2.91214
G1 X39.629 Y75.416 E2.91998
G1 X39.435 Y75.148 E2.93197
G1 F1800.000 E1.93197
G1 Z0.600 F7800.000
G92 E0
G1 X107.806 Y75.032 F7800.000
G1 Z0.300 F7800.000
G1 E1.00000 F1800.000
G1 X107.961 Y74.190 E1.03107 F1080.000
G1 X108.470 Y73.426 E1.06436
G1 X109.189 Y72.962 E1.09539
G1 X109.968 Y72.807 E1.12420
G1 X110.810 Y72.962 E1.15527
G1 X111.574 Y73.471 E1.18856 F1080.000
G1 X112.159 Y74.348 E1.22677
G1 X113.019 Y74.808 E1.26217
G1 X113.019 Y75.193 E1.27614
G1 X112.159 Y75.653 E1.31154
G1 X111.529 Y76.575 E1.35201
G1 X110.810 Y77.039 E1.38304
G1 X110.031 Y77.194 E1.41185
G1 X109.189 Y77.039 E1.44293
G1 X108.425 Y76.530 E1.47621
G1 X107.985 Y75.870 E1.50499
G1 X107.817 Y75.091 E1.53388
G1 X108.133 Y75.032 F7800.000
G1 X108.263 Y74.315 E1.56032 F1080.000
G1 X108.657 Y73.703 E1.58671
G1 X109.314 Y73.264 E1.61535
G1 X110.031 Y73.134 E1.64179
G1 X110.685 Y73.264 E1.66596 F1080.000
G1 X111.297 Y73.658 E1.69236
G1 X111.936 Y74.593 E1.73342
G1 X112.338 Y74.808 E1.74995
G1 X112.338 Y75.193 E1.76392
G1 X111.936 Y75.408 E1.78044
G1 X111.342 Y76.298 E1.81925
G1 X110.685 Y76.737 E1.84789
G1 X110.031 Y76.867 E1.87207
G1 X109.314 Y76.737 E1.89851
G1 X108.657 Y76.298 E1.92715
G1 X108.288 Y75.744 E1.95129
G1 X108.145 Y75.091 E1.97554
G1 X108.461 Y75.032 F7800.000
G1 X108.566 Y74.440 E1.99735 F1080.000
G1 X108.934 Y73.890 E2.02135
G1 X109.439 Y73.567 E2.04310
G1 X109.968 Y73.462 E2.06264
G1 X110.560 Y73.567 E2.08444
G1 X111.110 Y73.935 E2.10845 F1080.000
G1 X111.756 Y74.903 E2.15067
G1 X111.756 Y75.098 E2.15774
G1 X111.065 Y76.111 E2.20222
G1 X110.560 Y76.434 E2.22397
G1 X110.031 Y76.539 E2.24351
G1 X109.439 Y76.434 E2.26531
G1 X108.889 Y76.066 E2.28932
G1 X108.590 Y75.619 E2.30881
G1 X108.473 Y75.091 E2.32843
G1 X108.789 Y75.032 F7800.000
G1 X108.869 Y74.566 E2.34560 F1080.000
G1 X109.121 Y74.167 E2.36271
G1 X109.565 Y73.870 E2.38208
G1 X110.031 Y73.790 E2.39924
G1 X110.434 Y73.870 E2.41415 F1080.000
G1 X110.833 Y74.122 E2.43126
G1 X111.370 Y74.903 E2.46564
G1 X111.370 Y75.098 E2.47270
G1 X110.878 Y75.834 E2.50482
G1 X110.434 Y76.131 E2.52418
G1 X110.031 Y76.211 E2.53909
G1 X109.565 Y76.131 E2.55625
G1 X109.121 Y75.834 E2.57562
G1 X108.893 Y75.494 E2.59047
G1 X108.801 Y75.091 E2.60546
G1 X109.117 Y75.032 F7800.000
G1 X109.172 Y74.691 E2.61799 F1080.000
G1 X109.397 Y74.353 E2.63272
G1 X109.690 Y74.173 E2.64519
G1 X109.968 Y74.118 E2.65546
G1 X110.309 Y74.173 E2.66799
G1 X110.647 Y74.398 E2.68272 F1080.000
G1 X110.983 Y74.903 E2.70472
G1 X110.983 Y75.098 E2.71179
G1 X110.602 Y75.648 E2.73606
G1 X110.309 Y75.828 E2.74853
G1 X110.031 Y75.883 E2.75881
G1 X109.690 Y75.828 E2.77134
G1 X109.352 Y75.603 E2.78606
G1 X109.196 Y75.368 E2.79628
G1 X109.128 Y75.091 E2.80663
G1 X109.444 Y75.032 F7800.000
G1 X109.475 Y74.816 E2.81453 F1080.000
G1 X109.584 Y74.630 E2.82237
G1 X109.815 Y74.476 E2.83245
G1 X110.031 Y74.445 E2.84036
G1 X110.184 Y74.476 E2.84599 F1080.000
G1 X110.370 Y74.585 E2.85383
G1 X110.597 Y74.903 E2.86799
G1 X110.597 Y75.098 E2.87506
G1 X110.415 Y75.371 E2.88696
G1 X110.184 Y75.525 E2.89705
G1 X110.031 Y75.556 E2.90268
G1 X109.815 Y75.525 E2.91058
G1 X109.584 Y75.371 E2.92066
G1 X109.499 Y75.243 E2.92624
G1 X109.456 Y75.091 E2.93197
G1 X107.564 Y75.468 F7800.000
G1 X107.682 Y75.995 E2.95157 F1080.000
G1 X108.238 Y76.806 E2.98725
G1 X109.063 Y77.342 E3.02292
G1 X109.968 Y77.522 E3.05637
G1 X110.994 Y77.318 E3.09432
G1 X111.805 Y76.762 E3.13000
G1 X112.381 Y75.899 E3.16761
G1 X113.021 Y75.557 E3.19391
G1 X130.600 Y75.557 E3.83147
G1 X131.447 Y76.404 E3.87493
G1 X131.447 Y85.600 E4.20843
G1 X130.600 Y86.447 E4.25189
G1 X19.400 Y86.447 E8.28486
G1 X18.553 Y85.600 E8.32833
G1 X18.553 Y76.404 E8.66182
G1 X19.400 Y75.557 E8.70529
G1 X36.978 Y75.557 E9.34281
G1 X37.618 Y75.899 E9.36911
G1 X38.194 Y76.762 E9.40672
G1 X39.005 Y77.318 E9.44240
G1 X40.031 Y77.522 E9.48035
G1 X40.994 Y77.318 E9.51606
G1 X41.805 Y76.762 E9.55173
G1 X42.341 Y75.937 E9.58740
G1 X42.521 Y75.032 E9.62085
G1 X42.341 Y74.064 E9.65656
G1 X41.805 Y73.239 E9.69223
G1 X40.994 Y72.683 E9.72791
G1 X40.031 Y72.479 E9.76361
G1 X39.005 Y72.683 E9.80157
G1 X38.194 Y73.239 E9.83725
G1 X37.618 Y74.102 E9.87487
G1 X36.978 Y74.444 E9.90116
G1 X19.400 Y74.444 E10.53868
G1 X18.553 Y73.597 E10.58214
G1 X18.553 Y64.400 E10.91568
G1 X19.400 Y63.553 E10.95914
G1 X130.600 Y63.553 E14.99211
G1 X131.447 Y64.400 E15.03557
G1 X131.447 Y73.597 E15.36911 F1080.000
G1 X130.600 Y74.444 E15.41257
G1 X113.021 Y74.444 E16.05013
G1 X112.381 Y74.102 E16.07643
G1 X111.805 Y73.239 E16.11404
G1 X110.994 Y72.683 E16.14972
G1 X109.968 Y72.479 E16.18767
G1 X109.005 Y72.683 E16.22337
G1 X108.194 Y73.239 E16.25905
G1 X107.658 Y74.064 E16.29472
G1 X107.478 Y74.969 E16.32817
G1 X107.553 Y75.409 E16.34436
G1 X107.237 Y75.472 F7800.000
G1 X107.379 Y76.121 E16.36845 F1080.000
G1 X108.007 Y77.038 E16.40877
G1 X108.938 Y77.645 E16.44908
G1 X109.968 Y77.850 E16.48717
G1 X111.120 Y77.621 E16.52976
G1 X111.992 Y77.038 E16.56781
G1 X112.604 Y76.144 E16.60709
G1 X113.101 Y75.878 E16.62755
G1 X130.467 Y75.878 E17.25735
G1 X131.126 Y76.537 E17.29116
G1 X131.126 Y85.467 E17.61500
G1 X130.467 Y86.126 E17.64880
G1 X19.533 Y86.126 E21.67212
G1 X18.874 Y85.467 E21.70592
G1 X18.874 Y76.537 E22.02976
G1 X19.533 Y75.878 E22.06356
G1 X36.898 Y75.878 E22.69333
G1 X37.395 Y76.144 E22.71379
G1 X38.007 Y77.038 E22.75307
G1 X38.879 Y77.621 E22.79113
G1 X40.031 Y77.850 E22.83371
G1 X41.061 Y77.645 E22.87180
G1 X41.992 Y77.038 E22.91211
G1 X42.620 Y76.121 E22.95243
G1 X42.849 Y75.032 E22.99277
G1 X42.644 Y73.939 E23.03311
G1 X42.037 Y73.008 E23.07342
G1 X41.120 Y72.380 E23.11374
G1 X40.031 Y72.151 E23.15408
G1 X38.879 Y72.380 E23.19667
G1 X38.007 Y72.963 E23.23472
G1 X37.395 Y73.857 E23.27401
G1 X36.898 Y74.123 E23.29446
G1 X19.533 Y74.123 E23.92423
G1 X18.874 Y73.464 E23.95803
G1 X18.874 Y64.533 E24.28191
G1 X19.533 Y63.874 E24.31571
G1 X130.467 Y63.874 E28.33903
G1 X131.126 Y64.533 E28.37283 F1080.000
G1 X131.126 Y73.464 E28.69671
G1 X130.467 Y74.123 E28.73051
G1 X113.101 Y74.123 E29.36032
G1 X112.604 Y73.857 E29.38077
G1 X111.992 Y72.963 E29.42005
G1 X111.120 Y72.380 E29.45811
G1 X109.968 Y72.151 E29.50070
G1 X108.879 Y72.380 E29.54103
G1 X107.962 Y73.008 E29.58135
G1 X107.355 Y73.939 E29.62166
G1 X107.150 Y74.969 E29.65975
G1 X107.226 Y75.413 E29.67608
G1 X106.910 Y75.475 F7800.000
G1 X107.076 Y76.246 E29.70466 F1080.000
G1 X107.775 Y77.270 E29.74962
G1 X108.813 Y77.948 E29.79457
G1 X109.968 Y78.178 E29.83729
G1 X111.245 Y77.924 E29.88452
G1 X112.224 Y77.270 E29.92722
G1 X112.827 Y76.390 E29.96590
G1 X113.182 Y76.200 E29.98051
G1 X130.333 Y76.200 E30.60257
G1 X130.804 Y76.671 E30.62671
G1 X130.804 Y85.333 E30.94089
G1 X130.333 Y85.804 E30.96504
G1 X19.667 Y85.804 E34.97869
G1 X19.196 Y85.333 E35.00284
G1 X19.196 Y76.671 E35.31702
