; generated by Slic3r 1.1.7 on 2015-01-19 at 13:09:28

; perimeters extrusion width = 0.40mm
; infill extrusion width = 0.42mm
; solid infill extrusion width = 0.42mm
; top infill extrusion width = 0.42mm

G21 ; set units to millimeters
M107
M190 S35 ; wait for bed temperature to be reached
M104 S195 ; set temperature
G28 ; home all axes
G29 ;
G1 Z5 F5000 ; lift nozzle

M109 S195 ; wait for temperature to be reached
G90 ; use absolute coordinates
G92 E0
M82 ; use absolute distances for extrusion
G1 F1800.000 E-1.00000
G92 E0
G1 Z0.350 F7800.000
G1 X57.841 Y64.409 F7800.000
G1 E1.00000 F1800.000
G1 X66.718 Y64.409 E1.82104 F1080.000
G1 X66.976 Y64.287 E1.84746
G1 X67.517 Y63.627 E1.92637
G1 X67.628 Y63.516 E1.94090
G1 X68.886 Y62.485 E2.09131
G1 X69.015 Y62.399 E2.10568
G1 X70.450 Y61.631 E2.25618
G1 X70.595 Y61.571 E2.27069
G1 X72.152 Y61.100 E2.42112
G1 X72.304 Y61.070 E2.43553
G1 X74.465 Y60.857 E2.63637
G1 X74.499 Y60.887 E2.64055
G1 X74.686 Y60.970 E2.65947 F1080.000
G1 X75.697 Y61.070 E2.75341
G1 X75.849 Y61.100 E2.76781
G1 X77.406 Y61.571 E2.91825
G1 X77.551 Y61.631 E2.93276
G1 X78.986 Y62.399 E3.08325
G1 X79.115 Y62.485 E3.09761
G1 X80.373 Y63.516 E3.24805
G1 X80.484 Y63.627 E3.26257
G1 X81.515 Y64.885 E3.41299
G1 X81.601 Y65.014 E3.42735
G1 X82.369 Y66.449 E3.57784
G1 X82.429 Y66.594 E3.59234
G1 X83.081 Y68.750 E3.80067
G1 X82.438 Y69.824 E3.91648
G1 X82.438 Y70.175 E3.94901
G1 X83.081 Y71.250 E4.06483
G1 X82.429 Y73.405 E4.27314
G1 X82.369 Y73.550 E4.28765
G1 X81.601 Y74.985 E4.43814
G1 X81.515 Y75.114 E4.45251
G1 X80.484 Y76.372 E4.60292
G1 X80.373 Y76.483 E4.61745
G1 X79.115 Y77.514 E4.76788
G1 X78.986 Y77.600 E4.78225
G1 X77.551 Y78.368 E4.93274
G1 X77.406 Y78.428 E4.94725
G1 X75.850 Y78.899 E5.09765
G1 X75.697 Y78.929 E5.11201
G1 X74.079 Y79.090 E5.26243
G1 X73.922 Y79.090 E5.27696
G1 X72.304 Y78.929 E5.42738
G1 X72.151 Y78.899 E5.44174
G1 X70.595 Y78.428 E5.59215
G1 X70.450 Y78.368 E5.60666
G1 X69.015 Y77.600 E5.75715
G1 X68.886 Y77.514 E5.77152
G1 X67.849 Y76.664 E5.89552
G1 X67.642 Y76.590 E5.91590
G1 X57.841 Y76.590 E6.82236
G1 X56.910 Y75.659 E6.94411
G1 X56.910 Y65.340 E7.89847
G1 X57.799 Y64.452 E8.01468
G1 F1800.000 E7.01468
G92 E0
G1 X81.509 Y69.478 F7800.000
G1 E1.00000 F1800.000
G1 X81.509 Y70.521 E1.09642 F1080.000
G1 X81.957 Y70.610 E1.13869
G1 X82.391 Y71.335 E1.21680
G1 X81.829 Y73.191 E1.39617
G1 X81.055 Y74.657 E1.54956
G1 X80.012 Y75.944 E1.70278
G1 X78.736 Y77.002 E1.85611
G1 X77.279 Y77.792 E2.00940
G1 X75.695 Y78.281 E2.16270
G1 X73.953 Y78.454 E2.32459
G1 X72.306 Y78.282 E2.47781
G1 X70.722 Y77.792 E2.63111
G1 X69.343 Y77.054 E2.77583
G1 X68.077 Y76.028 E2.92655
G1 X67.869 Y75.954 E2.94693
G1 X58.105 Y75.954 E3.85006
G1 X57.546 Y75.395 E3.92311
G1 X57.546 Y65.604 E4.82877
G1 X58.105 Y65.045 E4.90182
G1 X67.019 Y65.045 E5.72634
G1 X67.277 Y64.923 E5.75276
G1 X68.056 Y63.988 E5.86527
G1 X69.343 Y62.945 E6.01849
G1 X70.722 Y62.207 E6.16321
G1 X72.306 Y61.717 E6.31652
G1 X74.264 Y61.516 E6.49860
G1 X74.415 Y61.582 E6.51382
G1 X75.695 Y61.717 E6.63291
G1 X77.279 Y62.207 E6.78622
G1 X78.658 Y62.945 E6.93094
G1 X79.945 Y63.988 E7.08417
G1 X81.003 Y65.264 E7.23748
G1 X81.793 Y66.721 E7.39078
G1 X82.391 Y68.664 E7.57883
G1 X81.957 Y69.389 E7.65694
G1 X81.568 Y69.467 E7.69365
G1 F1800.000 E6.69365
G92 E0
G1 X79.573 Y69.639 F7800.000
G1 E1.00000 F1800.000
G1 X79.573 Y70.360 E1.06666 F1080.000
G1 X79.224 Y70.568 E1.10421
G1 X78.804 Y71.952 E1.23799
G1 X78.295 Y72.902 E1.33762
G1 X77.689 Y73.640 E1.42593
G1 X76.908 Y74.289 E1.51986
G1 X76.014 Y74.773 E1.61391
G1 X74.981 Y75.086 E1.71368
G1 X73.970 Y75.179 E1.80766
G1 X72.958 Y75.074 E1.90174
G1 X72.045 Y74.796 E1.99001
G1 X71.145 Y74.323 E2.08399
G1 X70.312 Y73.640 E2.18370
G1 X69.706 Y72.902 E2.27201
G1 X69.221 Y72.010 E2.36589
G1 X68.908 Y70.979 E2.46555
G1 X68.815 Y70.031 E2.55369
G1 X68.908 Y69.020 E2.64758
G1 X69.221 Y67.989 E2.74724
G1 X69.706 Y67.097 E2.84111
G1 X70.312 Y66.359 E2.92942
G1 X71.145 Y65.676 E3.02913
G1 X72.045 Y65.203 E3.12312
G1 X72.958 Y64.925 E3.21139
G1 X73.970 Y64.820 E3.30546
G1 X74.982 Y64.913 E3.39945
G1 X75.956 Y65.203 E3.49350 F1080.000
G1 X76.856 Y65.676 E3.58749
G1 X77.689 Y66.359 E3.68720
G1 X78.295 Y67.097 E3.77551
G1 X78.780 Y67.989 E3.86938
G1 X79.224 Y69.431 E4.00892
G1 X79.521 Y69.608 E4.04092
G1 X78.703 Y69.903 F7800.000
G1 X78.704 Y70.094 E4.05857 F1080.000
G1 X78.214 Y71.708 E4.21455
G1 X77.765 Y72.547 E4.30259
G1 X77.238 Y73.188 E4.37934
G1 X76.553 Y73.757 E4.46169
G1 X75.770 Y74.182 E4.54416
G1 X74.857 Y74.459 E4.63234
G1 X73.970 Y74.540 E4.71477
G1 X73.144 Y74.459 E4.79150
G1 X72.231 Y74.182 E4.87969
G1 X71.500 Y73.792 E4.95639
G1 X70.807 Y73.232 E5.03877
G1 X70.202 Y72.495 E5.12700
G1 X69.787 Y71.708 E5.20930
G1 X69.547 Y70.916 E5.28584
G1 X69.453 Y69.968 E5.37390
G1 X69.547 Y69.083 E5.45621
G1 X69.787 Y68.291 E5.53275
G1 X70.236 Y67.452 E5.62079
G1 X70.807 Y66.767 E5.70328
G1 X71.500 Y66.207 E5.78567
G1 X72.231 Y65.817 E5.86236
G1 X73.082 Y65.552 E5.94477
G1 X74.031 Y65.459 E6.03298
G1 X74.857 Y65.540 E6.10971 F1080.000
G1 X75.712 Y65.793 E6.19218
G1 X76.501 Y66.207 E6.27459
G1 X77.194 Y66.767 E6.35698
G1 X77.765 Y67.452 E6.43946
G1 X78.190 Y68.234 E6.52175
G1 X78.686 Y69.846 E6.67776
G1 X79.972 Y69.137 F7800.000
G1 X79.761 Y69.011 E6.70045 F1080.000
G1 X79.394 Y67.802 E6.81734
G1 X78.861 Y66.794 E6.92281
G1 X78.097 Y65.864 E7.03416
G1 X77.210 Y65.144 E7.13973
G1 X76.258 Y64.636 E7.23957
G1 X75.106 Y64.287 E7.35092
G1 X73.970 Y64.182 E7.45647
G1 X72.834 Y64.299 E7.56210
G1 X71.743 Y64.636 E7.66767
G1 X70.791 Y65.144 E7.76751
G1 X69.860 Y65.908 E7.87880
G1 X69.175 Y66.742 E7.97868
G1 X68.631 Y67.744 E8.08414
G1 X68.294 Y68.834 E8.18964
G1 X68.176 Y69.968 E8.29513
G1 X68.294 Y71.165 E8.40638
G1 X68.631 Y72.255 E8.51188
G1 X69.175 Y73.257 E8.61734
G1 X69.860 Y74.091 E8.71721
G1 X70.738 Y74.820 E8.82273
G1 X71.743 Y75.363 E8.92835
G1 X72.833 Y75.700 E9.03392
G1 X73.970 Y75.817 E9.13955
G1 X75.106 Y75.712 E9.24510
G1 X76.258 Y75.363 E9.35645
G1 X77.263 Y74.820 E9.46207
G1 X78.141 Y74.091 E9.56759
G1 X78.826 Y73.257 E9.66746
G1 X79.394 Y72.197 E9.77867
G1 X79.761 Y70.988 E9.89557
G1 X79.972 Y70.862 E9.91826
G1 X81.557 Y71.178 E10.06777
G1 X81.701 Y71.420 E10.09381
G1 X81.218 Y73.006 E10.24714
G1 X80.509 Y74.330 E10.38608
G1 X79.540 Y75.517 E10.52780
G1 X78.331 Y76.508 E10.67242
G1 X77.007 Y77.217 E10.81136
G1 X75.541 Y77.664 E10.95311
G1 X73.985 Y77.818 E11.09772
G1 X72.460 Y77.664 E11.23945
G1 X71.023 Y77.229 E11.37831
G1 X69.644 Y76.491 E11.52300
G1 X68.483 Y75.539 E11.66186
G1 X68.265 Y75.278 E11.69337
G1 X67.701 Y75.250 E11.74551
G1 X67.633 Y75.318 E11.75445
G1 X58.368 Y75.318 E12.61140
G1 X58.182 Y75.132 E12.63576
G1 X58.182 Y65.867 E13.49271
G1 X58.368 Y65.681 E13.51706
G1 X67.320 Y65.681 E14.34505
G1 X67.578 Y65.558 E14.37147
G1 X68.483 Y64.460 E14.50312
G1 X69.670 Y63.491 E14.64484
G1 X71.023 Y62.770 E14.78667
G1 X72.460 Y62.335 E14.92554
G1 X74.091 Y62.171 E15.07716
G1 X74.143 Y62.194 E15.08241
G1 X75.541 Y62.335 E15.21230
G1 X77.007 Y62.782 E15.35405
G1 X78.331 Y63.491 E15.49299
G1 X79.518 Y64.460 E15.63472
G1 X80.492 Y65.643 E15.77648
G1 X81.218 Y66.993 E15.91828
G1 X81.701 Y68.579 E16.07161
G1 X81.557 Y68.821 E16.09764
G1 X80.030 Y69.125 E16.24161
G1 F1800.000 E15.24161
G92 E0
G1 X67.757 Y73.410 F7800.000
G1 E1.00000 F1800.000
G1 X67.151 Y73.562 E1.05772 F378.000
G1 X67.151 Y74.650 E1.15839
G1 X58.849 Y74.650 E1.92625
G1 X58.849 Y66.348 E2.69411
G1 X67.151 Y66.348 E3.46197
G1 X67.151 Y66.437 E3.47016
G1 X67.757 Y66.589 E3.52788
G1 X68.057 Y66.028 E3.58672
G1 X68.945 Y64.944 E3.71631
G1 X70.029 Y64.056 E3.84591
G1 X71.265 Y63.394 E3.97559
G1 X72.606 Y62.988 E4.10518
G1 X74.000 Y62.851 E4.23478
G1 X75.395 Y62.988 E4.36438
G1 X76.736 Y63.394 E4.49396
G1 X77.972 Y64.056 E4.62364
G1 X79.056 Y64.944 E4.75324
G1 X79.944 Y66.028 E4.88284
G1 X80.606 Y67.264 E5.01252
G1 X80.910 Y68.269 E5.10961
G1 X80.272 Y68.396 E5.16975
G1 X80.004 Y67.515 E5.25495
G1 X79.404 Y66.393 E5.37264
G1 X78.595 Y65.409 E5.49046
G1 X77.611 Y64.601 E5.60823
G1 X76.487 Y64.002 E5.72603
G1 X75.268 Y63.632 E5.84385
G1 X74.001 Y63.508 E5.96164
G1 X72.733 Y63.632 E6.07943
G1 X71.514 Y64.002 E6.19725
G1 X70.390 Y64.601 E6.31506
G1 X69.406 Y65.409 E6.43283
G1 X68.597 Y66.393 E6.55064
G1 X67.997 Y67.515 E6.66834
G1 X67.627 Y68.733 E6.78608
G1 X67.502 Y69.999 E6.90381
G1 X67.627 Y71.266 E7.02153
G1 X67.997 Y72.484 E7.13928
G1 X68.597 Y73.606 E7.25697
G1 X69.406 Y74.590 E7.37479
G1 X70.390 Y75.398 E7.49256
G1 X71.514 Y75.997 E7.61036
G1 X72.733 Y76.367 E7.72818
G1 X74.000 Y76.491 E7.84597
G1 X75.268 Y76.367 E7.96376
G1 X76.487 Y75.997 E8.08158
G1 X77.611 Y75.398 E8.19938
G1 X78.595 Y74.590 E8.31716
G1 X79.404 Y73.606 E8.43497
G1 X80.004 Y72.484 E8.55267
G1 X80.272 Y71.603 E8.63787
G1 X80.910 Y71.730 E8.69800
G1 X80.606 Y72.735 E8.79510
G1 X79.944 Y73.971 E8.92478
G1 X79.056 Y75.055 E9.05438
G1 X77.972 Y75.943 E9.18397
G1 X76.736 Y76.605 E9.31365
G1 X75.395 Y77.011 E9.44325
G1 X74.000 Y77.149 E9.57285
G1 X72.606 Y77.011 E9.70244
G1 X71.265 Y76.605 E9.83204
G1 X70.029 Y75.943 E9.96172
G1 X68.945 Y75.055 E10.09132
G1 X68.057 Y73.971 E10.22091
G1 X67.785 Y73.463 E10.27420
G1 X67.628 Y73.032 F7800.000
G1 X66.516 Y73.066 F7800.000
G1 X66.516 Y74.015 E10.36196 F540.000
G1 X59.485 Y74.015 E11.01224
G1 X59.485 Y66.984 E11.66252
G1 X66.720 Y66.984 E12.33169
G1 X67.439 Y67.164 E12.40023
G1 X67.000 Y68.608 E12.53978
G1 X66.863 Y69.999 E12.66910
G1 X67.000 Y71.391 E12.79842
G1 X67.439 Y72.835 E12.93798
G1 X66.574 Y73.051 E13.02044
G1 X65.880 Y72.570 F7800.000
G1 X65.880 Y73.379 E13.09527 F540.000
G1 X60.121 Y73.379 E13.62798
G1 X60.121 Y67.620 E14.16068
G1 X66.636 Y67.620 E14.76330
G1 X66.374 Y68.483 E14.84678
G1 X66.224 Y69.999 E14.98769
G1 X66.374 Y71.516 E15.12860
G1 X66.637 Y72.381 E15.21220
G1 X65.938 Y72.556 E15.27876
G1 X65.995 Y68.061 F7800.000
G1 X66.031 Y68.097 E15.28347 F1080.000
G1 X65.891 Y68.890 E15.35803
G1 X65.061 Y68.061 E15.46658
G1 X64.127 Y68.061 E15.55295
G1 X65.807 Y69.740 E15.77268
G1 X65.852 Y70.720 E15.86334
G1 X63.193 Y68.061 E16.21115
G1 X62.260 Y68.061 E16.29751
G1 X66.000 Y71.800 E16.78670
G1 X65.481 Y72.216 E16.84813
G1 X61.326 Y68.061 E17.39164
G1 X60.562 Y68.230 E17.46406
G1 X65.270 Y72.938 E18.07995
G1 X64.336 Y72.938 E18.16631
G1 X60.562 Y69.164 E18.66007
G1 X60.562 Y70.097 E18.74643
G1 X63.403 Y72.938 E19.11806
G1 X62.469 Y72.938 E19.20442
G1 X60.562 Y71.031 E19.45392
G1 X60.562 Y71.965 E19.54028
G1 X61.535 Y72.938 E19.66764
G1 X60.602 Y72.938 E19.75400
G1 X60.562 Y72.898 E19.75924
M106 S255
M104 S190 ; set temperature
G1 F1800.000 E18.75924
G92 E0
G1 Z0.650 F7800.000
G1 X66.501 Y73.055 F7800.000
G1 E1.00000 F1800.000
G1 X66.501 Y74.000 E1.04718 F629.161
G1 X59.499 Y74.000 E1.39651
G1 X59.499 Y66.998 E1.74584
G1 X66.718 Y66.998 E2.10599
G1 X67.421 Y67.175 E2.14212
G1 X66.986 Y68.605 E2.21671
G1 X66.849 Y69.999 E2.28661
G1 X66.986 Y71.394 E2.35650
G1 X67.421 Y72.824 E2.43110
G1 X66.560 Y73.040 E2.47538
G1 X66.901 Y73.367 F7800.000
G1 X66.901 Y74.400 E2.52695 F629.161
G1 X59.099 Y74.400 E2.91619
G1 X59.099 Y66.598 E3.30544
G1 X66.768 Y66.598 E3.68800
G1 X68.034 Y66.916 E3.75312
G1 X67.765 Y67.418 E3.78156
G1 X67.380 Y68.684 E3.84753
G1 X67.251 Y69.999 E3.91349
G1 X67.380 Y71.315 E3.97945
G1 X67.765 Y72.581 E4.04543
G1 X68.034 Y73.083 E4.07387
G1 X66.960 Y73.352 E4.12910
G1 X67.301 Y73.679 F7800.000
G1 X67.301 Y74.800 E4.18505 F600.000
G1 X58.699 Y74.800 E4.61421
G1 X58.699 Y66.198 E5.04337
G1 X67.301 Y66.198 E5.47252
G1 X67.301 Y66.320 E5.47858
G1 X67.680 Y66.415 E5.49804
G1 X67.932 Y65.944 E5.52467
G1 X68.839 Y64.838 E5.59605
G1 X69.945 Y63.931 E5.66743
G1 X71.207 Y63.255 E5.73885
G1 X72.577 Y62.841 E5.81023
G1 X74.000 Y62.700 E5.88161
G1 X75.424 Y62.841 E5.95299
G1 X76.794 Y63.255 E6.02436
G1 X78.056 Y63.931 E6.09579
G1 X79.162 Y64.838 E6.16717
G1 X80.069 Y65.944 E6.23855
G1 X80.745 Y67.206 E6.30997
G1 X81.101 Y68.384 E6.37133
G1 X80.168 Y68.570 E6.41880
G1 X79.865 Y67.572 E6.47080
G1 X79.279 Y66.477 E6.53281
G1 X78.489 Y65.515 E6.59489
G1 X77.527 Y64.726 E6.65694
G1 X76.429 Y64.141 E6.71901
G1 X75.239 Y63.779 E6.78110
G1 X74.000 Y63.659 E6.84316
G1 X72.762 Y63.779 E6.90522
G1 X71.572 Y64.141 E6.96730
G1 X70.474 Y64.726 E7.02938
G1 X69.512 Y65.515 E7.09143
G1 X68.722 Y66.477 E7.15351
G1 X68.136 Y67.572 E7.21551
G1 X67.774 Y68.762 E7.27755
G1 X67.653 Y69.999 E7.33958
G1 X67.774 Y71.237 E7.40160
G1 X68.136 Y72.427 E7.46364
G1 X68.722 Y73.522 E7.52565
G1 X69.512 Y74.484 E7.58773
G1 X70.474 Y75.273 E7.64978
G1 X71.572 Y75.858 E7.71185
G1 X72.762 Y76.220 E7.77393
G1 X74.000 Y76.340 E7.83599
G1 X75.239 Y76.220 E7.89806
G1 X76.429 Y75.858 E7.96014
G1 X77.527 Y75.273 E8.02221
G1 X78.489 Y74.484 E8.08426
G1 X79.279 Y73.522 E8.14634
G1 X79.865 Y72.427 E8.20835
G1 X80.168 Y71.429 E8.26035
G1 X81.101 Y71.615 E8.30782
G1 X80.745 Y72.793 E8.36918
G1 X80.069 Y74.055 E8.44061
G1 X79.162 Y75.161 E8.51199
G1 X78.056 Y76.068 E8.58337
G1 X76.794 Y76.744 E8.65479
G1 X75.424 Y77.158 E8.72617
G1 X74.000 Y77.300 E8.79755
G1 X72.577 Y77.158 E8.86893
G1 X71.207 Y76.744 E8.94031
G1 X69.945 Y76.068 E9.01173
G1 X68.839 Y75.161 E9.08311
G1 X67.932 Y74.055 E9.15449
G1 X67.680 Y73.584 E9.18112
G1 X67.360 Y73.664 E9.19759
G1 X66.903 Y73.712 F7800.000
G1 X66.227 Y73.686 F7800.000
G1 X66.187 Y73.726 E9.20054 F1258.321
G1 X65.576 Y73.726 E9.23245
G1 X66.981 Y72.321 E9.33625
G1 X66.839 Y71.853 E9.36183
G1 X64.966 Y73.726 E9.50024
G1 X64.355 Y73.726 E9.53215
G1 X66.708 Y71.373 E9.70604
G1 X66.654 Y70.817 E9.73523
G1 X63.744 Y73.726 E9.95021
G1 X63.133 Y73.726 E9.98212
G1 X66.599 Y70.261 E10.23818
G1 X66.608 Y69.640 E10.27060
G1 X62.522 Y73.726 E10.57250
G1 X61.912 Y73.726 E10.60442
G1 X66.675 Y68.963 E10.95638
G1 X66.821 Y68.206 E10.99661
G1 X61.301 Y73.726 E11.40444
G1 X60.690 Y73.726 E11.43635
G1 X67.040 Y67.376 E11.90555
G1 X66.533 Y67.273 E11.93262
G1 X60.079 Y73.726 E12.40944
G1 X59.774 Y73.421 E12.43201
G1 X65.922 Y67.273 E12.88626
G1 X65.311 Y67.273 E12.91818
G1 X59.774 Y72.810 E13.32730
G1 X59.774 Y72.199 E13.35922
G1 X64.700 Y67.273 E13.72321
G1 X64.089 Y67.273 E13.75512
G1 X59.774 Y71.588 E14.07399
G1 X59.774 Y70.978 E14.10590
G1 X63.479 Y67.273 E14.37964
G1 X62.868 Y67.273 E14.41155
G1 X59.774 Y70.367 E14.64016
G1 X59.774 Y69.756 E14.67207
G1 X62.257 Y67.273 E14.85555
G1 X61.646 Y67.273 E14.88746
G1 X59.774 Y69.145 E15.02581
G1 X59.774 Y68.534 E15.05772
G1 X61.035 Y67.273 E15.15093
G1 X60.425 Y67.273 E15.18285
G1 X59.774 Y67.924 E15.23093
G1 X59.774 Y67.313 E15.26284
G1 X59.814 Y67.273 E15.26580
G1 X68.057 Y66.716 F7800.000
G1 X68.329 Y66.209 E15.30572 F600.000
G1 X69.177 Y65.176 E15.39862
G1 X70.211 Y64.328 E15.49151
G1 X71.391 Y63.698 E15.58446
G1 X72.696 Y63.307 E15.67915
G1 X74.001 Y63.180 E15.77019
G1 X75.324 Y63.310 E15.86259
G1 X76.636 Y63.711 E15.95794
G1 X77.790 Y64.328 E16.04886
G1 X78.824 Y65.176 E16.14175
G1 X79.676 Y66.216 E16.23516
G1 X80.304 Y67.389 E16.32762
G1 X80.576 Y68.284 E16.39265
G1 F1800.000 E15.39265
G92 E0
G1 X80.576 Y71.715 F7800.000
G1 E1.00000 F1800.000
G1 X80.304 Y72.610 E1.06503 F600.000
G1 X79.687 Y73.763 E1.15591
G1 X78.824 Y74.823 E1.25087
G1 X77.790 Y75.671 E1.34377
G1 X76.636 Y76.288 E1.43468
G1 X75.331 Y76.688 E1.52957
G1 X74.001 Y76.819 E1.62245
G1 X72.696 Y76.692 E1.71349
G1 X71.391 Y76.301 E1.80818
G1 X70.211 Y75.671 E1.90113
G1 X69.177 Y74.823 E1.99402
G1 X68.329 Y73.790 E2.08692
G1 X68.057 Y73.284 E2.12684
G1 F1800.000 E1.12684
G92 E0
G1 Z0.950 F7800.000
G1 X66.501 Y73.055 F7800.000
G1 E1.00000 F1800.000
G1 X66.501 Y74.000 E1.04718 F627.960
G1 X59.499 Y74.000 E1.39651
G1 X59.499 Y66.998 E1.74584
G1 X66.718 Y66.998 E2.10599
G1 X67.421 Y67.175 E2.14211
G1 X66.986 Y68.605 E2.21671
G1 X66.849 Y69.999 E2.28661
G1 X66.986 Y71.394 E2.35650
G1 X67.421 Y72.824 E2.43110
G1 X66.560 Y73.040 E2.47538
G1 X66.901 Y73.367 F7800.000
G1 X66.901 Y74.400 E2.52695 F627.960
G1 X59.099 Y74.400 E2.91619
G1 X59.099 Y66.598 E3.30543
G1 X66.768 Y66.598 E3.68800
G1 X68.034 Y66.916 E3.75312
G1 X67.765 Y67.418 E3.78155
G1 X67.380 Y68.684 E3.84753
G1 X67.251 Y69.999 E3.91349
G1 X67.380 Y71.315 E3.97945
