; generated by Slic3r 1.1.7 on 2014-12-12 at 18:10:42

; perimeters extrusion width = 0.40mm
; infill extrusion width = 0.67mm
; solid infill extrusion width = 0.67mm
; top infill extrusion width = 0.67mm

G21 ; set units to millimeters
M107
M104 S215 ; set temperature
G28 ; home all axes
G29; calibrate bed leveling
G1 Z5 F5000 ; lift nozzle
G28 X ; Go to corner x
G28 Y ; Go to corner y

M109 S215 ; wait for temperature to be reached
G90 ; use absolute coordinates
G92 E0
M82 ; use absolute distances for extrusion
G1 F1800.000 E-1.00000
G1 Z0.550 F7800.000
G92 E0
G1 X58.754 Y66.881 F7800.000
G1 Z0.250 F7800.000
G1 E1.00000 F1800.000
G1 X60.494 Y65.482 E1.06625 F1080.000
G1 X62.039 Y64.888 E1.11535
G1 X76.922 Y61.392 E1.56892
G1 X78.385 Y61.248 E1.61254
G1 X79.616 Y61.248 E1.64905
G1 X81.079 Y61.392 E1.69267
G1 X82.284 Y61.631 E1.72912 F1080.000
G1 X83.691 Y62.057 E1.77274
G1 X84.834 Y62.530 E1.80945
G1 X86.131 Y63.224 E1.85310
G1 X87.150 Y63.905 E1.88944
G1 X88.287 Y64.837 E1.93306
G1 X89.163 Y65.713 E1.96981
G1 X90.095 Y66.850 E2.01343
G1 X90.776 Y67.869 E2.04977
G1 X91.470 Y69.166 E2.09342
G1 X91.943 Y70.309 E2.13012
G1 X92.369 Y71.716 E2.17375
G1 X92.639 Y73.536 E2.22835
G1 X92.639 Y76.462 E2.31516
G1 X92.369 Y78.282 E2.36974
G1 X91.943 Y79.690 E2.41337
G1 X91.470 Y80.833 E2.45008
G1 X90.776 Y82.130 E2.49373
G1 X90.095 Y83.149 E2.53008
G1 X89.163 Y84.286 E2.57370
G1 X88.287 Y85.162 E2.61044
G1 X87.150 Y86.094 E2.65407
G1 X86.131 Y86.775 E2.69041
G1 X84.834 Y87.469 E2.73406
G1 X83.691 Y87.942 E2.77077
G1 X82.284 Y88.368 E2.81440
G1 X81.083 Y88.607 E2.85071
G1 X79.620 Y88.752 E2.89434
G1 X78.381 Y88.752 E2.93108
G1 X76.498 Y88.551 E2.98727
G1 X62.460 Y86.196 E3.40958
G1 X60.359 Y85.441 E3.47582
G1 X58.654 Y83.999 E3.54207
G1 X57.562 Y82.052 E3.60832
G1 X57.217 Y80.001 E3.67002
G1 X57.217 Y70.998 E3.93710
G1 X57.614 Y68.801 E4.00334
G1 X58.724 Y66.933 E4.06781
G1 F1800.000 E3.06781
G1 Z0.550 F7800.000
G92 E0
G1 X79.000 Y82.091 F7800.000
G1 Z0.250 F7800.000
G1 E1.00000 F1800.000
G1 X77.617 Y81.954 E1.04124 F540.000
G1 X76.287 Y81.551 E1.08247
G1 X75.061 Y80.895 E1.12374
G1 X73.986 Y80.014 E1.16497
G1 X73.105 Y78.939 E1.20621
G1 X72.786 Y78.344 E1.22624
G1 X72.094 Y78.517 E1.24740
G1 X72.094 Y79.593 E1.27932
G1 X63.907 Y79.593 E1.52224
G1 X63.907 Y71.406 E1.76515
G1 X72.094 Y71.406 E2.00806
G1 X72.094 Y71.482 E2.01032
G1 X72.786 Y71.655 E2.03148
G1 X73.105 Y71.060 E2.05151
G1 X73.986 Y69.985 E2.09275
G1 X75.061 Y69.104 E2.13398
G1 X76.287 Y68.448 E2.17525
G1 X77.617 Y68.045 E2.21648
G1 X79.001 Y67.909 E2.25772 F540.000
G1 X80.384 Y68.045 E2.29896
G1 X81.714 Y68.448 E2.34019
G1 X82.940 Y69.104 E2.38145
G1 X84.015 Y69.985 E2.42269
G1 X84.896 Y71.060 E2.46392
G1 X85.552 Y72.286 E2.50519
G1 X85.837 Y73.225 E2.53429
G1 X85.312 Y73.330 E2.55018
G1 X85.057 Y72.493 E2.57614
G1 X84.452 Y71.361 E2.61422
G1 X83.636 Y70.368 E2.65235
G1 X82.643 Y69.553 E2.69046
G1 X81.509 Y68.948 E2.72858
G1 X80.279 Y68.575 E2.76671
G1 X79.001 Y68.450 E2.80483
G1 X77.722 Y68.575 E2.84294
G1 X76.492 Y68.948 E2.88107
G1 X75.358 Y69.553 E2.91919
G1 X74.365 Y70.368 E2.95731
G1 X73.549 Y71.361 E2.99543
G1 X72.944 Y72.493 E3.03352
G1 X72.570 Y73.722 E3.07162
G1 X72.444 Y74.999 E3.10972
G1 X72.570 Y76.277 E3.14782
G1 X72.944 Y77.506 E3.18592
G1 X73.549 Y78.638 E3.22401
G1 X74.365 Y79.631 E3.26213
G1 X75.358 Y80.446 E3.30024
G1 X76.492 Y81.051 E3.33837
G1 X77.722 Y81.424 E3.37650
G1 X79.000 Y81.549 E3.41461
G1 X80.279 Y81.424 E3.45273
G1 X81.509 Y81.051 E3.49086
G1 X82.643 Y80.446 E3.52898
G1 X83.636 Y79.631 E3.56709
G1 X84.452 Y78.638 E3.60522
G1 X85.057 Y77.506 E3.64330
G1 X85.312 Y76.669 E3.66926
G1 X85.837 Y76.774 E3.68514
G1 X85.552 Y77.713 E3.71425
G1 X84.896 Y78.939 E3.75552
G1 X84.015 Y80.014 E3.79675
G1 X82.940 Y80.895 E3.83799
G1 X81.714 Y81.551 E3.87925
G1 X80.384 Y81.954 E3.92049
G1 X79.060 Y82.085 E3.95995
G1 X79.088 Y82.366 F7800.000
G1 X79.000 Y82.375 E3.96255 F378.000
G1 X77.562 Y82.232 E4.00544
G1 X76.179 Y81.813 E4.04833
G1 X74.903 Y81.131 E4.09124
G1 X73.785 Y80.215 E4.13412
G1 X72.869 Y79.097 E4.17701
G1 X72.641 Y78.671 E4.19133
G1 X72.376 Y78.738 E4.19943
G1 X72.376 Y79.876 E4.23319
G1 X63.624 Y79.876 E4.49285
G1 X63.624 Y71.123 E4.75250
G1 X72.376 Y71.123 E5.01216
G1 X72.376 Y71.261 E5.01625
G1 X72.641 Y71.328 E5.02435
G1 X72.869 Y70.902 E5.03867
G1 X73.785 Y69.784 E5.08156
G1 X74.903 Y68.868 E5.12444
G1 X76.179 Y68.186 E5.16736
G1 X77.562 Y67.767 E5.21024
G1 X79.001 Y67.625 E5.25313
G1 X80.439 Y67.767 E5.29601
G1 X81.822 Y68.186 E5.33889 F378.000
G1 X83.098 Y68.868 E5.38181
G1 X84.216 Y69.784 E5.42469
G1 X85.132 Y70.902 E5.46758
G1 X85.814 Y72.178 E5.51049
G1 X86.197 Y73.441 E5.54965
G1 X85.116 Y73.657 E5.58235
G1 X84.796 Y72.601 E5.61507
G1 X84.216 Y71.519 E5.65151
G1 X83.435 Y70.569 E5.68799
G1 X82.485 Y69.789 E5.72445
G1 X81.401 Y69.210 E5.76092
G1 X80.224 Y68.853 E5.79740
G1 X79.000 Y68.734 E5.83387
G1 X77.777 Y68.853 E5.87035
G1 X76.600 Y69.210 E5.90682
G1 X75.516 Y69.789 E5.94330
G1 X74.566 Y70.569 E5.97976
G1 X73.785 Y71.519 E6.01624
G1 X73.205 Y72.601 E6.05268
G1 X72.848 Y73.777 E6.08913
G1 X72.728 Y74.999 E6.12557
G1 X72.848 Y76.222 E6.16202
G1 X73.205 Y77.398 E6.19847
G1 X73.785 Y78.480 E6.23491
G1 X74.566 Y79.430 E6.27139
G1 X75.516 Y80.210 E6.30785
G1 X76.600 Y80.789 E6.34432
G1 X77.777 Y81.146 E6.38080
G1 X79.000 Y81.265 E6.41727
G1 X80.224 Y81.146 E6.45374
G1 X81.401 Y80.789 E6.49022
G1 X82.485 Y80.210 E6.52670
G1 X83.435 Y79.430 E6.56316
G1 X84.216 Y78.480 E6.59964
G1 X84.796 Y77.398 E6.63607
G1 X85.116 Y76.342 E6.66880
G1 X86.197 Y76.558 E6.70150
G1 X85.814 Y77.821 E6.74066
G1 X85.132 Y79.097 E6.78357
G1 X84.216 Y80.215 E6.82646
G1 X83.098 Y81.131 E6.86934
G1 X81.822 Y81.813 E6.91225
G1 X80.439 Y82.232 E6.95514
G1 X79.148 Y82.360 E6.99364
G1 F1800.000 E5.99364
G1 Z0.550 F7800.000
G92 E0
G1 X72.894 Y72.011 F7800.000
G1 Z0.250 F7800.000
G1 E1.00000 F1800.000
G1 X72.958 Y72.075 E1.00267 F1080.000
G1 X72.817 Y72.338 E1.01152
G1 X72.170 Y71.691 E1.03868
G1 X71.665 Y71.590 E1.05394
G1 X72.708 Y72.633 E1.09770
G1 X72.614 Y72.943 E1.10730
G1 X71.261 Y71.590 E1.16406
G1 X70.857 Y71.590 E1.17605
G1 X72.520 Y73.253 E1.24580
G1 X72.426 Y73.563 E1.25541
G1 X70.453 Y71.590 E1.33817
G1 X70.049 Y71.590 E1.35015
G1 X72.366 Y73.908 E1.44738
G1 X72.330 Y74.275 E1.45834
G1 X69.645 Y71.590 E1.57100
G1 X69.241 Y71.590 E1.58299
G1 X72.294 Y74.643 E1.71108
G1 X72.260 Y75.013 E1.72211
G1 X68.837 Y71.590 E1.86573
G1 X68.433 Y71.590 E1.87772
G1 X72.304 Y75.462 E2.04015
G1 X72.349 Y75.910 E2.05351
G1 X68.029 Y71.590 E2.23474
G1 X67.625 Y71.590 E2.24672
G1 X72.406 Y76.371 E2.44731
G1 X72.582 Y76.951 E2.46530
G1 X67.221 Y71.590 E2.69023
G1 X66.817 Y71.590 E2.70222
G1 X72.758 Y77.532 E2.95150
G1 X72.840 Y78.017 E2.96610
G1 X66.413 Y71.590 E3.23575
G1 X66.009 Y71.590 E3.24773
G1 X72.577 Y78.158 E3.52329
G1 X72.292 Y78.277 E3.53244
G1 X65.605 Y71.590 E3.81302
G1 X65.201 Y71.590 E3.82500
G1 X71.969 Y78.358 E4.10898
G1 X71.910 Y78.703 E4.11935
G1 X64.797 Y71.590 E4.41778
G1 X64.393 Y71.590 E4.42977
G1 X71.910 Y79.107 E4.74515
G1 X71.807 Y79.409 E4.75461
G1 X64.091 Y71.693 E5.07836
G1 X64.091 Y72.097 E5.09035
G1 X71.403 Y79.409 E5.39715
G1 X70.999 Y79.409 E5.40913
G1 X64.091 Y72.501 E5.69898
G1 X64.091 Y72.905 E5.71097
G1 X70.595 Y79.409 E5.98387
G1 X70.191 Y79.409 E5.99586
G1 X64.091 Y73.309 E6.25180
G1 X64.091 Y73.713 E6.26379
G1 X69.787 Y79.409 E6.50279
G1 X69.383 Y79.409 E6.51477
G1 X64.091 Y74.117 E6.73682
G1 X64.091 Y74.521 E6.74880
G1 X68.979 Y79.409 E6.95390
G1 X68.575 Y79.409 E6.96588
G1 X64.091 Y74.925 E7.15403
G1 X64.091 Y75.329 E7.16601
G1 X68.171 Y79.409 E7.33720
G1 X67.767 Y79.409 E7.34919
G1 X64.091 Y75.733 E7.50343
G1 X64.091 Y76.137 E7.51542
G1 X67.363 Y79.409 E7.65271
G1 X66.959 Y79.409 E7.66469
G1 X64.091 Y76.541 E7.78503
G1 X64.091 Y76.945 E7.79702
G1 X66.555 Y79.409 E7.90040
G1 X66.151 Y79.409 E7.91239
G1 X64.091 Y77.349 E7.99882
G1 X64.091 Y77.753 E8.01081
G1 X65.747 Y79.409 E8.08029
G1 X65.343 Y79.409 E8.09228
G1 X64.091 Y78.157 E8.14481
G1 X64.091 Y78.561 E8.15680
G1 X64.939 Y79.409 E8.19238
G1 X64.535 Y79.409 E8.20437
G1 X64.091 Y78.965 E8.22299
G1 X64.091 Y79.369 E8.23498
G1 X64.131 Y79.409 E8.23666
G1 X72.985 Y71.850 F7800.000
G1 X73.328 Y71.209 E8.27510 F360.000
G1 X74.177 Y70.176 E8.34576
G1 X75.211 Y69.328 E8.41642
G1 X76.391 Y68.698 E8.48712
G1 X77.682 Y68.309 E8.55838
G1 X79.001 Y68.180 E8.62840
G1 X80.319 Y68.309 E8.69843
G1 X81.623 Y68.704 E8.77045
G1 X82.790 Y69.328 E8.84037
G1 X83.824 Y70.176 E8.91103
G1 X84.673 Y71.209 E8.98169
G1 X85.304 Y72.389 E9.05241
G1 X85.533 Y73.142 E9.09400
G1 F1800.000 E8.09400
G1 Z0.550 F7800.000
G92 E0
G1 X85.533 Y76.857 F7800.000
G1 Z0.250 F7800.000
G1 E1.00000 F1800.000
G1 X85.304 Y77.610 E1.04159 F360.000
G1 X84.673 Y78.790 E1.11231
G1 X83.824 Y79.823 E1.18297
G1 X82.790 Y80.671 E1.25362
G1 X81.623 Y81.295 E1.32355
G1 X80.319 Y81.690 E1.39557
G1 X79.000 Y81.820 E1.46560
G1 X77.682 Y81.690 E1.53562
G1 X76.391 Y81.301 E1.60688
G1 X75.211 Y80.671 E1.67758
G1 X74.177 Y79.823 E1.74824
G1 X73.328 Y78.790 E1.81890
G1 X72.985 Y78.149 E1.85734
M106 S255
M104 S210 ; set temperature
G1 F1800.000 E0.85734
G1 Z0.750 F7800.000
G92 E0
G1 X64.099 Y73.911 F7800.000
G1 Z0.450 F7800.000
G1 E1.00000 F1800.000
G1 X64.099 Y71.598 E1.07781 F600.000
G1 X71.768 Y71.598 E1.33579 F600.000
G1 X73.034 Y71.916 E1.37970
G1 X72.765 Y72.418 E1.39888
G1 X72.380 Y73.684 E1.44337
G1 X72.251 Y74.999 E1.48785
G1 X72.380 Y76.315 E1.53233
G1 X72.765 Y77.581 E1.57682
G1 X73.034 Y78.083 E1.59600
G1 X71.901 Y78.367 E1.63527
G1 X71.901 Y79.400 E1.67004
G1 X64.099 Y79.400 E1.93253
G1 X64.099 Y73.971 E2.11519
G1 X63.699 Y73.971 F7800.000
G1 X63.699 Y71.198 E2.20847 F600.000
G1 X72.301 Y71.198 E2.49788
G1 X72.301 Y71.320 E2.50196
G1 X72.680 Y71.415 E2.51508
G1 X72.932 Y70.944 E2.53304
G1 X73.839 Y69.838 E2.58118
G1 X74.945 Y68.931 E2.62931
G1 X76.207 Y68.255 E2.67748
G1 X77.577 Y67.841 E2.72561
G1 X79.000 Y67.700 E2.77374
G1 X80.393 Y67.838 E2.82081
G1 X81.794 Y68.255 E2.86999 F600.000
G1 X83.056 Y68.931 E2.91815
G1 X84.162 Y69.838 E2.96629
G1 X85.069 Y70.944 E3.01443
G1 X85.745 Y72.206 E3.06259
G1 X86.101 Y73.384 E3.10397
G1 X85.168 Y73.570 E3.13598
G1 X84.865 Y72.572 E3.17105
G1 X84.279 Y71.477 E3.21286
G1 X83.489 Y70.515 E3.25473
G1 X82.527 Y69.726 E3.29657
G1 X81.429 Y69.141 E3.33843
G1 X80.239 Y68.779 E3.38029
G1 X79.000 Y68.659 E3.42215
G1 X77.762 Y68.779 E3.46400
G1 X76.572 Y69.141 E3.50587
G1 X75.474 Y69.726 E3.54772
G1 X74.512 Y70.515 E3.58957
G1 X73.722 Y71.477 E3.63143
G1 X73.136 Y72.572 E3.67325
G1 X72.774 Y73.762 E3.71508
G1 X72.653 Y74.999 E3.75691
G1 X72.774 Y76.237 E3.79873
G1 X73.136 Y77.427 E3.84057
G1 X73.722 Y78.522 E3.88238
G1 X74.512 Y79.484 E3.92425
G1 X75.474 Y80.273 E3.96609
G1 X76.572 Y80.858 E4.00795
G1 X77.762 Y81.220 E4.04981
G1 X79.000 Y81.340 E4.09167
G1 X80.239 Y81.220 E4.13352
G1 X81.429 Y80.858 E4.17538
G1 X82.527 Y80.273 E4.21724
G1 X83.489 Y79.484 E4.25909
G1 X84.279 Y78.522 E4.30095
G1 X84.865 Y77.427 E4.34276
G1 X85.168 Y76.429 E4.37783
G1 X86.101 Y76.615 E4.40985
G1 X85.745 Y77.793 E4.45122
G1 X85.069 Y79.055 E4.49939
G1 X84.162 Y80.161 E4.54752
G1 X83.056 Y81.068 E4.59566
G1 X81.794 Y81.744 E4.64382
G1 X80.424 Y82.158 E4.69196
G1 X79.000 Y82.300 E4.74009
G1 X77.577 Y82.158 E4.78823
G1 X76.207 Y81.744 E4.83636
G1 X74.945 Y81.068 E4.88453
G1 X73.839 Y80.161 E4.93266
G1 X72.932 Y79.055 E4.98080
G1 X72.680 Y78.584 E4.99876
G1 X72.301 Y78.679 E5.01188
G1 X72.301 Y79.800 E5.04961
G1 X63.699 Y79.800 E5.33901
G1 X63.699 Y74.031 E5.53311
G1 X64.421 Y71.960 F7800.000
G1 X64.461 Y71.920 E5.53610 F1110.139
G1 X65.351 Y71.920 E5.58313
G1 X64.421 Y72.850 E5.65263
G1 X64.421 Y73.740 E5.69965
G1 X66.241 Y71.920 E5.83566
G1 X67.131 Y71.920 E5.88269
G1 X64.421 Y74.630 E6.08521
G1 X64.421 Y75.519 E6.13224
G1 X68.020 Y71.920 E6.40127
G1 X68.910 Y71.920 E6.44830
G1 X64.421 Y76.409 E6.78383
G1 X64.421 Y77.299 E6.83086
G1 X69.800 Y71.920 E7.23291
G1 X70.690 Y71.920 E7.27994
G1 X64.421 Y78.189 E7.74849
G1 X64.441 Y79.059 E7.79448
G1 X71.580 Y71.920 E8.32805
G1 X72.321 Y72.069 E8.36800
G1 X65.311 Y79.079 E8.89195
G1 X66.201 Y79.079 E8.93898
G1 X72.240 Y73.040 E9.39034
G1 X72.010 Y74.159 E9.45072
G1 X67.091 Y79.079 E9.81842
G1 X67.980 Y79.079 E9.86545
G1 X71.940 Y75.120 E10.16134
G1 X72.019 Y75.930 E10.20436
G1 X68.870 Y79.079 E10.43970
G1 X69.760 Y79.079 E10.48673
G1 X72.156 Y76.683 E10.66579
G1 X72.364 Y77.366 E10.70349
G1 X70.650 Y79.079 E10.83154
G1 X71.540 Y79.079 E10.87857
G1 X71.580 Y79.039 E10.88155
G1 X73.057 Y71.716 F7800.000
G1 X73.329 Y71.209 E10.91192 F600.000
G1 X74.177 Y70.176 E10.98258
G1 X75.211 Y69.328 E11.05323
G1 X76.391 Y68.698 E11.12392
G1 X77.696 Y68.307 E11.19594
G1 X79.001 Y68.180 E11.26519
G1 X80.331 Y68.311 E11.33584
G1 X81.636 Y68.711 E11.40799
G1 X82.790 Y69.328 E11.47715
G1 X83.824 Y70.176 E11.54780
G1 X84.687 Y71.236 E11.62003
G1 X85.304 Y72.389 E11.68915
G1 X85.576 Y73.284 E11.73861
G1 F1800.000 E10.73861
G1 Z0.750 F7800.000
G92 E0
G1 X85.576 Y76.715 F7800.000
G1 Z0.450 F7800.000
G1 E1.00000 F1800.000
G1 X85.304 Y77.610 E1.04946 F600.000
G1 X84.687 Y78.763 E1.11858
G1 X83.824 Y79.823 E1.19081
G1 X82.790 Y80.671 E1.26146
G1 X81.636 Y81.288 E1.33062
G1 X80.331 Y81.688 E1.40278
G1 X79.000 Y81.819 E1.47342
G1 X77.696 Y81.692 E1.54267
G1 X76.391 Y81.301 E1.61469
G1 X75.211 Y80.671 E1.68539
G1 X74.177 Y79.823 E1.75604
G1 X73.329 Y78.790 E1.82670
G1 X73.057 Y78.284 E1.85706
G1 F1800.000 E0.85706
G1 Z0.950 F7800.000
G92 E0
G1 X71.901 Y78.633 F7800.000
G1 Z0.650 F7800.000
G1 E1.00000 F1800.000
G1 X71.901 Y79.400 E1.02583 F600.000
G1 X64.099 Y79.400 E1.28832
G1 X64.099 Y71.598 E1.55081
G1 X71.768 Y71.598 E1.80879 F600.000
G1 X73.034 Y71.916 E1.85270
G1 X72.765 Y72.418 E1.87188
G1 X72.380 Y73.684 E1.91637
G1 X72.251 Y74.999 E1.96085
G1 X72.380 Y76.315 E2.00533
G1 X72.765 Y77.581 E2.04982
G1 X73.034 Y78.083 E2.06900
G1 X71.901 Y78.367 E2.10827
G1 X71.901 Y78.573 E2.11519
G1 X72.301 Y78.679 F7800.000
G1 X72.301 Y79.800 E2.15292 F600.000
G1 X63.699 Y79.800 E2.44232
G1 X63.699 Y71.198 E2.73172
G1 X72.301 Y71.198 E3.02112
G1 X72.301 Y71.320 E3.02521
G1 X72.680 Y71.415 E3.03833
G1 X72.932 Y70.944 E3.05629
G1 X73.839 Y69.838 E3.10443
G1 X74.945 Y68.931 E3.15256
G1 X76.207 Y68.255 E3.20073
G1 X77.577 Y67.841 E3.24886
G1 X79.000 Y67.700 E3.29699
G1 X80.424 Y67.841 E3.34513
G1 X81.794 Y68.255 E3.39326 F600.000
G1 X83.056 Y68.931 E3.44142
G1 X84.162 Y69.838 E3.48956
G1 X85.069 Y70.944 E3.53769
G1 X85.745 Y72.206 E3.58586
G1 X86.101 Y73.384 E3.62724
G1 X85.168 Y73.570 E3.65925
G1 X84.865 Y72.572 E3.69432
G1 X84.279 Y71.477 E3.73613
G1 X83.489 Y70.515 E3.77800
G1 X82.527 Y69.726 E3.81984
G1 X81.429 Y69.141 E3.86170
G1 X80.239 Y68.779 E3.90356
G1 X79.000 Y68.659 E3.94542
G1 X77.762 Y68.779 E3.98727
G1 X76.572 Y69.141 E4.02913
G1 X75.474 Y69.726 E4.07099
G1 X74.512 Y70.515 E4.11284
G1 X73.722 Y71.477 E4.15470
G1 X73.136 Y72.572 E4.19651
G1 X72.774 Y73.762 E4.23835
G1 X72.653 Y74.999 E4.28017
G1 X72.774 Y76.237 E4.32200
G1 X73.136 Y77.427 E4.36384
G1 X73.722 Y78.522 E4.40565
G1 X74.512 Y79.484 E4.44751
G1 X75.474 Y80.273 E4.48936
G1 X76.572 Y80.858 E4.53122
G1 X77.762 Y81.220 E4.57308
G1 X78.812 Y81.322 E4.60855
G1 X78.812 Y81.359 E4.60979
G1 X80.239 Y81.220 E4.65803
G1 X81.429 Y80.858 E4.69989
G1 X82.527 Y80.273 E4.74175
G1 X83.489 Y79.484 E4.78359
G1 X84.279 Y78.522 E4.82546
G1 X84.865 Y77.427 E4.86727
G1 X85.168 Y76.429 E4.90234
G1 X86.101 Y76.615 E4.93435
G1 X85.745 Y77.793 E4.97573
G1 X85.069 Y79.055 E5.02390
G1 X84.162 Y80.161 E5.07203
G1 X83.056 Y81.068 E5.12017
G1 X81.794 Y81.744 E5.16833
G1 X80.424 Y82.158 E5.21647
G1 X79.000 Y82.300 E5.26460
G1 X77.577 Y82.158 E5.31274
G1 X76.207 Y81.744 E5.36087
G1 X74.945 Y81.068 E5.40904
G1 X73.839 Y80.161 E5.45717
G1 X72.932 Y79.055 E5.50531
G1 X72.680 Y78.584 E5.52327
G1 X72.360 Y78.664 E5.53437
G1 X72.499 Y72.113 F7800.000
G1 X72.541 Y72.155 E5.53753 F1101.305
G1 X72.298 Y72.850 E5.57642
G1 X71.368 Y71.920 E5.64592
G1 X70.430 Y71.920 E5.69548
G1 X72.079 Y73.569 E5.81874
G1 X71.985 Y74.413 E5.86362
G1 X69.492 Y71.920 E6.04995
