; generated by Slic3r 1.1.7 on 2014-11-29 at 12:34:53

; perimeters extrusion width = 0.40mm
; infill extrusion width = 0.42mm
; solid infill extrusion width = 0.42mm
; top infill extrusion width = 0.42mm

G21 ; set units to millimeters
M107
M104 S215 ; set temperature
G28 ; home all axes
G1 Z5 F5000 ; lift nozzle

M109 S215 ; wait for temperature to be reached
G90 ; use absolute coordinates
G92 E0
M82 ; use absolute distances for extrusion
G1 F1800.000 E-1.00000
G92 E0
G1 Z0.400 F7800.000
G1 X51.294 Y51.211 F7800.000
G1 E1.00000 F1800.000
G1 X51.681 Y50.848 E1.06297 F1080.000
G1 X52.086 Y50.506 E1.12590
G1 X52.799 Y49.985 E1.23071
G1 X53.555 Y49.528 E1.33567
G1 X54.348 Y49.138 E1.44071
G1 X55.172 Y48.819 E1.54554
G1 X56.021 Y48.573 E1.65064
G1 X56.887 Y48.402 E1.75540
G1 X57.767 Y48.307 E1.86050
G1 X58.414 Y48.286 E1.93744
G1 X91.644 Y48.286 E5.88403
G1 X92.174 Y48.303 E5.94694 F1080.000
G1 X92.703 Y48.348 E6.00996
G1 X93.576 Y48.483 E6.11492
G1 X94.093 Y48.601 E6.17791
G1 X94.603 Y48.746 E6.24088
G1 X95.435 Y49.046 E6.34586
G1 X95.919 Y49.260 E6.40871
G1 X96.393 Y49.499 E6.47183
G1 X97.152 Y49.952 E6.57676
G1 X97.586 Y50.254 E6.63960
G1 X98.005 Y50.580 E6.70263
G1 X98.407 Y50.927 E6.76571
G1 X98.789 Y51.294 E6.82865
G1 X99.151 Y51.680 E6.89154
G1 X99.493 Y52.086 E6.95452
G1 X100.015 Y52.799 E7.05945
G1 X100.499 Y53.604 E7.17096
G1 X100.932 Y54.511 E7.29036
G1 X101.123 Y55.005 E7.35333
G1 X101.289 Y55.510 E7.41635
G1 X101.505 Y56.366 E7.52120
G1 X101.652 Y57.293 E7.63272
G1 X101.713 Y58.296 E7.75205
G1 X101.714 Y91.644 E11.71269
G1 X101.697 Y92.174 E11.77566
G1 X101.652 Y92.703 E11.83867
G1 X101.580 Y93.228 E11.90165
G1 X101.481 Y93.748 E11.96451
G1 X101.290 Y94.485 E12.05490
G1 X101.020 Y95.270 E12.15351
G1 X100.663 Y96.078 E12.25845
G1 X100.300 Y96.748 E12.34894
G1 X99.849 Y97.443 E12.44731
G1 X99.307 Y98.141 E12.55228
G1 X98.793 Y98.702 E12.64266
G1 X98.186 Y99.268 E12.74121
G1 X97.590 Y99.742 E12.83161
G1 X96.903 Y100.206 E12.93007
G1 X96.241 Y100.581 E13.02050
G1 X95.489 Y100.932 E13.11896
G1 X94.777 Y101.198 E13.20929
G1 X93.980 Y101.427 E13.30782
G1 X93.112 Y101.598 E13.41286
G1 X92.356 Y101.685 E13.50324
G1 X91.586 Y101.714 E13.59477
G1 X58.356 Y101.714 E17.54134
G1 X57.474 Y101.670 E17.64624
G1 X56.544 Y101.540 E17.75772
G1 X55.566 Y101.305 E17.87712
G1 X54.678 Y101.000 E17.98867
G1 X54.192 Y100.792 E18.05149
G1 X53.717 Y100.559 E18.11437
G1 X53.299 Y100.328 E18.17100
G1 X52.849 Y100.048 E18.23402
G1 X52.414 Y99.745 E18.29697
G1 X51.994 Y99.419 E18.36004
G1 X51.594 Y99.074 E18.42284
G1 X51.211 Y98.706 E18.48596
G1 X50.618 Y98.052 E18.59076
G1 X50.154 Y97.447 E18.68122
G1 X49.702 Y96.751 E18.77979
G1 X49.339 Y96.083 E18.87016
G1 X49.002 Y95.326 E18.96862
G1 X48.747 Y94.608 E19.05906
G1 X48.532 Y93.807 E19.15756
G1 X48.376 Y92.937 E19.26248
G1 X48.307 Y92.233 E19.34650
G1 X48.286 Y91.586 E19.42343
G1 X48.286 Y58.356 E23.37002
G1 X48.303 Y57.826 E23.43292
G1 X48.348 Y57.297 E23.49594
G1 X48.483 Y56.423 E23.60099
G1 X48.601 Y55.906 E23.66401
G1 X48.746 Y55.397 E23.72687
G1 X49.046 Y54.565 E23.83188
G1 X49.260 Y54.080 E23.89485
G1 X49.499 Y53.607 E23.95783
G1 X49.953 Y52.848 E24.06286
G1 X50.254 Y52.414 E24.12558
G1 X50.581 Y51.994 E24.18884
G1 X51.252 Y51.253 E24.30751
G1 F1800.000 E23.30751
G92 E0
G1 X60.344 Y60.343 F7800.000
G1 E1.00000 F1800.000
G1 X60.062 Y60.575 E1.04326 F378.000
G1 X59.773 Y60.736 E1.08259
G1 X59.362 Y60.865 E1.13369
G1 X58.835 Y60.914 E1.19659
G1 X58.835 Y61.026 E1.21000
G1 X58.108 Y60.678 E1.30578
G1 X57.804 Y60.477 E1.34904
G1 X57.633 Y60.320 E1.37659
G1 X57.483 Y60.143 E1.40415
G1 X57.338 Y59.921 E1.43562
G1 X57.238 Y59.712 E1.46317
G1 X57.165 Y59.492 E1.49072
G1 X57.118 Y59.264 E1.51828
G1 X57.100 Y59.033 E1.54584
G1 X57.110 Y58.801 E1.57338
G1 X57.149 Y58.573 E1.60091
G1 X57.215 Y58.350 E1.62848
G1 X57.307 Y58.137 E1.65604
G1 X57.425 Y57.938 E1.68358
G1 X57.566 Y57.753 E1.71114
G1 X57.729 Y57.588 E1.73869
G1 X57.910 Y57.444 E1.76624
G1 X58.108 Y57.322 E1.79379
G1 X58.319 Y57.226 E1.82136
G1 X58.540 Y57.156 E1.84889
G1 X58.769 Y57.114 E1.87646
G1 X59.006 Y57.100 E1.90474
G1 X59.297 Y57.123 E1.93940 F378.000
G1 X59.556 Y57.183 E1.97091
G1 X59.833 Y57.292 E2.00629
G1 X60.062 Y57.425 E2.03778
G1 X60.271 Y57.588 E2.06926
G1 X60.476 Y57.804 E2.10466
G1 X60.629 Y58.021 E2.13615
G1 X60.749 Y58.258 E2.16763
G1 X60.835 Y58.508 E2.19912
G1 X60.886 Y58.768 E2.23061
G1 X60.899 Y59.066 E2.26600
G1 X60.871 Y59.330 E2.29749
G1 X60.807 Y59.587 E2.32897
G1 X60.693 Y59.863 E2.36438
G1 X60.556 Y60.090 E2.39586
G1 X60.385 Y60.300 E2.42809
G1 F1800.000 E1.42809
G92 E0
G1 X58.975 Y56.810 F7800.000
G1 X59.096 Y89.102 F7800.000
G1 E1.00000 F1800.000
G1 X59.460 Y89.156 E1.04371 F378.000
G1 X59.803 Y89.278 E1.08695
G1 X60.117 Y89.463 E1.13022
G1 X60.390 Y89.704 E1.17347
G1 X60.611 Y89.993 E1.21672
G1 X60.774 Y90.319 E1.25998
G1 X60.877 Y90.703 E1.30713
G1 X60.899 Y91.066 E1.35041
G1 X60.844 Y91.460 E1.39757
G1 X60.722 Y91.803 E1.44084
G1 X60.537 Y92.117 E1.48409
G1 X60.296 Y92.390 E1.52735
G1 X60.007 Y92.611 E1.57060
G1 X59.681 Y92.774 E1.61386
G1 X59.330 Y92.871 E1.65713
G1 X58.934 Y92.899 E1.70428
G1 X58.573 Y92.851 E1.74756
G1 X58.222 Y92.733 E1.79152
G1 X57.883 Y92.537 E1.83798
G1 X57.610 Y92.296 E1.88125
G1 X57.389 Y92.007 E1.92450
G1 X57.226 Y91.681 E1.96776
G1 X57.129 Y91.330 E2.01102
G1 X57.100 Y90.967 E2.05427
G1 X57.142 Y90.605 E2.09753
G1 X57.251 Y90.258 E2.14079
G1 X57.425 Y89.937 E2.18404
G1 X57.680 Y89.633 E2.23123
G1 X57.965 Y89.406 E2.27447
G1 X58.288 Y89.238 E2.31773
G1 X58.638 Y89.135 E2.36099
G1 X59.006 Y89.100 E2.40497
G1 X59.036 Y89.100 E2.40848 F378.000
G1 X59.006 Y89.070 F7800.000
G1 F1800.000 E1.40848
G92 E0
G1 X89.103 Y90.901 F7800.000
G1 E1.00000 F1800.000
G1 X89.156 Y90.540 E1.04326 F378.000
G1 X89.278 Y90.197 E1.08652
G1 X89.463 Y89.883 E1.12978
G1 X89.704 Y89.610 E1.17303
G1 X89.993 Y89.389 E1.21629
G1 X90.319 Y89.226 E1.25954
G1 X90.670 Y89.129 E1.30281
G1 X91.006 Y89.100 E1.34285
G1 X91.297 Y89.123 E1.37755 F378.000
G1 X91.556 Y89.183 E1.40902
G1 X91.833 Y89.292 E1.44444
G1 X92.062 Y89.425 E1.47591
G1 X92.296 Y89.610 E1.51131
G1 X92.477 Y89.804 E1.54280
G1 X92.629 Y90.021 E1.57429
G1 X92.762 Y90.288 E1.60969
G1 X92.851 Y90.572 E1.64509
G1 X92.893 Y90.834 E1.67658
G1 X92.897 Y91.105 E1.70878
G1 X92.859 Y91.395 E1.74347
G1 X92.783 Y91.656 E1.77568
G1 X92.662 Y91.921 E1.81037
G1 X92.514 Y92.148 E1.84257
G1 X92.320 Y92.367 E1.87725
G1 X92.090 Y92.556 E1.91266
G1 X91.863 Y92.693 E1.94414
G1 X91.587 Y92.807 E1.97955
G1 X91.330 Y92.871 E2.01104
G1 X91.033 Y92.900 E2.04645
G1 X90.768 Y92.886 E2.07793
G1 X90.508 Y92.835 E2.10941
G1 X90.227 Y92.736 E2.14482
G1 X89.993 Y92.611 E2.17631
G1 X89.753 Y92.434 E2.21172
G1 X89.566 Y92.247 E2.24319
G1 X89.389 Y92.007 E2.27860
G1 X89.264 Y91.773 E2.31009
G1 X89.165 Y91.492 E2.34550
G1 X89.114 Y91.232 E2.37698
G1 X89.100 Y90.961 E2.40921
G1 F1800.000 E1.40921
G92 E0
G1 X91.091 Y88.821 F7800.000
G1 X90.901 Y60.897 F7800.000
G1 E1.00000 F1800.000
G1 X90.540 Y60.844 E1.04324 F378.000
G1 X90.197 Y60.722 E1.08651
G1 X89.857 Y60.517 E1.13368
G1 X89.588 Y60.271 E1.17693
G1 X89.371 Y59.979 E1.22020
G1 X89.215 Y59.650 E1.26346
G1 X89.123 Y59.297 E1.30672
G1 X89.101 Y58.934 E1.34997
G1 X89.149 Y58.573 E1.39323
G1 X89.264 Y58.227 E1.43648
G1 X89.444 Y57.910 E1.47974
G1 X89.680 Y57.633 E1.52300
G1 X89.965 Y57.407 E1.56625
G1 X90.288 Y57.238 E1.60950
G1 X90.638 Y57.135 E1.65277
G1 X91.006 Y57.100 E1.69676
G1 X91.395 Y57.142 E1.74319 F378.000
G1 X91.742 Y57.251 E1.78646
G1 X92.090 Y57.444 E1.83362
G1 X92.367 Y57.680 E1.87689
G1 X92.611 Y57.993 E1.92405
G1 X92.774 Y58.319 E1.96730
G1 X92.871 Y58.670 E2.01057
G1 X92.900 Y59.033 E2.05382
G1 X92.859 Y59.395 E2.09707
G1 X92.747 Y59.748 E2.14105
G1 X92.556 Y60.090 E2.18750
G1 X92.320 Y60.367 E2.23076
G1 X92.030 Y60.597 E2.27474
G1 X91.681 Y60.774 E2.32119
G1 X91.330 Y60.871 E2.36444
G1 X90.961 Y60.900 E2.40846
G1 F1800.000 E1.40846
G92 E0
G1 X91.023 Y56.709 F7800.000
G1 X88.998 Y62.601 F7800.000
G1 E1.00000 F1800.000
G1 X89.477 Y63.162 E1.08767 F378.000
G1 X90.030 Y63.874 E1.19470
G1 X90.547 Y64.608 E1.30143
G1 X90.892 Y65.144 E1.37702
G1 X91.293 Y65.821 E1.47053
G1 X91.714 Y66.614 E1.57716
G1 X92.095 Y67.419 E1.68293
G1 X92.375 Y68.083 E1.76846
G1 X92.668 Y68.872 E1.86851
G1 X92.876 Y69.507 E1.94779
G1 X93.103 Y70.312 E2.04718
G1 X93.305 Y71.176 E2.15254
G1 X93.454 Y71.974 E2.24889
G1 X93.552 Y72.653 E2.33044
G1 X93.627 Y73.343 E2.41287
G1 X93.682 Y74.176 E2.51201
G1 X93.700 Y75.000 E2.60985
G1 X93.680 Y75.847 E2.71055
G1 X93.638 Y76.519 E2.79048
G1 X93.551 Y77.355 E2.89027
G1 X93.463 Y77.962 E2.96310
G1 X93.299 Y78.850 E3.07043
G1 X93.093 Y79.724 E3.17709
G1 X92.878 Y80.481 E3.27048
G1 X92.627 Y81.243 E3.36579
G1 X92.344 Y81.989 E3.46053
G1 X92.094 Y82.580 E3.53672
G1 X91.709 Y83.396 E3.64393
G1 X91.285 Y84.190 E3.75081
G1 X90.884 Y84.867 E3.84425
G1 X90.478 Y85.493 E3.93286
G1 X90.022 Y86.135 E4.02640
G1 X89.599 Y86.685 E4.10877
G1 X89.010 Y87.386 E4.21753
G1 X88.548 Y87.889 E4.29869
G1 X88.056 Y88.388 E4.38188
G1 X87.399 Y88.998 E4.48834
G1 X86.863 Y89.455 E4.57202
G1 X86.144 Y90.016 E4.68028
G1 X85.573 Y90.424 E4.76365
G1 X84.818 Y90.915 E4.87069
G1 X84.211 Y91.274 E4.95436
G1 X83.612 Y91.599 E5.03531
G1 X82.789 Y92.000 E5.14404
G1 X81.949 Y92.361 E5.25265
G1 X81.289 Y92.610 E5.33639
G1 X80.447 Y92.889 E5.44181
G1 X79.767 Y93.082 E5.52570
G1 X79.097 Y93.245 E5.60759
G1 X78.199 Y93.424 E5.71632
G1 X77.499 Y93.532 E5.80052
G1 X76.620 Y93.629 E5.90554
G1 X75.912 Y93.677 E5.98972
G1 X74.998 Y93.699 E6.09830
G1 X74.289 Y93.686 E6.18256
G1 X73.410 Y93.632 E6.28715
G1 X72.691 Y93.556 E6.37307
G1 X71.819 Y93.427 E6.47769
G1 X71.120 Y93.292 E6.56228
G1 X70.230 Y93.081 E6.67086
G1 X69.545 Y92.886 E6.75546
G1 X68.713 Y92.610 E6.85964
G1 X68.047 Y92.358 E6.94417
G1 X67.208 Y91.998 E7.05259
G1 X66.408 Y91.608 E7.15836
G1 X65.779 Y91.267 E7.24331
G1 X64.996 Y90.798 E7.35166
G1 X64.421 Y90.419 E7.43340
G1 X63.728 Y89.920 E7.53493
G1 X63.137 Y89.455 E7.62417
G1 X62.613 Y89.008 E7.70593
G1 X61.941 Y88.384 E7.81494
G1 X61.457 Y87.894 E7.89670
G1 X60.841 Y87.214 E8.00572
G1 X60.259 Y86.505 E8.11469
G1 X59.845 Y85.954 E8.19645
G1 X59.326 Y85.197 E8.30547
G1 X58.961 Y84.613 E8.38723
G1 X58.509 Y83.815 E8.49623
G1 X58.196 Y83.202 E8.57798
G1 X57.905 Y82.578 E8.65973
G1 X57.554 Y81.730 E8.76874
G1 X57.268 Y80.936 E8.86890
G1 X57.041 Y80.208 E8.95952
G1 X56.807 Y79.321 E9.06853
G1 X56.660 Y78.648 E9.15028
G1 X56.538 Y77.970 E9.23205
G1 X56.423 Y77.135 E9.33216
G1 X56.351 Y76.376 E9.42279
G1 X56.313 Y75.688 E9.50456
G1 X56.302 Y74.771 E9.61355
G1 X56.323 Y74.082 E9.69533
G1 X56.384 Y73.239 E9.79568
G1 X56.471 Y72.483 E9.88610
G1 X56.617 Y71.577 E9.99511
G1 X56.755 Y70.903 E10.07687
G1 X56.918 Y70.234 E10.15862
G1 X57.174 Y69.352 E10.26762
G1 X57.394 Y68.700 E10.34938
G1 X57.717 Y67.861 E10.45615
G1 X58.004 Y67.204 E10.54133
G1 X58.405 Y66.383 E10.64980
G1 X58.746 Y65.755 E10.73473
G1 X59.195 Y65.006 E10.83843
G1 X59.588 Y64.411 E10.92310
G1 X59.981 Y63.861 E11.00336
G1 X60.402 Y63.314 E11.08529
G1 X60.991 Y62.614 E11.19399
G1 X61.473 Y62.090 E11.27856
G1 X62.095 Y61.467 E11.38311
G1 X62.618 Y60.987 E11.46743
G1 X63.317 Y60.399 E11.57590
G1 X63.879 Y59.967 E11.66004
G1 X64.601 Y59.459 E11.76502
G1 X65.206 Y59.070 E11.85037
G1 X65.973 Y58.624 E11.95573
G1 X66.598 Y58.294 E12.03973
G1 X67.426 Y57.903 E12.14840
G1 X68.076 Y57.630 E12.23218
G1 X68.910 Y57.320 E12.33778
G1 X69.579 Y57.103 E12.42139
G1 X70.461 Y56.860 E12.52999
G1 X71.340 Y56.662 E12.63708
G1 X72.033 Y56.537 E12.72065
G1 X72.728 Y56.439 E12.80403
G1 X73.620 Y56.351 E12.91045
G1 X74.320 Y56.313 E12.99373
G1 X75.216 Y56.301 E13.10018
G1 X76.168 Y56.337 E13.21335 F378.000
G1 X77.227 Y56.434 E13.33962
G1 X78.127 Y56.564 E13.44763
G1 X79.166 Y56.771 E13.57342
G1 X80.039 Y56.992 E13.68036
G1 X80.903 Y57.257 E13.78773
G1 X81.802 Y57.582 E13.90124
G1 X82.826 Y58.016 E14.03331
G1 X83.709 Y58.452 E14.15025
G1 X84.495 Y58.890 E14.25718
G1 X85.392 Y59.453 E14.38293
G1 X86.213 Y60.034 E14.50232
G1 X86.910 Y60.582 E14.60769
G1 X87.572 Y61.156 E14.71177
G1 X88.263 Y61.817 E14.82523
G1 X88.958 Y62.556 E14.94576
G1 F1800.000 E13.94576
G92 E0
G1 X75.073 Y55.928 F7800.000
G1 X65.493 Y92.741 F7800.000
G1 E1.00000 F1800.000
G1 X65.384 Y93.172 E1.05279 F540.000
G1 X61.573 Y93.172 E1.50546
G1 X61.966 Y92.511 E1.59681
G1 X62.086 Y92.247 E1.63126
G1 X62.183 Y91.973 E1.66575
G1 X62.296 Y91.463 E1.72773
G1 X62.355 Y90.666 E1.82273
G1 X63.209 Y91.313 E1.95002
G1 X63.818 Y91.736 E2.03803
G1 X64.653 Y92.264 E2.15535
G1 X65.441 Y92.712 E2.26302
G1 X59.334 Y87.645 F7800.000
G1 X58.537 Y87.704 E2.35796 F540.000
G1 X58.027 Y87.817 E2.42002
G1 X57.753 Y87.914 E2.45450
G1 X57.489 Y88.034 E2.48897
G1 X56.828 Y88.427 E2.58028
G1 X56.828 Y84.616 E3.03294
G1 X57.259 Y84.507 E3.08573
G1 X57.736 Y85.348 E3.20056
G1 X58.265 Y86.182 E3.31790
G1 X58.688 Y86.791 E3.40592
G1 X59.298 Y87.597 E3.52602
G1 X56.555 Y90.046 F7800.000
G1 X56.114 Y89.943 E3.57975 F540.000
G1 X56.114 Y81.245 E4.61268
G1 X56.590 Y81.164 E4.66996
G1 X56.975 Y82.209 E4.80215
G1 X57.350 Y83.084 E4.91532
G1 X57.768 Y83.941 E5.02848
G1 X58.349 Y84.981 E5.16992
G1 X58.858 Y85.786 E5.28310
G1 X59.550 Y86.755 E5.42457
G1 X60.300 Y87.680 E5.56599
G1 X60.940 Y88.386 E5.67917
G1 X61.787 Y89.223 E5.82062
G1 X62.684 Y90.007 E5.96208
G1 X63.628 Y90.734 E6.10353
G1 X64.614 Y91.402 E6.24498
G1 X65.642 Y92.009 E6.38676
G1 X66.686 Y92.543 E6.52600
G1 X67.781 Y93.021 E6.66792
G1 X68.835 Y93.410 E6.80145
G1 X68.754 Y93.886 E6.85873
G1 X60.057 Y93.886 E7.89163
G1 X59.954 Y93.446 E7.94535
G1 X60.307 Y93.264 E7.99256
G1 X60.537 Y93.115 E8.02503
G1 X60.783 Y92.912 E8.06296
G1 X61.003 Y92.680 E8.10089
G1 X61.217 Y92.385 E8.14414
G1 X61.369 Y92.105 E8.18208
G1 X61.486 Y91.808 E8.22000
G1 X61.566 Y91.498 E8.25794
G1 X61.608 Y91.182 E8.29584
G1 X61.611 Y90.875 E8.33229
G1 X61.582 Y90.590 E8.36627
G1 X61.513 Y90.279 E8.40410
G1 X61.406 Y89.978 E8.44203
G1 X61.286 Y89.733 E8.47452
G1 X61.141 Y89.500 E8.50705
G1 X60.943 Y89.251 E8.54493
G1 X60.680 Y88.997 E8.58824
G1 X60.424 Y88.808 E8.62613
G1 X60.146 Y88.650 E8.66404
G1 X59.851 Y88.528 E8.70195
G1 X59.544 Y88.443 E8.73985
G1 X59.228 Y88.396 E8.77778
G1 X58.863 Y88.389 E8.82110
G1 X58.546 Y88.425 E8.85895
G1 X58.236 Y88.500 E8.89691
G1 X57.937 Y88.612 E8.93482
G1 X57.615 Y88.783 E8.97812
G1 X57.355 Y88.968 E9.01604
G1 X57.120 Y89.184 E9.05394
G1 X56.912 Y89.427 E9.09186
G1 X56.736 Y89.693 E9.12974
G1 X56.581 Y89.993 E9.16982
G1 F1800.000 E8.16982
G92 E0
G1 X56.000 Y81.941 F7800.000
G1 X53.000 Y83.372 F7800.000
G1 X53.000 Y63.372 F7800.000
G1 X56.000 Y64.997 F7800.000
G1 X57.257 Y65.494 F7800.000
G1 E1.00000 F1800.000
G1 X56.828 Y65.383 E1.05259 F540.000
G1 X56.828 Y61.573 E1.50516
G1 X57.489 Y61.966 E1.59648
G1 X59.056 Y62.714 E1.80270
G1 X58.559 Y63.389 E1.90227
G1 X58.127 Y64.027 E1.99373
G1 X57.742 Y64.643 E2.07999
G1 X57.286 Y65.441 E2.18918
G1 X62.355 Y59.334 F7800.000
G1 X62.298 Y58.555 E2.28195 F540.000
G1 X62.183 Y58.027 E2.34614
G1 X62.086 Y57.753 E2.38061
G1 X61.966 Y57.489 E2.41511
G1 X61.573 Y56.828 E2.50640
G1 X65.383 Y56.828 E2.95893
G1 X65.493 Y57.258 E3.01157
G1 X64.649 Y57.738 E3.12696
G1 X63.837 Y58.252 E3.24107
G1 X63.208 Y58.688 E3.33189
G1 X62.402 Y59.297 E3.45191
G1 X59.549 Y62.159 F7800.000
G1 X59.549 Y61.564 E3.52255 F540.000
G1 X60.022 Y61.406 E3.58169
G1 X60.462 Y61.167 E3.64118
G1 X60.840 Y60.857 E3.69923
G1 X61.141 Y60.499 E3.75482
G1 X61.329 Y60.187 E3.79815
G1 X61.457 Y59.894 E3.83608
G1 X61.557 Y59.544 E3.87935
G1 X61.604 Y59.228 E3.91725
G1 X61.611 Y58.863 E3.96063
G1 X61.568 Y58.513 E4.00243
G1 X61.486 Y58.192 E4.04182
G1 X61.350 Y57.854 E4.08510
G1 X61.088 Y57.427 E4.14458
G1 X60.783 Y57.088 E4.19875
G1 X60.424 Y56.808 E4.25288
G1 X59.954 Y56.555 E4.31626
G1 X60.057 Y56.114 E4.37000
G1 X68.753 Y56.114 E5.40278
G1 X68.834 Y56.590 E5.46005
G1 X67.787 Y56.976 E5.59270
G1 X66.692 Y57.454 E5.73460
G1 X65.627 Y57.999 E5.87667
G1 X64.613 Y58.599 E6.01652
G1 X63.627 Y59.267 E6.15803
G1 X62.681 Y59.996 E6.29985
G1 X61.781 Y60.782 E6.44177
G1 X60.957 Y61.595 E6.57924
