; generated by Slic3r 1.0.1 on 2014-06-16 at 09:59:38

; layer_height = 0.2
; perimeters = 2
; top_solid_layers = 9
; bottom_solid_layers = 0
; fill_density = 0
; perimeter_speed = 24
; infill_speed = 24
; travel_speed = 130
; nozzle_diameter = 0.4
; filament_diameter = 1.75
; extrusion_multiplier = 0.875
; perimeters extrusion width = 0.56mm
; infill extrusion width = 0.56mm
; solid infill extrusion width = 0.56mm
; top infill extrusion width = 0.56mm
; first layer extrusion width = 0.56mm

G21 ; set units to millimeters
M107
M104 S198 ; set temperature
G28 X0 Y0 Z0; home all axes
G29 ; detail z-probe
G0 Z30 F5000 ; lift nozzle while waiting for warm-up
M109 S195 ; wait for temperature to be reached
G90 ; use absolute coordinates
G92 E0
M82 ; use absolute distances for extrusion
G1 F1680.000 E-1.00000
G92 E0
G1 Z0.400 F7800.000
G1 X9.510 Y47.120 F7800.000
G1 E1.00000 F1680.000
G1 X9.860 Y47.060 E1.02716 F1440.000
G1 X10.850 Y46.960 E1.10327
G1 X11.210 Y46.950 E1.13082
G1 X45.140 Y46.960 E3.72616
G1 X46.130 Y47.060 E3.80227
G1 X47.050 Y47.240 E3.87398
G1 X47.400 Y47.330 E3.90162
G1 X48.220 Y47.600 E3.96765
G1 X48.550 Y47.730 E3.99478
G1 X49.380 Y48.120 E4.06493
G1 X49.850 Y48.380 E4.10602
G1 X50.580 Y48.840 E4.17202
G1 X50.870 Y49.050 E4.19940
G1 X51.410 Y49.490 E4.25268
G1 X51.680 Y49.730 E4.28032
G1 X52.280 Y50.330 E4.34522
G1 X52.940 Y51.120 E4.42396
G1 X53.150 Y51.410 E4.45135
G1 X53.720 Y52.320 E4.53348
G1 X54.190 Y53.270 E4.61456
G1 X54.480 Y54.020 E4.67607
G1 X54.590 Y54.360 E4.70340
G1 X54.790 Y55.150 E4.76573
G1 X54.860 Y55.500 E4.79304
G1 X54.970 Y56.220 E4.84875
G1 X55.020 Y56.750 E4.88947
G1 X55.050 Y57.410 E4.94000
G1 X55.040 Y90.970 E7.50704
G1 X55.020 Y91.330 E7.53462
G1 X54.900 Y92.270 E7.60711
G1 X54.800 Y92.790 E7.64761
G1 X54.590 Y93.630 E7.71384
G1 X54.480 Y93.970 E7.74117
G1 X54.190 Y94.720 E7.80268
G1 X54.040 Y95.050 E7.83041
G1 X53.540 Y95.980 E7.91117
G1 X52.940 Y96.870 E7.99328
G1 X52.410 Y97.510 E8.05684
G1 X52.050 Y97.900 E8.09744
G1 X51.590 Y98.360 E8.14720
G1 X51.080 Y98.780 E8.19773
G1 X50.650 Y99.100 E8.23873
G1 X49.980 Y99.540 E8.30004
G1 X49.050 Y100.040 E8.38081
G1 X48.720 Y100.190 E8.40854
G1 X47.790 Y100.530 E8.48428
G1 X47.280 Y100.680 E8.52494
G1 X46.480 Y100.870 E8.58784
G1 X46.130 Y100.930 E8.61500
G1 X45.330 Y101.020 E8.67658
G1 X44.580 Y101.050 E8.73399
G1 X11.230 Y101.040 E11.28496
G1 X10.430 Y101.000 E11.34623
G1 X10.080 Y100.960 E11.37318
G1 X9.150 Y100.790 E11.44549
G1 X8.360 Y100.590 E11.50783
G1 X8.020 Y100.480 E11.53516
G1 X7.270 Y100.190 E11.59667
G1 X6.940 Y100.040 E11.62440
G1 X6.010 Y99.540 E11.70516
G1 X5.120 Y98.940 E11.78727
G1 X4.330 Y98.280 E11.86601
G1 X3.730 Y97.680 E11.93091
G1 X3.490 Y97.410 E11.95854
G1 X3.000 Y96.790 E12.01899
G1 X2.350 Y95.830 E12.10767
G1 X1.840 Y94.800 E12.19559
G1 X1.510 Y93.970 E12.26391
G1 X1.210 Y92.920 E12.34744
G1 X1.140 Y92.590 E12.37324
G1 X1.010 Y91.640 E12.44658
G1 X0.970 Y91.090 E12.48877
G1 X0.950 Y90.580 E12.52781
G1 X0.950 Y57.230 E15.07878
G1 X0.990 Y56.430 E15.14005
G1 X1.030 Y56.080 E15.16699
G1 X1.200 Y55.120 E15.24157
G1 X1.450 Y54.230 E15.31228
G1 X1.630 Y53.710 E15.35437
G1 X1.980 Y52.870 E15.42398
G1 X2.140 Y52.550 E15.45134
G1 X2.580 Y51.790 E15.51852
G1 X2.780 Y51.490 E15.54610
G1 X3.330 Y50.760 E15.61601
G1 X3.880 Y50.130 E15.67998
G1 X4.130 Y49.880 E15.70702
G1 X4.760 Y49.330 E15.77099
G1 X5.490 Y48.780 E15.84090
G1 X5.790 Y48.580 E15.86848
G1 X6.700 Y48.070 E15.94828
G1 X7.190 Y47.840 E15.98968
G1 X8.200 Y47.460 E16.07222
G1 X8.710 Y47.310 E16.11289
G1 X9.433 Y47.138 E16.16975
G1 X9.600 Y47.640 F7800.000
G1 X9.950 Y47.580 E16.19691 F1440.000
G1 X10.870 Y47.490 E16.26762
G1 X11.410 Y47.470 E16.30895
G1 X44.580 Y47.470 E18.84616
G1 X45.120 Y47.490 E18.88749
G1 X46.040 Y47.580 E18.95820
G1 X46.920 Y47.750 E19.02676
G1 X47.270 Y47.840 E19.05440
G1 X48.030 Y48.090 E19.11560
G1 X48.360 Y48.220 E19.14273
G1 X49.130 Y48.580 E19.20774
G1 X49.600 Y48.840 E19.24883
G1 X50.270 Y49.260 E19.30931
G1 X51.070 Y49.880 E19.38673
G1 X51.340 Y50.120 E19.41436
G1 X51.890 Y50.680 E19.47440
G1 X52.520 Y51.430 E19.54933
G1 X52.730 Y51.720 E19.57671
G1 X53.260 Y52.580 E19.65398
G1 X53.710 Y53.490 E19.73164
G1 X53.980 Y54.180 E19.78831
G1 X54.090 Y54.520 E19.81565
G1 X54.280 Y55.250 E19.87335
G1 X54.350 Y55.600 E19.90065
G1 X54.450 Y56.270 E19.95246
G1 X54.500 Y56.800 E19.99318
G1 X54.530 Y57.410 E20.03990
G1 X54.520 Y90.940 E22.60464
G1 X54.500 Y91.300 E22.63222
G1 X54.390 Y92.170 E22.69930
G1 X54.290 Y92.690 E22.73980
G1 X54.090 Y93.470 E22.80140
G1 X53.980 Y93.810 E22.82873
G1 X53.710 Y94.500 E22.88540
G1 X53.560 Y94.830 E22.91313
G1 X53.080 Y95.720 E22.99048
G1 X52.730 Y96.270 E23.04034
G1 X52.520 Y96.560 E23.06773
G1 X52.030 Y97.160 E23.12699
G1 X51.670 Y97.550 E23.16758
G1 X51.230 Y97.970 E23.21411
G1 X50.770 Y98.360 E23.26024
G1 X50.340 Y98.680 E23.30124
G1 X49.410 Y99.260 E23.38508
G1 X48.500 Y99.710 E23.46273
G1 X47.640 Y100.030 E23.53292
G1 X47.130 Y100.180 E23.57358
G1 X46.390 Y100.350 E23.63166
G1 X45.300 Y100.500 E23.71582
G1 X44.940 Y100.520 E23.74340
G1 X11.230 Y100.520 E26.32191
G1 X10.140 Y100.430 E26.40557
G1 X9.250 Y100.280 E26.47461
G1 X8.520 Y100.090 E26.53230
G1 X8.180 Y99.980 E26.55964
G1 X7.490 Y99.710 E26.61631
G1 X7.160 Y99.560 E26.64404
G1 X6.270 Y99.080 E26.72139
G1 X5.720 Y98.730 E26.77125
G1 X5.430 Y98.520 E26.79864
G1 X4.680 Y97.890 E26.87356
G1 X4.120 Y97.340 E26.93360
G1 X3.880 Y97.070 E26.96124
G1 X3.430 Y96.490 E27.01739
G1 X2.810 Y95.570 E27.10225
G1 X2.540 Y95.060 E27.14639
G1 X2.310 Y94.570 E27.18779
G1 X2.010 Y93.810 E27.25029
G1 X1.900 Y93.470 E27.27762
G1 X1.730 Y92.810 E27.32976
G1 X1.660 Y92.480 E27.35556
G1 X1.530 Y91.600 E27.42360
G1 X1.490 Y91.050 E27.46578
G1 X1.470 Y90.580 E27.50177
G1 X1.470 Y57.230 E30.05274
G1 X1.520 Y56.490 E30.10947
G1 X1.650 Y55.560 E30.18130
G1 X1.720 Y55.220 E30.20785
G1 X1.940 Y54.410 E30.27206
G1 X2.120 Y53.890 E30.31415
G1 X2.450 Y53.100 E30.37963
G1 X2.610 Y52.780 E30.40700
G1 X3.020 Y52.080 E30.46905
G1 X3.220 Y51.780 E30.49663
G1 X3.740 Y51.090 E30.56272
G1 X4.260 Y50.510 E30.62230
G1 X4.510 Y50.260 E30.64935
G1 X5.090 Y49.740 E30.70893
G1 X5.370 Y49.520 E30.73617
G1 X6.080 Y49.020 E30.80259
G1 X6.930 Y48.540 E30.87726
G1 X7.420 Y48.310 E30.91867
G1 X8.350 Y47.960 E30.99467
G1 X8.860 Y47.810 E31.03534
G1 X9.523 Y47.658 E31.08738
G1 F1680.000 E30.08738
G92 E0
G1 X42.549 Y88.208 F7800.000
G1 E1.00000 F1680.000
G1 X42.744 Y88.066 E1.01847 F1440.000
G1 X42.953 Y87.945 E1.03692
G1 X43.315 Y87.799 E1.06681
G1 X43.759 Y87.707 E1.10147
G1 X44.000 Y87.694 E1.11994
G1 X44.241 Y87.707 E1.13840
G1 X44.479 Y87.744 E1.15686
G1 X44.713 Y87.807 E1.17533
G1 X44.938 Y87.893 E1.19379
G1 X45.153 Y88.003 E1.21225
G1 X45.473 Y88.227 E1.24213
G1 X45.792 Y88.549 E1.27680
G1 X45.934 Y88.744 E1.29527
G1 X46.055 Y88.953 E1.31372
G1 X46.651 Y90.203 E1.41966
G1 X46.307 Y90.203 E1.44599
G1 X46.193 Y90.713 E1.48592
G1 X46.055 Y91.047 E1.51360
G1 X45.934 Y91.256 E1.53206
G1 X45.792 Y91.451 E1.55052
G1 X45.631 Y91.631 E1.56898
G1 X45.451 Y91.792 E1.58745
G1 X45.256 Y91.934 E1.60591
G1 X45.047 Y92.055 E1.62437
G1 X44.712 Y92.193 E1.65205
G1 X44.479 Y92.256 E1.67051
G1 X44.241 Y92.293 E1.68897
G1 X44.000 Y92.306 E1.70743
G1 X43.759 Y92.293 E1.72590
G1 X43.521 Y92.256 E1.74436
G1 X43.287 Y92.193 E1.76282
G1 X43.062 Y92.107 E1.78129
G1 X42.847 Y91.997 E1.79975
G1 X42.549 Y91.792 E1.82742
G1 X42.369 Y91.631 E1.84589
G1 X42.208 Y91.451 E1.86435
G1 X42.066 Y91.256 E1.88281
G1 X41.945 Y91.047 E1.90127
G1 X41.799 Y90.685 E1.93115
G1 X41.707 Y90.241 E1.96582
G1 X41.694 Y90.000 E1.98428
G1 X41.707 Y89.759 E2.00274
G1 X41.744 Y89.521 E2.02121
G1 X41.807 Y89.287 E2.03967
G1 X41.945 Y88.953 E2.06735
G1 X42.066 Y88.744 E2.08581
G1 X42.208 Y88.549 E2.10427
G1 X42.489 Y88.259 E2.13513
G1 X42.820 Y88.667 F7800.000
G1 X43.110 Y88.458 E2.16244 F1440.000
G1 X43.450 Y88.307 E2.19091
G1 X43.722 Y88.242 E2.21228
G1 X44.093 Y88.222 E2.24074
G1 X44.370 Y88.259 E2.26211
G1 X44.724 Y88.374 E2.29057
G1 X45.046 Y88.560 E2.31904
G1 X45.323 Y88.809 E2.34750
G1 X45.542 Y89.110 E2.37597
G1 X45.818 Y89.677 E2.42425
G1 X45.772 Y89.677 E2.42777
G1 X45.770 Y90.186 E2.46668
G1 X45.719 Y90.461 E2.48804
G1 X45.662 Y90.638 E2.50229
G1 X45.542 Y90.890 E2.52366
G1 X45.440 Y91.046 E2.53791
G1 X45.191 Y91.323 E2.56638
G1 X44.970 Y91.493 E2.58774
G1 X44.638 Y91.662 E2.61621
G1 X44.278 Y91.758 E2.64467
G1 X43.907 Y91.778 E2.67314
G1 X43.630 Y91.741 E2.69451
G1 X43.276 Y91.626 E2.72297
G1 X42.954 Y91.440 E2.75144
G1 X42.677 Y91.191 E2.77990
G1 X42.458 Y90.890 E2.80837
G1 X42.333 Y90.624 E2.83089
G1 X42.242 Y90.278 E2.85820
G1 X42.222 Y89.907 E2.88666
G1 X42.259 Y89.630 E2.90803
G1 X42.374 Y89.276 E2.93649
G1 X42.560 Y88.954 E2.96496
G1 X42.763 Y88.721 E2.98857
G1 X42.760 Y88.315 F7800.000
G1 F1680.000 E1.98857
G92 E0
G1 X14.303 Y89.879 F7800.000
G1 E1.00000 F1680.000
G1 X14.303 Y90.121 E1.01846 F1440.000
G1 X14.278 Y90.361 E1.03692
G1 X14.227 Y90.597 E1.05538
G1 X14.153 Y90.826 E1.07384
G1 X13.997 Y91.153 E1.10153
G1 X13.866 Y91.355 E1.11999
G1 X13.714 Y91.543 E1.13845
G1 X13.451 Y91.792 E1.16613
G1 X13.256 Y91.934 E1.18459
G1 X13.047 Y92.055 E1.20305
G1 X12.826 Y92.153 E1.22152
G1 X12.597 Y92.227 E1.23998
G1 X12.361 Y92.278 E1.25844
G1 X12.121 Y92.303 E1.27690
G1 X11.879 Y92.303 E1.29536
G1 X11.639 Y92.278 E1.31383
G1 X11.403 Y92.227 E1.33229
G1 X11.174 Y92.153 E1.35075
G1 X10.953 Y92.055 E1.36921
G1 X10.744 Y91.934 E1.38767
G1 X10.457 Y91.714 E1.41536
G1 X10.286 Y91.543 E1.43381
G1 X10.134 Y91.355 E1.45228
G1 X10.003 Y91.153 E1.47074
G1 X9.893 Y90.938 E1.48920
G1 X9.807 Y90.713 E1.50766
G1 X9.744 Y90.479 E1.52613
G1 X9.697 Y90.121 E1.55380
G1 X9.710 Y89.730 E1.58368
G1 X9.807 Y89.287 E1.61835
G1 X9.893 Y89.062 E1.63681
G1 X10.003 Y88.847 E1.65527
G1 X10.134 Y88.645 E1.67374
G1 X10.286 Y88.457 E1.69220
G1 X10.457 Y88.286 E1.71066
G1 X10.645 Y88.134 E1.72913
G1 X10.847 Y88.003 E1.74759
G1 X11.062 Y87.893 E1.76604
G1 X11.403 Y87.773 E1.79373
G1 X11.639 Y87.722 E1.81219
G1 X11.879 Y87.697 E1.83065
G1 X12.121 Y87.697 E1.84911
G1 X12.361 Y87.722 E1.86758
G1 X12.597 Y87.773 E1.88603
G1 X12.826 Y87.847 E1.90450
G1 X13.047 Y87.945 E1.92296
G1 X13.256 Y88.066 E1.94142
G1 X13.543 Y88.286 E1.96911
G1 X13.714 Y88.457 E1.98756
G1 X13.866 Y88.645 E2.00603
G1 X14.055 Y88.953 E2.03371
G1 X14.153 Y89.174 E2.05217
G1 X14.227 Y89.403 E2.07064
G1 X14.297 Y89.801 E2.10150
G1 X13.772 Y89.829 F7800.000
G1 X13.770 Y90.186 E2.12881 F1440.000
G1 X13.693 Y90.550 E2.15728
G1 X13.579 Y90.821 E2.17980
G1 X13.383 Y91.120 E2.20711
G1 X13.191 Y91.323 E2.22847
G1 X12.890 Y91.542 E2.25694
G1 X12.550 Y91.693 E2.28541
G1 X12.186 Y91.770 E2.31387
G1 X11.814 Y91.770 E2.34234
G1 X11.450 Y91.693 E2.37080
G1 X11.192 Y91.586 E2.39217
G1 X10.880 Y91.383 E2.42063
G1 X10.617 Y91.120 E2.44910
G1 X10.414 Y90.808 E2.47756
G1 X10.303 Y90.536 E2.50009
G1 X10.230 Y90.186 E2.52739
G1 X10.230 Y89.814 E2.55586
G1 X10.307 Y89.450 E2.58432
G1 X10.421 Y89.179 E2.60684
G1 X10.617 Y88.880 E2.63415
G1 X10.880 Y88.617 E2.66262
G1 X11.110 Y88.458 E2.68399
G1 X11.450 Y88.307 E2.71245
G1 X11.814 Y88.230 E2.74091
G1 X12.186 Y88.230 E2.76938
G1 X12.475 Y88.285 E2.79190
G1 X12.808 Y88.414 E2.81921
G1 X13.120 Y88.617 E2.84768
G1 X13.383 Y88.880 E2.87614
G1 X13.542 Y89.110 E2.89751
G1 X13.693 Y89.450 E2.92597
G1 X13.762 Y89.751 E2.94959
G1 X14.092 Y89.987 F7800.000
G1 F1680.000 E1.94959
G92 E0
G1 X12.121 Y60.303 F7800.000
G1 E1.00000 F1680.000
G1 X11.879 Y60.303 E1.01846 F1440.000
G1 X11.639 Y60.278 E1.03692
G1 X11.403 Y60.227 E1.05538
G1 X11.174 Y60.153 E1.07384
G1 X10.953 Y60.055 E1.09230
G1 X10.744 Y59.934 E1.11077
G1 X10.549 Y59.792 E1.12923
G1 X10.369 Y59.631 E1.14769
G1 X10.208 Y59.451 E1.16616
G1 X10.066 Y59.256 E1.18462
G1 X9.945 Y59.047 E1.20308
G1 X9.847 Y58.826 E1.22154
G1 X9.744 Y58.479 E1.24922
G1 X9.707 Y58.241 E1.26768
G1 X9.694 Y58.000 E1.28614
G1 X9.722 Y57.639 E1.31382
G1 X9.773 Y57.403 E1.33228
G1 X9.847 Y57.174 E1.35074
G1 X9.945 Y56.953 E1.36921
G1 X10.066 Y56.744 E1.38767
G1 X10.297 Y56.444 E1.41666
G1 X10.297 Y56.373 E1.42209
G1 X10.744 Y56.066 E1.46354
G1 X10.953 Y55.945 E1.48200
G1 X12.203 Y55.349 E1.58794
G1 X12.203 Y55.693 E1.61426
G1 X12.713 Y55.807 E1.65418
G1 X13.047 Y55.945 E1.68186
G1 X13.256 Y56.066 E1.70032
G1 X13.451 Y56.208 E1.71879
G1 X13.631 Y56.369 E1.73725
G1 X13.792 Y56.549 E1.75571
G1 X13.934 Y56.744 E1.77417
G1 X14.055 Y56.953 E1.79264
G1 X14.193 Y57.287 E1.82032
G1 X14.278 Y57.639 E1.84800
G1 X14.306 Y58.000 E1.87567
G1 X14.278 Y58.361 E1.90335
G1 X14.227 Y58.597 E1.92181
G1 X14.153 Y58.826 E1.94027
G1 X13.997 Y59.153 E1.96796
G1 X13.866 Y59.355 E1.98641
G1 X13.714 Y59.543 E2.00488
G1 X13.451 Y59.792 E2.03256
G1 X13.256 Y59.934 E2.05102
G1 X13.047 Y60.055 E2.06948
G1 X12.826 Y60.153 E2.08794
G1 X12.597 Y60.227 E2.10640
G1 X12.199 Y60.297 E2.13728
G1 X12.171 Y59.772 F7800.000
G1 X11.814 Y59.770 E2.16459 F1440.000
G1 X11.450 Y59.693 E2.19305
G1 X11.110 Y59.542 E2.22152
G1 X10.880 Y59.383 E2.24288
G1 X10.677 Y59.191 E2.26425
G1 X10.458 Y58.890 E2.29271
G1 X10.333 Y58.624 E2.31523
G1 X10.242 Y58.278 E2.34254
G1 X10.220 Y57.985 E2.36506
G1 X10.259 Y57.630 E2.39237
G1 X10.374 Y57.276 E2.42084
G1 X10.507 Y57.030 E2.44220
G1 X10.823 Y56.650 E2.48006
G1 X11.110 Y56.458 E2.50643
G1 X11.677 Y56.182 E2.55470
G1 X11.677 Y56.228 E2.55823
G1 X12.093 Y56.222 E2.59003
G1 X12.461 Y56.281 E2.61849
G1 X12.738 Y56.380 E2.64101
G1 X13.046 Y56.560 E2.66832
G1 X13.323 Y56.809 E2.69679
G1 X13.542 Y57.110 E2.72525
G1 X13.693 Y57.450 E2.75372
G1 X13.758 Y57.722 E2.77509
G1 X13.778 Y58.093 E2.80355
G1 X13.719 Y58.461 E2.83202
G1 X13.586 Y58.808 E2.86048
G1 X13.440 Y59.046 E2.88185
G1 X13.191 Y59.323 E2.91031
G1 X12.890 Y59.542 E2.93878
G1 X12.550 Y59.693 E2.96724
G1 X12.249 Y59.762 E2.99086
G1 X12.013 Y60.092 F7800.000
G1 F1680.000 E1.99086
G92 E0
G1 X41.697 Y58.121 F7800.000
G1 E1.00000 F1680.000
G1 X41.710 Y57.730 E1.02988 F1440.000
G1 X41.807 Y57.287 E1.06455
G1 X41.893 Y57.062 E1.08301
G1 X42.003 Y56.847 E1.10147
G1 X42.134 Y56.645 E1.11994
G1 X42.286 Y56.457 E1.13840
G1 X42.457 Y56.286 E1.15686
G1 X42.645 Y56.134 E1.17532
G1 X42.847 Y56.003 E1.19378
G1 X43.062 Y55.893 E1.21224
G1 X43.403 Y55.773 E1.23993
G1 X43.639 Y55.722 E1.25839
G1 X43.879 Y55.697 E1.27685
G1 X44.121 Y55.697 E1.29531
G1 X44.361 Y55.722 E1.31377
G1 X44.713 Y55.807 E1.34146
G1 X44.938 Y55.893 E1.35992
G1 X45.153 Y56.003 E1.37838
G1 X45.355 Y56.134 E1.39684
G1 X45.543 Y56.286 E1.41530
G1 X45.714 Y56.457 E1.43377
G1 X45.866 Y56.645 E1.45223
G1 X45.997 Y56.847 E1.47069
G1 X46.107 Y57.062 E1.48916
G1 X46.193 Y57.287 E1.50762
G1 X46.256 Y57.521 E1.52608
G1 X46.303 Y57.879 E1.55376
G1 X46.293 Y58.241 E1.58144
G1 X46.256 Y58.479 E1.59990
G1 X46.193 Y58.713 E1.61836
G1 X46.107 Y58.938 E1.63682
G1 X45.997 Y59.153 E1.65528
G1 X45.866 Y59.355 E1.67375
G1 X45.714 Y59.543 E1.69221
G1 X45.543 Y59.714 E1.71067
G1 X45.355 Y59.866 E1.72914
G1 X45.047 Y60.055 E1.75681
G1 X44.826 Y60.153 E1.77528
G1 X44.597 Y60.227 E1.79373
G1 X44.361 Y60.278 E1.81220
G1 X44.121 Y60.303 E1.83067
G1 X43.879 Y60.303 E1.84912
G1 X43.639 Y60.278 E1.86759
G1 X43.260 Y60.183 E1.89746
G1 X42.847 Y59.997 E1.93214
G1 X42.645 Y59.866 E1.95060
G1 X42.457 Y59.714 E1.96905
G1 X42.190 Y59.428 E1.99894
G1 X41.945 Y59.047 E2.03361
G1 X41.847 Y58.826 E2.05207
G1 X41.773 Y58.597 E2.07053
G1 X41.703 Y58.199 E2.10139
G1 X42.228 Y58.171 F7800.000
G1 X42.230 Y57.814 E2.12870 F1440.000
G1 X42.307 Y57.450 E2.15717
G1 X42.421 Y57.179 E2.17969
G1 X42.617 Y56.880 E2.20700
G1 X42.880 Y56.617 E2.23546
G1 X43.123 Y56.451 E2.25798
G1 X43.450 Y56.307 E2.28529
G1 X43.814 Y56.230 E2.31376
G1 X44.186 Y56.230 E2.34222
G1 X44.550 Y56.307 E2.37069
G1 X44.890 Y56.458 E2.39915
G1 X45.120 Y56.617 E2.42052
G1 X45.323 Y56.809 E2.44189
G1 X45.542 Y57.110 E2.47035
G1 X45.693 Y57.450 E2.49882
G1 X45.770 Y57.814 E2.52728
G1 X45.778 Y58.093 E2.54865
G1 X45.719 Y58.461 E2.57711
G1 X45.586 Y58.808 E2.60558
G1 X45.383 Y59.120 E2.63404
G1 X45.120 Y59.383 E2.66251
G1 X44.890 Y59.542 E2.68388
G1 X44.550 Y59.693 E2.71234
G1 X44.186 Y59.770 E2.74081
G1 X43.814 Y59.770 E2.76927
