; generated by Slic3r 1.1.7 on 2014-11-29 at 23:50:24

; perimeters extrusion width = 0.40mm
; infill extrusion width = 0.67mm
; solid infill extrusion width = 0.67mm
; top infill extrusion width = 0.67mm

G21 ; set units to millimeters
M107
M104 S215 ; set temperature
G28 ; home all axes
G1 Z5 F5000 ; lift nozzle

M109 S215 ; wait for temperature to be reached
G90 ; use absolute coordinates
G92 E0
M82 ; use absolute distances for extrusion
G1 F1800.000 E-1.00000
G92 E0
G1 Z0.300 F7800.000
G1 X62.558 Y68.129 F7800.000
G1 E1.00000 F1800.000
G1 X64.309 Y66.666 E1.15853 F600.000
G1 X67.576 Y65.794 E1.39348
G1 X82.425 Y65.794 E2.42526
G1 X84.672 Y66.191 E2.58379
G1 X86.647 Y67.334 E2.74232 F600.000
G1 X88.111 Y69.084 E2.90085
G1 X88.982 Y72.351 E3.13580
G1 X88.982 Y77.648 E3.50388
G1 X88.585 Y79.895 E3.66241
G1 X87.443 Y81.870 E3.82094
G1 X85.692 Y83.334 E3.97947
G1 X82.425 Y84.206 E4.21442
G1 X67.576 Y84.206 E5.24621
G1 X65.329 Y83.809 E5.40474
G1 X63.354 Y82.666 E5.56326
G1 X61.890 Y80.916 E5.72179
G1 X61.019 Y77.648 E5.95674
G1 X61.019 Y72.351 E6.32482
G1 X61.416 Y70.104 E6.48335
G1 X62.528 Y68.181 E6.63771
G1 F1800.000 E5.63771
G92 E0
G1 X81.606 Y75.534 F7800.000
G1 E1.00000 F1800.000
G1 X67.876 Y75.534 E1.95400 F600.000
G1 X67.876 Y74.465 E2.02825
G1 X81.606 Y74.465 E2.98224
G1 X81.724 Y73.884 E3.02349
G1 X82.125 Y73.924 E3.05149
G1 X82.125 Y76.075 E3.20094
G1 X81.724 Y76.116 E3.22894
G1 X81.618 Y75.593 E3.26602
G1 X81.579 Y75.135 F7800.000
G1 X81.847 Y75.000 F7800.000
G1 X68.154 Y75.000 E3.98138 F600.000
M106 S255
M104 S210 ; set temperature
G1 F1800.000 E2.98138
G92 E0
G1 Z0.500 F7800.000
G1 X81.837 Y75.234 F7800.000
G1 E1.00000 F1800.000
G1 X68.164 Y75.234 E1.45479 F600.000
G1 X68.164 Y74.765 E1.47038
G1 X81.837 Y74.765 E1.92517
G1 X81.837 Y75.174 E1.93876
G1 X81.459 Y75.634 F7800.000
G1 X68.312 Y75.634 E2.37602 F600.000
G1 X68.312 Y77.654 E2.44320
G1 X67.764 Y77.654 E2.46146
G1 X67.764 Y72.345 E2.63801
G1 X68.312 Y72.345 E2.65627
G1 X68.312 Y74.365 E2.72345
G1 X81.459 Y74.365 E3.16071
G1 X81.688 Y73.241 E3.19888
G1 X81.688 Y72.345 E3.22866
G1 X82.237 Y72.345 E3.24692
G1 X82.237 Y77.654 E3.42348
G1 X81.688 Y77.654 E3.44174
G1 X81.688 Y76.758 E3.47152
G1 X81.471 Y75.693 E3.50769
G1 X81.432 Y75.235 F7800.000
G1 X81.832 Y75.434 F7800.000
G1 X81.947 Y76.577 E3.56772 F600.000
G1 X81.832 Y74.565 F7800.000
G1 X81.947 Y73.422 E3.62775 F600.000
G1 F1800.000 E2.62775
G92 E0
G1 Z0.700 F7800.000
G1 X81.846 Y75.234 F7800.000
G1 E1.00000 F1800.000
G1 X68.155 Y75.234 E1.45539 F600.000
G1 X68.155 Y74.765 E1.47097
G1 X81.846 Y74.765 E1.92636
G1 X81.846 Y75.174 E1.93995
G1 X81.407 Y75.634 F7800.000
G1 X68.312 Y75.634 E2.37548 F600.000
G1 X68.312 Y77.771 E2.44656
G1 X67.755 Y77.771 E2.46511
G1 X67.755 Y72.228 E2.64946
G1 X68.312 Y72.228 E2.66801
G1 X68.312 Y74.365 E2.73909
G1 X81.407 Y74.365 E3.17461
G1 X81.688 Y72.986 E3.22144
G1 X81.688 Y72.228 E3.24663
G1 X82.246 Y72.228 E3.26519
G1 X82.246 Y77.771 E3.44953
G1 X81.688 Y77.771 E3.46809
G1 X81.688 Y77.013 E3.49328
G1 X81.419 Y75.693 E3.53811
G1 X81.380 Y75.235 F7800.000
G1 X81.866 Y75.985 F7800.000
G1 X81.956 Y76.876 E3.58490 F600.000
G1 X81.866 Y74.014 F7800.000
G1 X81.956 Y73.123 E3.63168 F600.000
G1 F1800.000 E2.63168
G92 E0
G1 Z0.900 F7800.000
G1 X81.856 Y75.234 F7800.000
G1 E1.00000 F1800.000
G1 X68.145 Y75.234 E1.45600 F600.000
G1 X68.145 Y74.765 E1.47159
G1 X81.856 Y74.765 E1.92759
G1 X81.856 Y75.174 E1.94118
G1 X81.355 Y75.634 F7800.000
G1 X68.312 Y75.634 E2.37498 F600.000
G1 X68.312 Y77.859 E2.44900
G1 X67.745 Y77.859 E2.46786
G1 X67.745 Y72.140 E2.65809
G1 X68.312 Y72.140 E2.67695
G1 X68.312 Y74.365 E2.75097
G1 X81.355 Y74.365 E3.18476
G1 X81.688 Y72.731 E3.24024
G1 X81.688 Y72.140 E3.25990
G1 X82.256 Y72.140 E3.27876
G1 X82.256 Y77.859 E3.46899
G1 X81.688 Y77.859 E3.48785
G1 X81.688 Y77.268 E3.50751
G1 X81.367 Y75.693 E3.56100
G1 X81.328 Y75.235 F7800.000
G1 X81.876 Y76.285 F7800.000
G1 X81.966 Y77.176 E3.60778 F600.000
G1 X81.876 Y73.714 F7800.000
G1 X81.966 Y72.823 E3.65457 F600.000
G1 F1800.000 E2.65457
G92 E0
G1 Z1.100 F7800.000
G1 X81.865 Y75.234 F7800.000
G1 E1.00000 F1800.000
G1 X68.136 Y75.234 E1.45664 F600.000
G1 X68.136 Y74.765 E1.47223
G1 X81.865 Y74.765 E1.92887
G1 X81.865 Y75.174 E1.94246
G1 X81.303 Y75.634 F7800.000
G1 X68.312 Y75.634 E2.37453 F600.000
G1 X68.312 Y77.921 E2.45060
G1 X67.736 Y77.921 E2.46978
G1 X67.736 Y72.079 E2.66408
G1 X68.312 Y72.079 E2.68326
G1 X68.312 Y74.365 E2.75930
G1 X81.303 Y74.365 E3.19137
G1 X81.688 Y72.476 E3.25551
G1 X81.688 Y72.079 E3.26870
G1 X82.265 Y72.079 E3.28789
G1 X82.265 Y77.921 E3.48219
G1 X81.688 Y77.921 E3.50137
G1 X81.688 Y77.523 E3.51459
G1 X81.315 Y75.693 E3.57673
G1 X81.276 Y75.235 F7800.000
G1 X81.885 Y76.587 F7800.000
G1 X81.975 Y77.478 E3.62352 F600.000
G1 X81.885 Y73.412 F7800.000
G1 X81.975 Y72.521 E3.67031 F600.000
G1 F1800.000 E2.67031
G92 E0
G1 Z1.300 F7800.000
G1 X81.875 Y75.249 F7800.000
G1 E1.00000 F1800.000
G1 X81.587 Y75.278 E1.00962 F600.000
G1 X81.578 Y75.234 E1.01112
G1 X68.126 Y75.234 E1.45852
G1 X68.126 Y74.765 E1.47410
G1 X81.578 Y74.765 E1.92149
G1 X81.587 Y74.721 E1.92299
G1 X81.875 Y74.750 E1.93262
G1 X81.875 Y75.189 E1.94721
G1 X81.251 Y75.634 F7800.000
G1 X68.312 Y75.634 E2.37755 F600.000
G1 X68.312 Y77.960 E2.45492
G1 X67.726 Y77.960 E2.47441
G1 X67.726 Y72.040 E2.67130
G1 X68.312 Y72.040 E2.69080
G1 X68.312 Y74.365 E2.76813
G1 X81.251 Y74.365 E3.19847
G1 X81.688 Y72.221 E3.27126
G1 X81.688 Y72.040 E3.27727
G1 X82.275 Y72.040 E3.29677
G1 X82.275 Y77.960 E3.49366
G1 X81.688 Y77.960 E3.51315
G1 X81.688 Y77.778 E3.51920
G1 X81.263 Y75.693 E3.58999
G1 X81.224 Y75.235 F7800.000
G1 X81.751 Y75.463 F7800.000
G1 X81.895 Y76.888 E3.66485 F600.000
G1 X81.895 Y76.888 F7800.000
G1 X81.983 Y77.760 E3.71063 F600.000
G1 X81.751 Y74.537 F7800.000
G1 X81.895 Y73.111 E3.78549 F600.000
G1 X81.895 Y73.111 F7800.000
G1 X81.983 Y72.240 E3.83122 F600.000
G1 F1800.000 E2.83122
G92 E0
G1 Z1.500 F7800.000
G1 X81.526 Y75.234 F7800.000
G1 E1.00000 F1800.000
G1 X68.117 Y75.234 E1.44597 F600.000
G1 X68.117 Y74.765 E1.46155
G1 X81.526 Y74.765 E1.90752
G1 X81.596 Y74.421 E1.91921
G1 X81.884 Y74.450 E1.92883
G1 X81.884 Y75.549 E1.96539
G1 X81.596 Y75.578 E1.97501
G1 X81.538 Y75.293 E1.98470
G1 X81.199 Y75.634 F7800.000
G1 X68.329 Y75.634 E2.41276 F600.000
G1 X68.312 Y76.129 E2.42925
G1 X68.312 Y77.979 E2.49077
G1 X67.717 Y77.979 E2.51057
G1 X67.717 Y72.021 E2.70874
G1 X68.312 Y72.021 E2.72854
G1 X68.312 Y73.870 E2.79004
G1 X68.329 Y74.365 E2.80653
G1 X81.199 Y74.365 E3.23459
G1 X81.677 Y72.021 E3.31418
G1 X82.284 Y72.021 E3.33435
G1 X82.284 Y77.979 E3.53252
G1 X81.677 Y77.979 E3.55269
G1 X81.211 Y75.693 E3.63030
G1 X81.172 Y75.235 F7800.000
G1 X81.760 Y75.763 F7800.000
G1 X81.904 Y77.188 E3.70516 F600.000
G1 X81.760 Y74.236 F7800.000
G1 X81.904 Y72.811 E3.78001 F600.000
G1 F1800.000 E2.78001
G92 E0
G1 X68.016 Y73.918 F7800.000
G1 E1.00000 F1800.000
G1 X68.026 Y74.565 E1.03383 F600.000
G1 X68.026 Y75.434 F7800.000
G1 X68.016 Y76.081 E1.06766 F600.000
G1 F1800.000 E0.06766
G92 E0
G1 Z1.700 F7800.000
G1 X81.474 Y75.234 F7800.000
G1 E1.00000 F1800.000
G1 X68.108 Y75.234 E1.44455 F600.000
G1 X68.108 Y74.765 E1.46013
G1 X81.474 Y74.765 E1.90468
G1 X81.605 Y74.121 E1.92655
G1 X81.893 Y74.150 E1.93617
G1 X81.893 Y75.849 E1.99270
G1 X81.605 Y75.878 E2.00232
G1 X81.486 Y75.293 E2.02220
G1 X81.147 Y75.634 F7800.000
G1 X68.460 Y75.634 E2.44416 F600.000
G1 X68.383 Y77.985 E2.52239
G1 X67.708 Y77.985 E2.54483
G1 X67.708 Y72.014 E2.74340
G1 X68.383 Y72.014 E2.76585
G1 X68.460 Y74.365 E2.84408
G1 X81.147 Y74.365 E3.26604
G1 X81.627 Y72.014 E3.34584
G1 X82.293 Y72.014 E3.36800
G1 X82.293 Y77.985 E3.56657
G1 X81.627 Y77.985 E3.58874
G1 X81.159 Y75.693 E3.66654
G1 X81.120 Y75.235 F7800.000
G1 X81.769 Y76.063 F7800.000
G1 X81.913 Y77.488 E3.74140 F600.000
G1 X81.769 Y73.936 F7800.000
G1 X81.913 Y72.511 E3.81626 F600.000
G1 F1800.000 E2.81626
G92 E0
G1 X68.049 Y72.214 F7800.000
G1 E1.00000 F1800.000
G1 X68.087 Y74.565 E1.12283 F600.000
G1 X68.087 Y75.434 F7800.000
G1 X68.049 Y77.785 E1.24567 F600.000
G1 F1800.000 E0.24567
G92 E0
G1 Z1.900 F7800.000
G1 X81.422 Y75.234 F7800.000
G1 E1.00000 F1800.000
G1 X68.099 Y75.234 E1.44313 F600.000
G1 X68.099 Y74.765 E1.45871
G1 X81.422 Y74.765 E1.90184
G1 X81.614 Y73.820 E1.93391
G1 X81.902 Y73.849 E1.94353
G1 X81.902 Y76.150 E2.02004
G1 X81.614 Y76.179 E2.02966
G1 X81.434 Y75.293 E2.05974
G1 X81.095 Y75.634 F7800.000
G1 X68.592 Y75.634 E2.47560 F600.000
G1 X68.524 Y77.702 E2.54442
G1 X68.387 Y77.985 E2.55487
G1 X67.699 Y77.985 E2.57776
G1 X67.699 Y72.014 E2.77633
G1 X68.387 Y72.014 E2.79922
G1 X68.524 Y72.297 E2.80967
G1 X68.592 Y74.365 E2.87849
G1 X81.095 Y74.365 E3.29435
G1 X81.515 Y72.304 E3.36430
G1 X81.626 Y72.014 E3.37463
G1 X82.302 Y72.014 E3.39712
G1 X82.302 Y77.985 E3.59569
G1 X81.626 Y77.985 E3.61817
G1 X81.515 Y77.695 E3.62850
G1 X81.107 Y75.693 E3.69646
G1 X81.068 Y75.235 F7800.000
G1 X81.778 Y76.363 F7800.000
G1 X81.902 Y77.582 E3.76047 F600.000
G1 X81.939 Y77.785 E3.77122
G1 X81.778 Y73.636 F7800.000
G1 X81.902 Y72.417 E3.83524 F600.000
G1 X81.939 Y72.214 E3.84599
G1 F1800.000 E2.84599
G92 E0
G1 X68.110 Y72.214 F7800.000
G1 E1.00000 F1800.000
G1 X68.148 Y74.565 E1.12283 F600.000
G1 X68.148 Y75.434 F7800.000
G1 X68.110 Y77.785 E1.24567 F600.000
G1 F1800.000 E0.24567
G92 E0
G1 Z2.100 F7800.000
G1 X81.370 Y75.234 F7800.000
G1 E1.00000 F1800.000
G1 X68.089 Y75.234 E1.44171 F600.000
G1 X68.089 Y74.765 E1.45729
G1 X81.370 Y74.765 E1.89900
G1 X81.624 Y73.520 E1.94127
G1 X81.912 Y73.549 E1.95089
G1 X81.912 Y76.450 E2.04739
G1 X81.624 Y76.479 E2.05701
G1 X81.382 Y75.293 E2.09729
G1 X81.043 Y75.634 F7800.000
G1 X68.723 Y75.634 E2.50704 F600.000
G1 X68.665 Y77.410 E2.56614
G1 X68.387 Y77.985 E2.58738
G1 X67.689 Y77.985 E2.61058
G1 X67.689 Y72.014 E2.80915
G1 X68.387 Y72.014 E2.83235
G1 X68.665 Y72.589 E2.85359
G1 X68.723 Y74.365 E2.91269
G1 X81.043 Y74.365 E3.32245
G1 X81.404 Y72.597 E3.38248
G1 X81.626 Y72.014 E3.40321
G1 X82.312 Y72.014 E3.42601
G1 X82.312 Y77.985 E3.62458
G1 X81.626 Y77.985 E3.64737
G1 X81.404 Y77.402 E3.66810
G1 X81.055 Y75.693 E3.72614
G1 X81.016 Y75.235 F7800.000
G1 X68.209 Y75.434 F7800.000
G1 X68.179 Y77.290 E3.82313 F600.000
G1 X68.066 Y77.785 E3.84964
G1 X68.209 Y74.565 F7800.000
G1 X68.179 Y72.709 E3.94663 F600.000
G1 X68.066 Y72.214 E3.97313
G1 F1800.000 E2.97313
G92 E0
G1 Z2.300 F7800.000
G1 X81.318 Y75.234 F7800.000
G1 E1.00000 F1800.000
G1 X68.468 Y75.234 E1.42739 F600.000
G1 X68.409 Y77.020 E1.48682
G1 X68.329 Y77.185 E1.49295
G1 X68.080 Y77.129 E1.50143
G1 X68.080 Y72.871 E1.64306
G1 X68.329 Y72.814 E1.65154
G1 X68.409 Y72.979 E1.65766
G1 X68.468 Y74.765 E1.71709
G1 X81.318 Y74.765 E2.14449
G1 X81.633 Y73.219 E2.19696
G1 X81.921 Y73.249 E2.20658
G1 X81.921 Y76.751 E2.32306
G1 X81.633 Y76.780 E2.33268
G1 X81.330 Y75.293 E2.38316
G1 X80.991 Y75.634 F7800.000
G1 X68.855 Y75.634 E2.78682 F600.000
G1 X68.806 Y77.117 E2.83619
G1 X68.387 Y77.985 E2.86822
G1 X67.680 Y77.985 E2.89173
G1 X67.680 Y72.014 E3.09030
G1 X68.387 Y72.014 E3.11381
G1 X68.806 Y72.882 E3.14584
G1 X68.855 Y74.365 E3.19521
G1 X80.991 Y74.365 E3.59887
G1 X81.292 Y72.889 E3.64899
G1 X81.626 Y72.014 E3.68012
G1 X82.321 Y72.014 E3.70323
G1 X82.321 Y77.985 E3.90179
G1 X81.626 Y77.985 E3.92490
G1 X81.292 Y77.110 E3.95603
G1 X81.003 Y75.693 E4.00415
G1 X80.964 Y75.235 F7800.000
G1 X81.631 Y75.319 F7800.000
G1 X81.599 Y75.000 E4.02091 F600.000
G1 X81.631 Y74.680 E4.03767
G1 F1800.000 E3.03767
G92 E0
G1 Z2.500 F7800.000
G1 X81.266 Y75.234 F7800.000
G1 E1.00000 F1800.000
G1 X68.599 Y75.234 E1.42129 F600.000
G1 X68.550 Y76.727 E1.47100
G1 X68.319 Y77.205 E1.48863
G1 X68.071 Y77.148 E1.49711
G1 X68.071 Y72.851 E1.64002
G1 X68.319 Y72.794 E1.64850
G1 X68.550 Y73.272 E1.66613
G1 X68.599 Y74.765 E1.71584
G1 X81.266 Y74.765 E2.13713
G1 X81.566 Y73.293 E2.18710
G1 X81.668 Y73.026 E2.19663
G1 X81.930 Y73.074 E2.20549
G1 X81.930 Y76.925 E2.33359
G1 X81.668 Y76.974 E2.34245
G1 X81.566 Y76.706 E2.35198
G1 X81.278 Y75.293 E2.39995
G1 X80.939 Y75.634 F7800.000
G1 X68.986 Y75.634 E2.79751 F600.000
G1 X68.947 Y76.825 E2.83716
G1 X68.387 Y77.985 E2.87998
G1 X67.671 Y77.985 E2.90380
G1 X67.671 Y72.014 E3.10237
G1 X68.387 Y72.014 E3.12619
G1 X68.947 Y73.174 E3.16902
G1 X68.986 Y74.365 E3.20866
G1 X80.939 Y74.365 E3.60622
G1 X81.181 Y73.181 E3.64642
G1 X81.626 Y72.014 E3.68795
G1 X82.330 Y72.014 E3.71137
G1 X82.330 Y77.985 E3.90994
G1 X81.626 Y77.985 E3.93335
G1 X81.181 Y76.818 E3.97488
G1 X80.951 Y75.693 E4.01309
G1 X80.912 Y75.235 F7800.000
G1 X81.640 Y75.619 F7800.000
G1 X81.578 Y75.000 E4.04562 F600.000
G1 X81.640 Y74.380 E4.07815
G1 F1800.000 E3.07815
G92 E0
G1 Z2.700 F7800.000
G1 X81.214 Y75.234 F7800.000
G1 E1.00000 F1800.000
G1 X68.730 Y75.234 E1.41519 F600.000
G1 X68.691 Y76.435 E1.45517
G1 X68.310 Y77.224 E1.48431
G1 X68.061 Y77.167 E1.49279
G1 X68.061 Y72.832 E1.63698
G1 X68.310 Y72.775 E1.64547
G1 X68.691 Y73.564 E1.67460
G1 X68.730 Y74.765 E1.71458
G1 X81.214 Y74.765 E2.12977
G1 X81.454 Y73.585 E2.16983
G1 X81.677 Y73.001 E2.19062
G1 X81.939 Y73.050 E2.19948
G1 X81.939 Y76.950 E2.32920
G1 X81.677 Y76.998 E2.33806
G1 X81.454 Y76.414 E2.35885
G1 X81.226 Y75.293 E2.39691
G1 X80.887 Y75.634 F7800.000
G1 X69.117 Y75.634 E2.78837 F600.000
G1 X69.088 Y76.533 E2.81829
G1 X68.387 Y77.985 E2.87190
G1 X67.661 Y77.985 E2.89604
G1 X67.661 Y72.014 E3.09461
G1 X68.387 Y72.014 E3.11874
G1 X69.088 Y73.466 E3.17235
G1 X69.117 Y74.365 E3.20228
G1 X80.887 Y74.365 E3.59373
G1 X81.069 Y73.473 E3.62401
G1 X81.626 Y72.014 E3.67595
G1 X82.339 Y72.014 E3.69967
G1 X82.339 Y77.985 E3.89824
G1 X81.626 Y77.985 E3.92196
G1 X81.069 Y76.526 E3.97390
G1 X80.899 Y75.693 E4.00218
G1 X80.860 Y75.235 F7800.000
G1 F1800.000 E3.00218
G92 E0
G1 X68.339 Y76.525 F7800.000
G1 E1.00000 F1800.000
G1 X68.377 Y76.358 E1.00896 F600.000
G1 X68.400 Y75.000 E1.07994
G1 X68.377 Y73.641 E1.15093
G1 X68.339 Y73.474 E1.15989
G1 F1800.000 E0.15989
G92 E0
G1 X81.649 Y74.080 F7800.000
G1 E1.00000 F1800.000
G1 X81.557 Y75.000 E1.04831 F600.000
G1 X81.649 Y75.920 E1.09662
G1 F1800.000 E0.09662
G92 E0
G1 Z2.900 F7800.000
G1 X81.162 Y75.234 F7800.000
G1 E1.00000 F1800.000
G1 X68.862 Y75.234 E1.40909 F600.000
G1 X68.832 Y76.143 E1.43935
G1 X68.301 Y77.243 E1.47999
G1 X68.052 Y77.187 E1.48847
G1 X68.052 Y72.813 E1.63395
G1 X68.301 Y72.756 E1.64243
G1 X68.832 Y73.856 E1.68307
G1 X68.862 Y74.765 E1.71333
G1 X81.162 Y74.765 E2.12242
G1 X81.343 Y73.878 E2.15255
G1 X81.687 Y72.977 E2.18462
G1 X81.949 Y73.025 E2.19348
G1 X81.949 Y76.974 E2.32481
G1 X81.687 Y77.022 E2.33367
G1 X81.343 Y76.122 E2.36573
G1 X81.174 Y75.293 E2.39387
G1 X80.835 Y75.634 F7800.000
G1 X69.249 Y75.634 E2.77922 F600.000
G1 X69.229 Y76.241 E2.79942
G1 X68.387 Y77.985 E2.86383
G1 X67.652 Y77.985 E2.88827
G1 X67.652 Y72.014 E3.08684
G1 X68.387 Y72.014 E3.11129
G1 X69.229 Y73.758 E3.17569
G1 X69.249 Y74.365 E3.19589
G1 X80.835 Y74.365 E3.58124
G1 X80.957 Y73.765 E3.60160
G1 X81.626 Y72.014 E3.66395
G1 X82.349 Y72.014 E3.68798
G1 X82.349 Y77.985 E3.88655
G1 X81.626 Y77.985 E3.91057
G1 X80.957 Y76.234 E3.97292
G1 X80.847 Y75.693 E3.99128
G1 X80.808 Y75.235 F7800.000
G1 X68.449 Y75.727 F7800.000
G1 X68.449 Y74.272 E4.06731 F600.000
G1 X68.449 Y74.272 F7800.000
G1 X68.443 Y73.952 E4.08405 F600.000
G1 X68.330 Y73.455 E4.11069
G1 X68.449 Y75.727 F7800.000
G1 X68.443 Y76.047 E4.12742 F600.000
G1 X68.330 Y76.545 E4.15406
G1 F1800.000 E3.15406
G92 E0
G1 X81.569 Y74.670 F7800.000
G1 E1.00000 F1800.000
G1 X81.667 Y73.819 E1.04476 F600.000
G1 X81.569 Y75.329 F7800.000
G1 X81.667 Y76.180 E1.08952 F600.000
G1 F1800.000 E0.08952
G92 E0
G1 Z3.100 F7800.000
G1 X81.110 Y75.234 F7800.000
G1 E1.00000 F1800.000
G1 X68.993 Y75.234 E1.40299 F600.000
G1 X68.973 Y75.851 E1.42352
G1 X68.291 Y77.263 E1.47567
G1 X68.043 Y77.206 E1.48415
G1 X68.043 Y72.793 E1.63091
G1 X68.291 Y72.736 E1.63940
G1 X68.973 Y74.148 E1.69154
G1 X68.993 Y74.765 E1.71208
G1 X81.110 Y74.765 E2.11506
G1 X81.231 Y74.170 E2.13528
G1 X81.696 Y72.953 E2.17861
G1 X81.958 Y73.001 E2.18747
G1 X81.958 Y76.998 E2.32042
G1 X81.696 Y77.046 E2.32928
