; generated by Slic3r 1.1.7 on 2014-11-30 at 17:08:17

; perimeters extrusion width = 0.40mm
; infill extrusion width = 0.67mm
; solid infill extrusion width = 0.67mm
; top infill extrusion width = 0.67mm
; support material extrusion width = 0.40mm

G21 ; set units to millimeters
M107
M104 S215 ; set temperature
G28 ; home all axes
G1 Z5 F5000 ; lift nozzle

M109 S215 ; wait for temperature to be reached
G90 ; use absolute coordinates
G92 E0
M82 ; use absolute distances for extrusion
G1 F1800.000 E-1.00000
G92 E0
G1 Z0.300 F7800.000
G1 X45.031 Y57.173 F7800.000
G1 E1.00000 F1800.000
G1 X46.914 Y55.961 E1.09190 F1080.000
G1 X48.976 Y55.488 E1.17870
G1 X62.437 Y54.724 E1.73183
G1 X88.237 Y54.765 E2.79030
G1 X100.561 Y55.539 E3.29694 F1080.000
G1 X102.737 Y56.073 E3.38883
G1 X103.757 Y56.646 E3.43684
G1 X104.282 Y57.009 E3.46300
G1 X105.870 Y58.588 E3.55490
G1 X106.808 Y60.622 E3.64679
G1 X107.011 Y62.212 E3.71255
G1 X106.996 Y69.686 E4.01921
G1 X106.885 Y71.316 E4.08622
G1 X106.657 Y72.621 E4.14059
G1 X105.725 Y75.889 E4.28001
G1 X105.298 Y76.989 E4.32841
G1 X104.095 Y79.181 E4.43101
G1 X101.218 Y82.933 E4.62496
G1 X99.429 Y84.635 E4.72628
G1 X97.899 Y85.862 E4.80673
G1 X96.525 Y86.823 E4.87552
G1 X95.235 Y87.628 E4.93792
G1 X94.013 Y88.313 E4.99538
G1 X92.849 Y88.904 E5.04895
G1 X91.733 Y89.419 E5.09939
G1 X90.657 Y89.873 E5.14727
G1 X89.587 Y90.285 E5.19432
G1 X88.577 Y90.638 E5.23821
G1 X87.561 Y90.964 E5.28200
G1 X86.560 Y91.254 E5.32476
G1 X84.677 Y91.726 E5.40441
G1 X82.856 Y92.094 E5.48063
G1 X81.914 Y92.255 E5.51981
G1 X80.193 Y92.489 E5.59110
G1 X79.245 Y92.593 E5.63019
G1 X77.568 Y92.719 E5.69921
G1 X76.725 Y92.758 E5.73381
G1 X75.041 Y92.793 E5.80292
G1 X73.405 Y92.766 E5.87007
G1 X71.825 Y92.680 E5.93497
G1 X70.268 Y92.541 E5.99910
G1 X69.469 Y92.449 E6.03208
G1 X67.910 Y92.227 E6.09669
G1 X67.218 Y92.106 E6.12552
G1 X66.373 Y91.950 E6.16077
G1 X64.876 Y91.623 E6.22364
G1 X63.430 Y91.251 E6.28488
G1 X62.697 Y91.040 E6.31621
G1 X61.243 Y90.576 E6.37882
G1 X59.807 Y90.054 E6.44151
G1 X59.095 Y89.771 E6.47293
G1 X58.339 Y89.450 E6.50662
G1 X57.556 Y89.088 E6.54202
G1 X55.608 Y88.104 E6.63154
G1 X54.229 Y87.302 E6.69701
G1 X52.866 Y86.410 E6.76382
G1 X52.204 Y85.935 E6.79727
G1 X50.889 Y84.904 E6.86580
G1 X50.229 Y84.335 E6.90157
G1 X49.596 Y83.749 E6.93696
G1 X48.965 Y83.125 E6.97339
G1 X48.327 Y82.445 E7.01162
G1 X47.726 Y81.753 E7.04922
G1 X47.108 Y80.980 E7.08983
G1 X46.534 Y80.191 E7.12986
G1 X45.947 Y79.303 E7.17354
G1 X45.405 Y78.380 E7.21746
G1 X44.882 Y77.372 E7.26401
G1 X44.386 Y76.261 E7.31394
G1 X43.936 Y75.045 E7.36713
G1 X43.542 Y73.688 E7.42512
G1 X43.229 Y72.156 E7.48925
G1 X43.035 Y70.408 E7.56144
G1 X42.994 Y68.898 E7.62338
G1 X42.988 Y61.865 E7.91195
G1 X43.658 Y59.027 E8.03158
G1 X44.995 Y57.221 E8.12374
G1 X45.614 Y57.772 F7800.000
G1 X45.725 Y57.648 E8.13055 F1080.000
G1 X46.961 Y56.836 E8.19124
G1 X48.289 Y56.396 E8.24862
G1 X61.781 Y55.620 E8.80311
G1 X62.780 Y55.442 E8.84473
G1 X65.187 Y56.155 E8.94772
G1 X66.282 Y57.181 E9.00927
G1 X66.381 Y57.230 E9.01379
G1 X66.759 Y57.627 E9.03628
G1 X67.301 Y58.135 E9.06678
G1 X67.396 Y58.299 E9.07455
G1 X67.879 Y58.807 E9.10330
G1 X68.772 Y59.266 E9.14449
G1 X70.158 Y63.435 E9.32476
G1 X69.505 Y64.738 E9.38454
G1 X69.576 Y64.980 E9.39490
G1 X69.983 Y65.223 E9.41433
G1 X70.632 Y65.520 E9.44364
G1 X71.394 Y65.787 E9.47676
G1 X72.203 Y65.997 E9.51104
G1 X73.124 Y66.163 E9.54944
G1 X74.074 Y66.264 E9.58864
G1 X75.064 Y66.296 E9.62927
G1 X76.084 Y66.253 E9.67115
G1 X77.157 Y66.125 E9.71550
G1 X78.225 Y65.902 E9.76024
G1 X79.310 Y65.555 E9.80700
G1 X79.501 Y65.465 E9.81565
G1 X79.577 Y65.390 E9.82002
G1 X79.788 Y64.968 E9.83941
G1 X80.375 Y64.773 E9.86477
G1 X80.494 Y64.535 E9.87570
G1 X80.018 Y63.101 E9.93770
G1 X82.813 Y57.523 E10.19367
G1 X83.595 Y57.263 E10.22746
G1 X83.692 Y57.179 E10.23271
G1 X83.949 Y56.666 E10.25625
G1 X88.119 Y55.281 E10.43653
G1 X88.382 Y55.412 E10.44858
G1 X88.509 Y55.422 E10.45383 F1080.000
G1 X88.804 Y55.324 E10.46656
G1 X89.626 Y55.722 E10.50404
G1 X99.621 Y56.349 E10.91489
G1 X99.993 Y56.262 E10.93057
G1 X100.939 Y56.431 E10.97000
G1 X101.235 Y56.451 E10.98219
G1 X101.341 Y56.503 E10.98702
G1 X102.260 Y56.667 E11.02533
G1 X104.624 Y58.299 E11.14319
G1 X105.721 Y59.873 E11.22189
G1 X106.225 Y61.840 E11.30519
G1 X106.144 Y62.606 E11.33683
G1 X106.143 Y68.176 E11.56531
G1 X106.118 Y68.391 E11.57423
G1 X106.125 Y68.462 E11.57712
G1 X106.549 Y69.738 E11.63231
G1 X106.188 Y70.459 E11.66537
G1 X106.179 Y70.586 E11.67061
G1 X106.438 Y71.368 E11.70441
G1 X105.256 Y73.727 E11.81266
G1 X105.247 Y73.854 E11.81791
G1 X105.507 Y74.636 E11.85170
G1 X102.902 Y79.833 E12.09019
G1 X102.120 Y80.092 E12.12398
G1 X102.024 Y80.176 E12.12923
G1 X100.706 Y82.804 E12.24985
G1 X99.925 Y83.064 E12.28364
G1 X99.828 Y83.148 E12.28889
G1 X99.331 Y84.139 E12.33439
G1 X98.549 Y84.399 E12.36819
G1 X98.453 Y84.483 E12.37343
G1 X98.138 Y85.110 E12.40219
G1 X96.742 Y85.585 E12.46271
G1 X96.385 Y85.886 E12.48186
G1 X93.423 Y87.754 E12.62554
G1 X93.281 Y87.742 E12.63137
G1 X93.192 Y87.759 E12.63508
G1 X91.041 Y88.860 E12.73425
G1 X90.932 Y88.843 E12.73876
G1 X90.843 Y88.855 E12.74244
G1 X88.865 Y89.694 E12.83058
G1 X88.690 Y89.681 E12.83780
G1 X86.816 Y90.341 E12.91928
G1 X86.660 Y90.324 E12.92572
G1 X84.877 Y90.845 E13.00195
G1 X84.728 Y90.823 E13.00814
G1 X83.036 Y91.236 E13.07958
G1 X82.884 Y91.206 E13.08593
G1 X81.211 Y91.524 E13.15579
G1 X81.089 Y91.500 E13.16088
G1 X79.469 Y91.737 E13.22807
G1 X79.354 Y91.711 E13.23291
G1 X77.807 Y91.887 E13.29677
G1 X77.665 Y91.844 E13.30284
G1 X76.137 Y91.953 E13.36572
G1 X76.010 Y91.912 E13.37117
G1 X75.839 Y91.935 E13.37825
G1 X74.498 Y91.956 E13.43326
G1 X74.339 Y91.919 E13.43998
G1 X74.261 Y91.938 E13.44328
G1 X72.894 Y91.902 E13.49939
G1 X72.761 Y91.876 E13.50492
G1 X71.320 Y91.797 E13.56414
G1 X70.769 Y91.725 E13.58693
G1 X69.818 Y91.648 E13.62608
G1 X69.751 Y91.622 E13.62903
G1 X69.369 Y91.566 E13.64488
G1 X68.328 Y91.448 E13.68784
G1 X68.249 Y91.411 E13.69144
G1 X67.980 Y91.363 E13.70266
G1 X66.862 Y91.199 E13.74902
G1 X66.777 Y91.154 E13.75293
G1 X66.542 Y91.103 E13.76280
G1 X65.417 Y90.900 E13.80969
G1 X65.329 Y90.848 E13.81388
G1 X65.048 Y90.776 E13.82578
G1 X63.983 Y90.542 E13.87053
G1 X63.922 Y90.509 E13.87336
G1 X63.420 Y90.355 E13.89493
G1 X62.569 Y90.134 E13.93097
G1 X61.932 Y89.898 E13.95886
G1 X61.142 Y89.656 E13.99276
G1 X60.525 Y89.406 E14.02009
G1 X59.706 Y89.120 E14.05566
G1 X59.066 Y88.828 E14.08452
G1 X58.439 Y88.579 E14.11221
G1 X58.377 Y88.529 E14.11545
G1 X58.031 Y88.356 E14.13134
G1 X57.039 Y87.911 E14.17596
G1 X56.137 Y87.406 E14.21835
G1 X55.769 Y87.222 E14.23526
G1 X55.697 Y87.203 E14.23829
G1 X55.087 Y86.818 E14.26788
G1 X54.417 Y86.427 E14.29970
G1 X54.372 Y86.418 E14.30159
G1 X53.757 Y85.980 E14.33260
G1 X53.270 Y85.673 E14.35620
G1 X53.240 Y85.633 E14.35825
G1 X53.145 Y85.570 E14.36291
G1 X53.083 Y85.556 E14.36552
G1 X52.461 Y85.057 E14.39826
G1 X52.031 Y84.750 E14.41990
G1 X51.988 Y84.687 E14.42305
G1 X51.897 Y84.621 E14.42767
G1 X51.790 Y84.590 E14.43222
G1 X51.181 Y84.031 E14.46613
G1 X50.835 Y83.753 E14.48437
G1 X50.705 Y83.594 E14.49278
G1 X50.540 Y83.523 E14.50017
G1 X49.944 Y82.896 E14.53566
G1 X49.658 Y82.633 E14.55159
G1 X49.594 Y82.528 E14.55665
G1 X49.479 Y82.407 E14.56349
G1 X49.303 Y82.319 E14.57157
G1 X48.765 Y81.656 E14.60658
G1 X48.534 Y81.413 E14.62033
G1 X48.473 Y81.296 E14.62574
G1 X48.283 Y81.062 E14.63813
G1 X48.091 Y80.951 E14.64719
G1 X47.602 Y80.224 E14.68314
G1 X47.453 Y80.040 E14.69287
G1 X47.404 Y79.930 E14.69781
G1 X47.123 Y79.513 E14.71845
G1 X46.912 Y79.369 E14.72893
G1 X46.028 Y77.702 E14.80634
G1 X45.979 Y77.647 E14.80936
G1 X45.795 Y77.513 E14.81867
G1 X45.022 Y75.496 E14.90733
G1 X44.979 Y75.434 E14.91042
G1 X44.775 Y75.248 E14.92171
G1 X44.199 Y72.642 E15.03123
G1 X44.166 Y72.573 E15.03437
G1 X43.958 Y72.322 E15.04776
G1 X43.877 Y69.525 E15.16253
G1 X43.862 Y69.483 E15.16438
G1 X43.854 Y68.704 E15.19633
G1 X43.856 Y62.944 E15.43265
G1 X43.881 Y62.729 E15.44154
G1 X43.874 Y62.659 E15.44443
G1 X43.449 Y61.380 E15.49973
G1 X44.795 Y58.694 E15.62298
G1 X45.575 Y57.817 E15.67111
G1 X45.815 Y58.031 F7800.000
G1 X45.937 Y57.894 E15.67863 F1080.000
G1 X47.102 Y57.127 E15.73585
G1 X48.349 Y56.715 E15.78976
G1 X61.819 Y55.939 E16.34329
G1 X62.762 Y55.772 E16.38258
G1 X65.023 Y56.442 E16.47933
G1 X66.113 Y57.462 E16.54057
G1 X66.202 Y57.508 E16.54469
G1 X66.532 Y57.855 E16.56434
G1 X67.044 Y58.334 E16.59310
G1 X67.134 Y58.490 E16.60047
G1 X67.685 Y59.069 E16.63327
G1 X68.509 Y59.493 E16.67130
G1 X69.811 Y63.410 E16.84065
G1 X69.091 Y64.847 E16.90657
G1 X69.140 Y65.069 E16.91592
G1 X69.274 Y65.175 E16.92292
G1 X69.817 Y65.499 E16.94889
G1 X70.497 Y65.813 E16.97962
G1 X71.300 Y66.095 E17.01451
G1 X72.134 Y66.311 E17.04985
G1 X73.078 Y66.482 E17.08922
G1 X74.052 Y66.585 E17.12938
G1 X75.065 Y66.618 E17.17099
G1 X76.110 Y66.574 E17.21387
G1 X77.209 Y66.443 E17.25931
G1 X78.307 Y66.213 E17.30532
G1 X79.430 Y65.854 E17.35368
G1 X79.739 Y65.707 E17.36773
G1 X79.815 Y65.632 E17.37211
G1 X80.016 Y65.231 E17.39053
G1 X80.781 Y64.976 E17.42362
G1 X80.901 Y64.738 E17.43454
G1 X80.365 Y63.126 E17.50427
G1 X83.041 Y57.786 E17.74932
G1 X83.823 Y57.526 E17.78311
G1 X83.920 Y57.442 E17.78836
G1 X84.177 Y56.929 E17.81190
G1 X88.094 Y55.628 E17.98125
G1 X88.357 Y55.759 E17.99330 F1080.000
G1 X88.484 Y55.769 E17.99855
G1 X88.779 Y55.671 E18.01128
G1 X89.541 Y56.038 E18.04599
G1 X99.651 Y56.673 E18.46161
G1 X100.005 Y56.591 E18.47651
G1 X100.900 Y56.751 E18.51383
G1 X101.134 Y56.766 E18.52345
G1 X101.224 Y56.808 E18.52750
G1 X102.135 Y56.971 E18.56548
G1 X104.394 Y58.531 E18.67809
G1 X105.424 Y60.009 E18.75201
G1 X105.899 Y61.863 E18.83054
G1 X105.822 Y62.589 E18.86050
G1 X105.821 Y68.157 E19.08892
G1 X105.790 Y68.425 E19.10000
G1 X105.797 Y68.495 E19.10290
G1 X106.202 Y69.713 E19.15555
G1 X105.841 Y70.434 E19.18861
G1 X105.832 Y70.561 E19.19386
G1 X106.091 Y71.343 E19.22765
G1 X104.909 Y73.702 E19.33590
G1 X104.900 Y73.829 E19.34115
G1 X105.160 Y74.611 E19.37495
G1 X102.674 Y79.570 E19.60250
G1 X101.893 Y79.829 E19.63630
G1 X101.796 Y79.913 E19.64154
G1 X100.479 Y82.541 E19.76216
G1 X99.697 Y82.801 E19.79596
G1 X99.600 Y82.885 E19.80120
G1 X99.103 Y83.876 E19.84671
G1 X98.322 Y84.136 E19.88050
G1 X98.225 Y84.220 E19.88575
G1 X97.911 Y84.846 E19.91451
G1 X96.583 Y85.300 E19.97208
G1 X96.195 Y85.626 E19.99286
G1 X93.343 Y87.424 E20.13120
G1 X93.217 Y87.414 E20.13638
G1 X93.128 Y87.431 E20.14009
G1 X90.987 Y88.527 E20.23878
G1 X90.891 Y88.512 E20.24276
G1 X90.802 Y88.523 E20.24645
G1 X88.833 Y89.358 E20.33421
G1 X88.668 Y89.348 E20.34097
G1 X86.802 Y90.005 E20.42212
G1 X86.655 Y89.990 E20.42818
G1 X84.879 Y90.509 E20.50412
G1 X84.737 Y90.490 E20.50999
G1 X83.051 Y90.901 E20.58118
G1 X82.907 Y90.875 E20.58717
G1 X81.241 Y91.191 E20.65676
G1 X81.126 Y91.169 E20.66156
G1 X79.511 Y91.406 E20.72852
G1 X79.401 Y91.382 E20.73314
G1 X77.859 Y91.557 E20.79682
G1 X77.724 Y91.518 E20.80260
G1 X76.200 Y91.626 E20.86526
G1 X76.080 Y91.588 E20.87041
G1 X75.798 Y91.613 E20.88206
G1 X74.574 Y91.632 E20.93227
G1 X74.470 Y91.598 E20.93674
G1 X74.230 Y91.615 E20.94665
G1 X72.980 Y91.581 E20.99792
G1 X72.890 Y91.551 E21.00182
G1 X72.708 Y91.558 E21.00929
G1 X71.429 Y91.480 E21.06189
G1 X71.343 Y91.448 E21.06564
G1 X71.209 Y91.451 E21.07113
G1 X69.924 Y91.334 E21.12409
G1 X69.771 Y91.288 E21.13063
G1 X68.443 Y91.138 E21.18548
G1 X68.290 Y91.087 E21.19209
G1 X66.985 Y90.892 E21.24623
G1 X66.945 Y90.863 E21.24823
G1 X66.605 Y90.788 E21.26252
G1 X65.549 Y90.597 E21.30654
G1 X65.505 Y90.564 E21.30881
G1 X65.123 Y90.463 E21.32501
G1 X64.124 Y90.244 E21.36697
G1 X64.084 Y90.213 E21.36904
G1 X63.972 Y90.177 E21.37387
G1 X62.720 Y89.841 E21.42705
G1 X62.574 Y89.772 E21.43370
G1 X61.315 Y89.373 E21.48787
G1 X60.631 Y89.102 E21.51806
G1 X59.957 Y88.866 E21.54735
G1 X59.826 Y88.797 E21.55344
G1 X59.768 Y88.795 E21.55580
G1 X59.192 Y88.532 E21.58177
G1 X58.620 Y88.305 E21.60702
G1 X58.579 Y88.263 E21.60943
G1 X58.170 Y88.066 E21.62806
G1 X57.136 Y87.596 E21.67467
G1 X55.896 Y86.907 E21.73287
G1 X55.811 Y86.895 E21.73638
G1 X55.259 Y86.546 E21.76317
G1 X54.746 Y86.259 E21.78729
G1 X54.691 Y86.192 E21.79083
G1 X54.593 Y86.133 E21.79552
G1 X54.501 Y86.116 E21.79937
G1 X53.936 Y85.713 E21.82786
G1 X53.492 Y85.433 E21.84938
G1 X53.361 Y85.303 E21.85693
G1 X53.228 Y85.259 E21.86270
G1 X52.655 Y84.800 E21.89283
G1 X52.265 Y84.522 E21.91249
G1 X52.194 Y84.431 E21.91722
G1 X52.105 Y84.359 E21.92190
G1 X51.952 Y84.302 E21.92860
G1 X51.391 Y83.787 E21.95984
G1 X51.079 Y83.537 E21.97626
G1 X51.011 Y83.439 E21.98115
G1 X50.873 Y83.312 E21.98884
G1 X50.719 Y83.244 E21.99575
G1 X50.169 Y82.666 E22.02847
G1 X49.914 Y82.432 E22.04270
G1 X49.855 Y82.336 E22.04730
G1 X49.665 Y82.136 E22.05865
G1 X49.501 Y82.053 E22.06619
G1 X49.007 Y81.444 E22.09835
G1 X48.802 Y81.228 E22.11058
G1 X48.746 Y81.122 E22.11547
G1 X48.488 Y80.805 E22.13226
G1 X48.310 Y80.701 E22.14070
G1 X47.861 Y80.033 E22.17372
G1 X47.732 Y79.873 E22.18214
G1 X47.689 Y79.777 E22.18647
G1 X47.349 Y79.273 E22.21139
G1 X47.154 Y79.139 E22.22114
G1 X46.277 Y77.486 E22.29791
G1 X46.061 Y77.309 E22.30933
G1 X45.294 Y75.309 E22.39720
G1 X45.252 Y75.247 E22.40028
G1 X45.067 Y75.079 E22.41052
G1 X44.497 Y72.497 E22.51903
G1 X44.463 Y72.428 E22.52217
G1 X44.276 Y72.202 E22.53421
G1 X44.175 Y68.715 E22.67734
G1 X44.178 Y62.962 E22.91333
G1 X44.209 Y62.695 E22.92437
G1 X44.202 Y62.625 E22.92726
G1 X43.796 Y61.405 E22.98002
G1 X45.064 Y58.876 E23.09608
G1 X45.775 Y58.076 E23.14000
G1 X46.015 Y58.289 F7800.000
G1 X46.149 Y58.139 E23.14825 F1080.000
G1 X47.243 Y57.419 E23.20199
G1 X48.410 Y57.033 E23.25242
G1 X61.857 Y56.259 E23.80500
G1 X62.744 Y56.102 E23.84196
G1 X64.859 Y56.729 E23.93246
G1 X65.943 Y57.744 E23.99340
G1 X66.023 Y57.787 E23.99713
G1 X66.305 Y58.083 E24.01394
G1 X66.786 Y58.534 E24.04095
G1 X66.872 Y58.680 E24.04792
G1 X67.491 Y59.331 E24.08477
G1 X68.246 Y59.721 E24.11965
G1 X69.464 Y63.385 E24.27807
G1 X68.687 Y64.936 E24.34922
G1 X68.736 Y65.158 E24.35856
G1 X69.091 Y65.440 E24.37714
G1 X69.667 Y65.784 E24.40471
G1 X70.377 Y66.111 E24.43677
G1 X71.193 Y66.399 E24.47228
G1 X72.052 Y66.623 E24.50870
G1 X73.032 Y66.800 E24.54956
G1 X74.029 Y66.906 E24.59069
G1 X75.067 Y66.939 E24.63327
G1 X76.135 Y66.894 E24.67715
G1 X77.261 Y66.760 E24.72367
G1 X78.389 Y66.525 E24.77095
G1 X79.549 Y66.153 E24.82091
G1 X79.977 Y65.949 E24.84037
G1 X80.053 Y65.874 E24.84475
G1 X80.244 Y65.494 E24.86220
G1 X81.025 Y65.234 E24.89600
G1 X81.122 Y65.150 E24.90124
G1 X81.244 Y64.907 E24.91241
G1 X81.253 Y64.780 E24.91765
G1 X80.712 Y63.151 E24.98808
G1 X83.269 Y58.049 E25.22220
G1 X84.051 Y57.789 E25.25600
G1 X84.147 Y57.705 E25.26124
G1 X84.404 Y57.192 E25.28479
G1 X88.069 Y55.975 E25.44321
G1 X88.332 Y56.107 E25.45526
G1 X88.459 Y56.116 E25.46051 F1080.000
G1 X88.754 Y56.018 E25.47324
G1 X89.455 Y56.355 E25.50517
G1 X99.682 Y56.997 E25.92557
G1 X100.017 Y56.919 E25.93968
G1 X100.862 Y57.070 E25.97489
G1 X101.033 Y57.082 E25.98195
G1 X101.106 Y57.114 E25.98522
G1 X102.010 Y57.275 E26.02286
G1 X104.163 Y58.762 E26.13023
G1 X105.127 Y60.145 E26.19938
G1 X105.573 Y61.887 E26.27314
G1 X105.501 Y62.572 E26.30142
G1 X105.500 Y68.138 E26.52978
G1 X105.462 Y68.459 E26.54302
G1 X105.470 Y68.529 E26.54591
G1 X105.855 Y69.688 E26.59603
G1 X105.494 Y70.409 E26.62909
G1 X105.485 Y70.536 E26.63434
G1 X105.744 Y71.318 E26.66813
G1 X104.562 Y73.677 E26.77639
G1 X104.553 Y73.804 E26.78163
G1 X104.813 Y74.586 E26.81543
G1 X102.447 Y79.307 E27.03206
G1 X101.665 Y79.566 E27.06586
G1 X101.568 Y79.650 E27.07110
G1 X100.251 Y82.278 E27.19172
G1 X99.469 Y82.538 E27.22551
G1 X99.372 Y82.622 E27.23076
G1 X98.876 Y83.613 E27.27626
G1 X98.094 Y83.873 E27.31006
G1 X97.997 Y83.957 E27.31530
G1 X97.683 Y84.583 E27.34406
G1 X96.423 Y85.014 E27.39870
G1 X96.005 Y85.365 E27.42110
G1 X93.263 Y87.095 E27.55411
G1 X93.153 Y87.085 E27.55863
G1 X93.064 Y87.103 E27.56234
G1 X90.933 Y88.193 E27.66055
G1 X90.761 Y88.191 E27.66763
G1 X88.800 Y89.023 E27.75500
G1 X88.646 Y89.015 E27.76132
