; generated by Slic3r 1.1.7 on 2015-01-24 at 08:40:25

; perimeters extrusion width = 0.40mm
; infill extrusion width = 0.67mm
; solid infill extrusion width = 0.67mm
; top infill extrusion width = 0.67mm
; support material extrusion width = 0.40mm

G21 ; set units to millimeters
M107
M190 S50 ; wait for bed temperature to be reached
M104 S195 ; set temperature
G28 ; home all axes
G29 ;
G1 Z5 F5000 ; lift nozzle

M109 S195 ; wait for temperature to be reached
G90 ; use absolute coordinates
G92 E0
M82 ; use absolute distances for extrusion
G1 F1800.000 E-1.00000
G92 E0
G1 Z0.300 F7800.000
G1 X56.207 Y62.205 F7800.000
G1 E1.00000 F1800.000
G1 X58.497 Y57.637 E1.25489 F1080.000
G1 X59.821 Y56.781 E1.33355
G1 X56.207 Y63.990 E1.73586
G1 X56.207 Y65.775 E1.82494
G1 X60.906 Y56.402 E2.34805
G1 X61.883 Y56.238 E2.39748
G1 X56.207 Y67.561 E3.02937
G1 X56.207 Y69.346 E3.11845
G1 X62.806 Y56.180 E3.85320
G1 X63.701 Y56.180 E3.89784
G1 X56.207 Y71.132 E4.73223
G1 X56.207 Y72.917 E4.82131
G1 X64.596 Y56.180 E5.75533
G1 X65.491 Y56.180 E5.79997
G1 X56.207 Y74.702 E6.83364
G1 X56.207 Y76.488 E6.92271
G1 X66.386 Y56.180 E8.05601
G1 X67.281 Y56.180 E8.10065
G1 X56.224 Y78.240 E9.33173
G1 X56.495 Y79.484 E9.39526
G1 X68.175 Y56.180 E10.69578
G1 X69.070 Y56.180 E10.74042
G1 X56.916 Y80.430 E12.09370
G1 X57.419 Y81.212 E12.14010
G1 X69.965 Y56.180 E13.53704
G1 X70.860 Y56.180 E13.58169
G1 X57.973 Y81.892 E15.01655
G1 X58.590 Y82.447 E15.05794
G1 X71.755 Y56.180 E16.52379
G1 X72.650 Y56.180 E16.56843
G1 X59.260 Y82.895 E18.05931
G1 X59.957 Y83.290 E18.09927
G1 X73.545 Y56.180 E19.61218
G1 X74.439 Y56.180 E19.65682
G1 X60.726 Y83.540 E21.18368
G1 X61.529 Y83.725 E21.22475
G1 X75.334 Y56.180 E22.76193
G1 X76.229 Y56.180 E22.80658
G1 X62.379 Y83.815 E24.34874
G1 X63.271 Y83.820 E24.39325
G1 X77.124 Y56.180 E25.93572
G1 X77.996 Y56.225 E25.97930
G1 X64.166 Y83.820 E27.51927
G1 X65.061 Y83.820 E27.56391
G1 X78.844 Y56.320 E29.09857
G1 X79.832 Y56.132 F7800.000
G1 X65.955 Y83.820 E30.64369 F1080.000
G1 X66.850 Y83.820 E30.68834
G1 X80.449 Y56.688 E32.20248
G1 X81.066 Y57.243 E32.24387
G1 X67.745 Y83.820 E33.72703
G1 X68.640 Y83.820 E33.77167
G1 X81.682 Y57.798 E35.22385
G1 X82.285 Y58.381 E35.26567
G1 X69.535 Y83.820 E36.68534
G1 X70.430 Y83.820 E36.72998
G1 X82.815 Y59.109 E38.10898
G1 X83.269 Y59.987 E38.15831
G1 X71.325 Y83.820 E39.48830
G1 X72.219 Y83.820 E39.53295
G1 X83.627 Y61.060 E40.80312
G1 X83.793 Y62.515 E40.87618
G1 X73.114 Y83.820 E42.06514
G1 X74.009 Y83.820 E42.10979
G1 X83.793 Y64.300 E43.19912
G1 X83.793 Y66.085 E43.28819
G1 X74.904 Y83.820 E44.27789
G1 X75.799 Y83.820 E44.32253
G1 X83.793 Y67.871 E45.21259
G1 X83.793 Y69.656 E45.30166
G1 X76.694 Y83.820 E46.09208
G1 X77.590 Y83.818 E46.13678
G1 X83.793 Y71.442 E46.82744
G1 X83.793 Y73.227 E46.91652
G1 X78.534 Y83.719 E47.50201
G1 X79.479 Y83.619 E47.54939
G1 X83.793 Y75.013 E48.02970
G1 X83.793 Y76.798 E48.11878
G1 X80.592 Y83.183 E48.47512
G1 X82.239 Y81.683 F7800.000
G1 X83.637 Y78.894 E48.63074 F1080.000
M106 S255
M104 S190 ; set temperature
M140 S45 ; set bed temperature
G1 F1800.000 E47.63074
G92 E0
G1 Z0.500 F7800.000
G1 X80.744 Y82.482 F7800.000
G1 E1.00000 F1800.000
G1 X80.190 Y81.524 E1.03680 F908.013
G1 X76.611 Y81.524 E1.15586
G1 X75.528 Y83.400 E1.22791
G1 X77.547 Y83.400 E1.29509
G1 X80.012 Y83.141 E1.37751
G1 X80.744 Y82.482 E1.41027
G1 X71.228 Y83.400 F7800.000
G1 X70.145 Y81.524 E1.48233 F908.013
G1 X66.565 Y81.524 E1.60138
G1 X65.482 Y83.400 E1.67344
G1 X71.228 Y83.400 E1.86456
G1 X61.073 Y83.211 F7800.000
G1 X60.099 Y81.524 E1.92936 F908.013
G1 X58.192 Y81.524 E1.99276
G1 X59.029 Y82.277 E2.03022
G1 X60.098 Y82.894 E2.07128
G1 X61.073 Y83.211 E2.10536
G1 X61.542 Y78.224 F7800.000
G1 X60.099 Y75.724 E2.20137 F908.013
G1 X56.627 Y75.724 E2.31683
G1 X56.627 Y78.117 E2.39643
G1 X56.884 Y79.325 E2.43749
G1 X57.386 Y80.453 E2.47855
G1 X57.874 Y81.124 E2.50615
G1 X60.099 Y81.124 E2.58014
G1 X61.542 Y78.624 E2.67616
G1 X65.122 Y78.624 E2.79522
G1 X66.565 Y81.124 E2.89123
G1 X70.145 Y81.124 E3.01029
G1 X71.588 Y78.624 E3.10630
G1 X75.167 Y78.624 E3.22536
G1 X76.611 Y81.124 E3.32137
G1 X80.190 Y81.124 E3.44043
G1 X81.634 Y78.624 E3.53644
G1 X83.265 Y78.624 E3.59069
G1 X83.350 Y78.224 E3.60430
G1 X81.634 Y78.224 E3.66138
G1 X80.190 Y75.724 E3.75739
G1 X76.611 Y75.724 E3.87645
G1 X75.167 Y78.224 E3.97246
G1 X71.588 Y78.224 E4.09152
G1 X70.145 Y75.724 E4.18753
G1 X66.565 Y75.724 E4.30659
G1 X65.122 Y78.224 E4.40260
G1 X61.542 Y78.224 E4.52166
G1 X61.542 Y72.424 F7800.000
G1 X60.099 Y69.924 E4.61767 F908.013
G1 X56.627 Y69.924 E4.73313
G1 X56.627 Y75.324 E4.91273
G1 X60.099 Y75.324 E5.02818
G1 X61.542 Y72.824 E5.12420
G1 X65.122 Y72.824 E5.24325
G1 X66.565 Y75.324 E5.33927
G1 X70.145 Y75.324 E5.45833
G1 X71.588 Y72.824 E5.55434
G1 X75.167 Y72.824 E5.67340
G1 X76.611 Y75.324 E5.76941
G1 X80.190 Y75.324 E5.88847
G1 X81.634 Y72.824 E5.98448
G1 X83.373 Y72.824 E6.04231
G1 X83.373 Y72.424 E6.05562
G1 X81.634 Y72.424 E6.11345
G1 X80.190 Y69.924 E6.20947
G1 X76.611 Y69.924 E6.32852
G1 X75.167 Y72.424 E6.42454
G1 X71.588 Y72.424 E6.54359
G1 X70.145 Y69.924 E6.63961
G1 X66.565 Y69.924 E6.75866
G1 X65.122 Y72.424 E6.85468
G1 X61.542 Y72.424 E6.97373
G1 X61.542 Y66.624 F7800.000
G1 X60.099 Y64.124 E7.06975 F908.013
G1 X56.627 Y64.124 E7.18520
G1 X56.627 Y69.524 E7.36481
G1 X60.099 Y69.524 E7.48026
G1 X61.542 Y67.024 E7.57627
G1 X65.122 Y67.024 E7.69533
G1 X66.565 Y69.524 E7.79134
G1 X70.145 Y69.524 E7.91040
G1 X71.588 Y67.024 E8.00641
G1 X75.167 Y67.024 E8.12547
G1 X76.611 Y69.524 E8.22149
G1 X80.190 Y69.524 E8.34054
G1 X81.634 Y67.024 E8.43656
G1 X83.373 Y67.024 E8.49439
G1 X83.373 Y66.624 E8.50769
G1 X81.634 Y66.624 E8.56553
G1 X80.190 Y64.124 E8.66154
G1 X76.611 Y64.124 E8.78060
G1 X75.167 Y66.624 E8.87661
G1 X71.588 Y66.624 E8.99567
G1 X70.145 Y64.124 E9.09168
G1 X66.565 Y64.124 E9.21074
G1 X65.122 Y66.624 E9.30675
G1 X61.542 Y66.624 E9.42581
G1 X61.542 Y60.824 F7800.000
G1 X60.099 Y58.324 E9.52182 F908.013
G1 X58.362 Y58.324 E9.57959
G1 X58.112 Y58.549 E9.59078
G1 X57.386 Y59.548 E9.63184
G1 X56.884 Y60.675 E9.67290
G1 X56.627 Y61.883 E9.71396
G1 X56.627 Y63.724 E9.77519
G1 X60.099 Y63.724 E9.89064
G1 X61.542 Y61.224 E9.98665
G1 X65.122 Y61.224 E10.10571
G1 X66.565 Y63.724 E10.20173
G1 X70.145 Y63.724 E10.32078
G1 X71.588 Y61.224 E10.41680
G1 X75.167 Y61.224 E10.53585
G1 X76.611 Y63.724 E10.63187
G1 X80.190 Y63.724 E10.75092
G1 X81.634 Y61.224 E10.84694
G1 X83.233 Y61.224 E10.90011
G1 X83.148 Y60.824 E10.91371
G1 X81.634 Y60.824 E10.96406
G1 X80.190 Y58.324 E11.06007
G1 X76.611 Y58.324 E11.17913
G1 X75.167 Y60.824 E11.27515
G1 X71.588 Y60.824 E11.39420
G1 X70.145 Y58.324 E11.49022
G1 X66.565 Y58.324 E11.60927
G1 X65.122 Y60.824 E11.70529
G1 X61.542 Y60.824 E11.82434
G1 X60.099 Y57.924 F7800.000
G1 X60.680 Y56.916 E11.86303 F908.013
G1 X60.098 Y57.106 E11.88338
G1 X59.029 Y57.723 E11.92444
G1 X58.806 Y57.924 E11.93443
G1 X60.099 Y57.924 E11.97742
G1 X70.145 Y57.924 F7800.000
G1 X70.909 Y56.600 E12.02826 F908.013
G1 X65.801 Y56.600 E12.19816
G1 X66.565 Y57.924 E12.24900
G1 X70.145 Y57.924 E12.36805
G1 X77.724 Y56.619 F7800.000
G1 X77.547 Y56.600 E12.37395 F908.013
G1 X75.847 Y56.600 E12.43052
G1 X76.611 Y57.924 E12.48135
G1 X80.190 Y57.924 E12.60041
G1 X80.534 Y57.329 E12.62325
G1 X80.049 Y56.893 E12.64492
G1 X80.049 Y57.154 E12.65358
G1 X78.728 Y56.724 E12.69981
G1 X77.724 Y56.619 E12.73339
G1 X81.208 Y57.398 F7800.000
G1 X79.649 Y55.995 E12.80313 F908.013
G1 X79.649 Y56.603 E12.82336
G1 X78.811 Y56.331 E12.85268
G1 X77.568 Y56.200 E12.89425
G1 X62.432 Y56.200 E13.39769
G1 X61.189 Y56.331 E13.43926
G1 X59.935 Y56.738 E13.48312
G1 X58.793 Y57.397 E13.52698
G1 X57.813 Y58.280 E13.57083
G1 X57.038 Y59.346 E13.61468
G1 X56.502 Y60.551 E13.65854
G1 X56.227 Y61.841 E13.70240
G1 X56.227 Y78.159 E14.24515
G1 X56.502 Y79.449 E14.28901
G1 X57.038 Y80.654 E14.33286
G1 X57.813 Y81.720 E14.37672
G1 X58.793 Y82.603 E14.42057
G1 X59.935 Y83.262 E14.46443
G1 X61.189 Y83.669 E14.50829
G1 X62.432 Y83.800 E14.54986
G1 X77.568 Y83.800 E15.05330
G1 X79.649 Y83.581 E15.12290
G1 X79.649 Y84.005 E15.13701
G1 X82.187 Y81.720 E15.25059
G1 X82.962 Y80.654 E15.29444
G1 X83.252 Y80.004 E15.31811
G1 X83.498 Y79.449 E15.33830
G1 X83.773 Y78.159 E15.38216
G1 X83.773 Y61.841 E15.92491
G1 X83.498 Y60.551 E15.96877
G1 X82.962 Y59.346 E16.01262
G1 X82.187 Y58.280 E16.05648
G1 X81.208 Y57.398 E16.10032
G1 F1800.000 E15.10032
G92 E0
G1 Z0.700 F7800.000
G1 E1.00000 F1800.000
G1 X82.187 Y58.280 E1.04384 F908.013
G1 X82.962 Y59.346 E1.08769
G1 X83.498 Y60.551 E1.13155
G1 X83.773 Y61.841 E1.17541
G1 X83.773 Y78.159 E1.71816
G1 X83.498 Y79.449 E1.76202
G1 X83.252 Y80.004 E1.78221
G1 X82.962 Y80.654 E1.80587
G1 X82.187 Y81.720 E1.84973
G1 X79.649 Y84.005 E1.96331
G1 X79.649 Y83.581 E1.97742
G1 X77.568 Y83.800 E2.04702
G1 X62.432 Y83.800 E2.55046
G1 X61.189 Y83.669 E2.59203
G1 X59.935 Y83.262 E2.63589
G1 X58.793 Y82.603 E2.67975
G1 X57.813 Y81.720 E2.72360
G1 X57.038 Y80.654 E2.76745
G1 X56.502 Y79.449 E2.81131
G1 X56.227 Y78.159 E2.85517
G1 X56.227 Y61.841 E3.39792
G1 X56.502 Y60.551 E3.44178
G1 X57.038 Y59.346 E3.48563
G1 X57.813 Y58.280 E3.52949
G1 X58.793 Y57.397 E3.57334
G1 X59.935 Y56.738 E3.61720
G1 X61.189 Y56.331 E3.66106
G1 X62.432 Y56.200 E3.70263
G1 X77.568 Y56.200 E4.20607
G1 X78.811 Y56.331 E4.24764
G1 X79.649 Y56.603 E4.27695
G1 X79.649 Y55.995 E4.29719
G1 X81.208 Y57.398 E4.36693
G1 X77.724 Y56.619 F7800.000
G1 X77.547 Y56.600 E4.37283 F908.013
G1 X75.847 Y56.600 E4.42939
G1 X76.611 Y57.924 E4.48023
G1 X80.190 Y57.924 E4.59929
G1 X80.534 Y57.329 E4.62212
G1 X80.049 Y56.893 E4.64380
G1 X80.049 Y57.154 E4.65246
G1 X78.728 Y56.724 E4.69868
G1 X77.724 Y56.619 E4.73226
G1 X70.145 Y57.924 F7800.000
G1 X70.909 Y56.600 E4.78310 F908.013
G1 X65.801 Y56.600 E4.95300
G1 X66.565 Y57.924 E5.00384
G1 X70.145 Y57.924 E5.12290
G1 X61.542 Y60.824 F7800.000
G1 X60.099 Y58.324 E5.21891 F908.013
G1 X58.362 Y58.324 E5.27668
G1 X58.112 Y58.549 E5.28787
G1 X57.386 Y59.548 E5.32892
G1 X56.884 Y60.675 E5.36998
G1 X56.627 Y61.883 E5.41104
G1 X56.627 Y63.724 E5.47227
G1 X60.099 Y63.724 E5.58773
G1 X61.542 Y61.224 E5.68374
G1 X65.122 Y61.224 E5.80280
G1 X66.565 Y63.724 E5.89881
G1 X70.145 Y63.724 E6.01787
G1 X71.588 Y61.224 E6.11388
G1 X75.167 Y61.224 E6.23294
G1 X76.611 Y63.724 E6.32895
G1 X80.190 Y63.724 E6.44801
G1 X81.634 Y61.224 E6.54402
G1 X83.233 Y61.224 E6.59720
G1 X83.148 Y60.824 E6.61080
G1 X81.634 Y60.824 E6.66115
G1 X80.190 Y58.324 E6.75716
G1 X76.611 Y58.324 E6.87622
G1 X75.167 Y60.824 E6.97223
G1 X71.588 Y60.824 E7.09129
G1 X70.145 Y58.324 E7.18730
G1 X66.565 Y58.324 E7.30636
G1 X65.122 Y60.824 E7.40237
G1 X61.542 Y60.824 E7.52143
G1 X60.099 Y57.924 F7800.000
G1 X60.680 Y56.916 E7.56011 F908.013
G1 X60.098 Y57.106 E7.58047
G1 X59.029 Y57.723 E7.62153
G1 X58.806 Y57.924 E7.63151
G1 X60.099 Y57.924 E7.67451
G1 X61.542 Y66.624 F7800.000
G1 X60.099 Y64.124 E7.77052 F908.013
G1 X56.627 Y64.124 E7.88598
G1 X56.627 Y69.524 E8.06558
G1 X60.099 Y69.524 E8.18103
G1 X61.542 Y67.024 E8.27705
G1 X65.122 Y67.024 E8.39610
G1 X66.565 Y69.524 E8.49212
G1 X70.145 Y69.524 E8.61118
G1 X71.588 Y67.024 E8.70719
G1 X75.167 Y67.024 E8.82625
G1 X76.611 Y69.524 E8.92226
G1 X80.190 Y69.524 E9.04132
G1 X81.634 Y67.024 E9.13733
G1 X83.373 Y67.024 E9.19516
G1 X83.373 Y66.624 E9.20847
G1 X81.634 Y66.624 E9.26630
G1 X80.190 Y64.124 E9.36231
G1 X76.611 Y64.124 E9.48137
G1 X75.167 Y66.624 E9.57739
G1 X71.588 Y66.624 E9.69644
G1 X70.145 Y64.124 E9.79246
G1 X66.565 Y64.124 E9.91151
G1 X65.122 Y66.624 E10.00753
G1 X61.542 Y66.624 E10.12658
G1 X61.542 Y72.424 F7800.000
G1 X60.099 Y69.924 E10.22260 F908.013
G1 X56.627 Y69.924 E10.33805
G1 X56.627 Y75.324 E10.51766
G1 X60.099 Y75.324 E10.63311
G1 X61.542 Y72.824 E10.72912
G1 X65.122 Y72.824 E10.84818
G1 X66.565 Y75.324 E10.94419
G1 X70.145 Y75.324 E11.06325
G1 X71.588 Y72.824 E11.15926
G1 X75.167 Y72.824 E11.27832
G1 X76.611 Y75.324 E11.37434
G1 X80.190 Y75.324 E11.49339
G1 X81.634 Y72.824 E11.58941
G1 X83.373 Y72.824 E11.64724
G1 X83.373 Y72.424 E11.66054
G1 X81.634 Y72.424 E11.71838
G1 X80.190 Y69.924 E11.81439
G1 X76.611 Y69.924 E11.93345
G1 X75.167 Y72.424 E12.02946
G1 X71.588 Y72.424 E12.14852
G1 X70.145 Y69.924 E12.24453
G1 X66.565 Y69.924 E12.36359
G1 X65.122 Y72.424 E12.45960
G1 X61.542 Y72.424 E12.57866
G1 X61.542 Y78.224 F7800.000
G1 X60.099 Y75.724 E12.67467 F908.013
G1 X56.627 Y75.724 E12.79013
G1 X56.627 Y78.117 E12.86973
G1 X56.884 Y79.325 E12.91079
G1 X57.386 Y80.453 E12.95185
G1 X57.874 Y81.124 E12.97945
G1 X60.099 Y81.124 E13.05344
G1 X61.542 Y78.624 E13.14946
G1 X65.122 Y78.624 E13.26852
G1 X66.565 Y81.124 E13.36453
G1 X70.145 Y81.124 E13.48359
G1 X71.588 Y78.624 E13.57960
G1 X75.167 Y78.624 E13.69866
G1 X76.611 Y81.124 E13.79467
G1 X80.190 Y81.124 E13.91373
G1 X81.634 Y78.624 E14.00974
G1 X83.265 Y78.624 E14.06399
G1 X83.350 Y78.224 E14.07760
G1 X81.634 Y78.224 E14.13468
G1 X80.190 Y75.724 E14.23069
G1 X76.611 Y75.724 E14.34975
G1 X75.167 Y78.224 E14.44576
G1 X71.588 Y78.224 E14.56482
G1 X70.145 Y75.724 E14.66083
G1 X66.565 Y75.724 E14.77989
G1 X65.122 Y78.224 E14.87590
G1 X61.542 Y78.224 E14.99496
G1 X61.073 Y83.211 F7800.000
G1 X60.099 Y81.524 E15.05976 F908.013
G1 X58.192 Y81.524 E15.12317
G1 X59.029 Y82.277 E15.16062
G1 X60.098 Y82.894 E15.20168
G1 X61.073 Y83.211 E15.23576
G1 X71.228 Y83.400 F7800.000
G1 X70.145 Y81.524 E15.30782 F908.013
G1 X66.565 Y81.524 E15.42688
G1 X65.482 Y83.400 E15.49894
G1 X71.228 Y83.400 E15.69005
G1 X80.744 Y82.482 F7800.000
G1 X80.190 Y81.524 E15.72685 F908.013
G1 X76.611 Y81.524 E15.84591
G1 X75.528 Y83.400 E15.91797
G1 X77.547 Y83.400 E15.98514
G1 X80.012 Y83.141 E16.06756
G1 X80.744 Y82.482 E16.10032
G1 F1800.000 E15.10032
G92 E0
G1 Z0.900 F7800.000
G1 X81.193 Y82.460 F7800.000
G1 E1.00000 F1800.000
G1 X83.657 Y77.543 E1.29099 F2334.020
G1 X83.657 Y76.123 E1.36612
G1 X79.896 Y83.628 E1.81028
G1 X79.244 Y83.508 E1.84532
G1 X83.657 Y74.703 E2.36639
G1 X83.657 Y73.283 E2.44152
G1 X78.493 Y83.587 E3.05131
G1 X77.742 Y83.666 E3.09128
G1 X83.657 Y71.863 E3.78977
G1 X83.657 Y70.443 E3.86491
G1 X77.020 Y83.684 E4.64857
G1 X76.309 Y83.684 E4.68622
G1 X83.657 Y69.023 E5.55393
G1 X83.657 Y67.603 E5.62906
G1 X75.597 Y83.684 E6.58081
G1 X74.885 Y83.684 E6.61847
G1 X83.657 Y66.183 E7.65426
G1 X83.657 Y64.763 E7.72939
G1 X74.173 Y83.684 E8.84923
G1 X73.462 Y83.684 E8.88688
G1 X83.657 Y63.343 E10.09076
G1 X83.657 Y61.923 E10.16590
G1 X72.750 Y83.684 E11.45382
G1 X72.038 Y83.684 E11.49148
G1 X83.456 Y60.905 E12.83964
G1 X83.160 Y60.074 E12.88627
G1 X71.326 Y83.684 E14.28357
G1 X70.615 Y83.684 E14.32122
G1 X82.816 Y59.341 E15.76192
G1 X82.394 Y58.762 E15.79983
G1 X69.903 Y83.684 E17.27483
G1 X69.191 Y83.684 E17.31248
G1 X81.952 Y58.224 E18.81931
G1 X81.462 Y57.782 E18.85423
G1 X68.479 Y83.684 E20.38720
G1 X67.768 Y83.684 E20.42486
G1 X80.971 Y57.340 E21.98396
G1 X80.481 Y56.899 E22.01887
G1 X67.056 Y83.684 E23.60411
G1 X66.344 Y83.684 E23.64177
G1 X79.991 Y56.457 E25.25314
G1 X79.216 Y56.583 E25.29469
G1 X65.632 Y83.684 E26.89859
G1 X64.921 Y83.684 E26.93625
G1 X78.584 Y56.423 E28.54965
G1 X77.908 Y56.352 E28.58562
G1 X64.209 Y83.684 E30.20322
G1 X63.497 Y83.684 E30.24088
G1 X77.215 Y56.316 E31.86064
G1 X76.503 Y56.316 E31.89830
G1 X62.785 Y83.684 E33.51805
G1 X62.092 Y83.648 E33.55480
G1 X75.791 Y56.316 E35.17240
G1 X75.079 Y56.316 E35.21006
G1 X61.416 Y83.577 E36.82346
G1 X60.784 Y83.417 E36.85792
G1 X74.368 Y56.316 E38.46183
G1 X73.656 Y56.316 E38.49948
G1 X60.172 Y83.218 E40.09162
G1 X59.602 Y82.936 E40.12528
G1 X72.944 Y56.316 E41.70076
G1 X72.232 Y56.316 E41.73842
G1 X59.050 Y82.618 E43.29503
G1 X58.538 Y82.218 E43.32937
G1 X71.521 Y56.316 E44.86234
G1 X70.809 Y56.316 E44.90000
G1 X58.048 Y81.776 E46.40683
G1 X57.606 Y81.239 E46.44367
G1 X70.097 Y56.316 E47.91867
G1 X69.385 Y56.316 E47.95633
G1 X57.184 Y80.659 E49.39702
G1 X56.840 Y79.926 E49.43988
G1 X68.674 Y56.316 E50.83717
G1 X67.962 Y56.316 E50.87483
G1 X56.544 Y79.095 E52.22300
G1 X56.343 Y78.077 E52.27790
G1 X67.250 Y56.316 E53.56583
G1 X66.538 Y56.316 E53.60348
