; generated by Slic3r 1.1.7 on 2014-12-14 at 03:35:44

; perimeters extrusion width = 0.40mm
; infill extrusion width = 0.67mm
; solid infill extrusion width = 0.67mm
; top infill extrusion width = 0.67mm

G21 ; set units to millimeters
M107
M104 S200 ; set temperature
G28; Home all axes
G29; Calibrate bed leveling (z-axis)
G91; Relative positioning
G1 X-160 Y160 Z15 F5000; Lift nozzle, return to origin
G90; Absolute positioning again
;G28 X ; Go to corner x
;G28 Y ; Go to corner y

M109 S200 ; wait for temperature to be reached
G90 ; use absolute coordinates
G92 E0
M82 ; use absolute distances for extrusion
G1 F1800.000 E-1.00000
G1 Z0.500 F7800.000
G92 E0
G1 X58.976 Y66.395 F7800.000
G1 Z0.200 F7800.000
G1 E1.00000 F1800.000
G1 X59.916 Y65.679 E1.02159 F900.000
G1 X60.333 Y65.408 E1.03068
G1 X60.925 Y65.064 E1.04319
G1 X61.993 Y64.558 E1.06478
G1 X62.458 Y64.380 E1.07387
G1 X63.108 Y64.167 E1.08638
G1 X64.258 Y63.894 E1.10796
G1 X65.300 Y63.807 E1.12707
G1 X85.677 Y63.884 E1.49939
G1 X86.381 Y64.030 E1.51254 F900.000
G1 X87.514 Y64.369 E1.53413
G1 X87.973 Y64.545 E1.54312
G1 X88.604 Y64.824 E1.55573
G1 X89.641 Y65.391 E1.57732
G1 X90.613 Y66.063 E1.59890
G1 X90.977 Y66.358 E1.60747
G1 X91.509 Y66.833 E1.62050
G1 X92.320 Y67.692 E1.64209
G1 X92.917 Y68.551 E1.66120
G1 X94.334 Y71.169 E1.71560
G1 X94.549 Y71.824 E1.72818
G1 X94.821 Y72.973 E1.74977
G1 X94.972 Y74.145 E1.77136
G1 X95.000 Y75.327 E1.79295
G1 X94.974 Y75.818 E1.80195
G1 X94.904 Y76.504 E1.81455
G1 X94.686 Y77.666 E1.83614
G1 X94.558 Y78.141 E1.84513
G1 X94.347 Y78.798 E1.85774
G1 X93.901 Y79.744 E1.87684
G1 X93.030 Y81.252 E1.90867
G1 X92.343 Y82.279 E1.93125
G1 X91.883 Y82.793 E1.94385
G1 X91.024 Y83.604 E1.96544
G1 X90.084 Y84.321 E1.98704
G1 X89.671 Y84.589 E1.99603
G1 X89.075 Y84.936 E2.00863
G1 X88.007 Y85.442 E2.03022
G1 X87.547 Y85.618 E2.03922
G1 X86.892 Y85.833 E2.05182
G1 X85.742 Y86.106 E2.07341
G1 X84.700 Y86.193 E2.09251
G1 X64.324 Y86.116 E2.46482
G1 X63.619 Y85.970 E2.47798
G1 X63.138 Y85.841 E2.48707
G1 X62.486 Y85.631 E2.49958
G1 X62.022 Y85.453 E2.50867
G1 X61.396 Y85.176 E2.52118
G1 X60.953 Y84.950 E2.53027
G1 X60.359 Y84.609 E2.54277
G1 X59.387 Y83.937 E2.56436
G1 X59.000 Y83.624 E2.57347
G1 X58.491 Y83.167 E2.58596
G1 X57.680 Y82.308 E2.60755
G1 X57.083 Y81.449 E2.62666
G1 X56.210 Y79.936 E2.65858
G1 X55.677 Y78.860 E2.68052
G1 X55.451 Y78.176 E2.69367
G1 X55.179 Y77.027 E2.71526
G1 X55.028 Y75.855 E2.73685
G1 X55.001 Y75.358 E2.74595
G1 X55.000 Y74.673 E2.75845
G1 X55.096 Y73.496 E2.78004
G1 X55.314 Y72.334 E2.80163
G1 X55.444 Y71.852 E2.81076
G1 X55.653 Y71.202 E2.82323
G1 X56.099 Y70.256 E2.84233
G1 X56.818 Y69.011 E2.86860
G1 X57.638 Y67.744 E2.89618
G1 X58.117 Y67.207 E2.90933
G1 X58.932 Y66.436 E2.92983
G1 F1800.000 E1.92983
G1 Z0.500 F7800.000
G92 E0
G1 X86.865 Y78.498 F7800.000
G1 Z0.200 F7800.000
G1 E1.00000 F1800.000
G1 X86.482 Y78.808 E1.00900 F450.000
G1 X86.069 Y79.076 E1.01800
G1 X85.630 Y79.300 E1.02700
G1 X85.170 Y79.476 E1.03601
G1 X84.673 Y79.607 E1.04539
G1 X82.737 Y79.604 E1.08077
G1 X82.261 Y79.476 E1.08977
G1 X81.801 Y79.300 E1.09877
G1 X81.379 Y79.084 E1.10744
G1 X80.949 Y78.808 E1.11677
G1 X80.566 Y78.498 E1.12577
G1 X80.205 Y78.133 E1.13516
G1 X79.247 Y76.474 E1.17015
G1 X79.112 Y75.979 E1.17954
G1 X79.035 Y75.492 E1.18854
G1 X79.009 Y75.000 E1.19754
G1 X79.035 Y74.508 E1.20654
G1 X79.112 Y74.021 E1.21555
G1 X79.240 Y73.546 E1.22455
G1 X79.682 Y72.773 E1.24081
G1 X80.205 Y71.867 E1.25992
G1 X80.566 Y71.502 E1.26931
G1 X80.949 Y71.192 E1.27831
G1 X81.362 Y70.924 E1.28731
G1 X81.801 Y70.700 E1.29631
G1 X82.261 Y70.524 E1.30532
G1 X82.758 Y70.393 E1.31470
G1 X84.694 Y70.396 E1.35008 F450.000
G1 X85.170 Y70.524 E1.35908
G1 X85.613 Y70.694 E1.36775
G1 X86.069 Y70.924 E1.37708
G1 X86.482 Y71.192 E1.38608
G1 X86.785 Y71.437 E1.39320
G1 X87.213 Y71.851 E1.40408
G1 X88.184 Y73.526 E1.43945
G1 X88.320 Y74.021 E1.44884
G1 X88.397 Y74.508 E1.45784
G1 X88.422 Y75.000 E1.46684
G1 X88.397 Y75.492 E1.47584
G1 X88.320 Y75.979 E1.48485
G1 X88.184 Y76.474 E1.49423
G1 X87.227 Y78.133 E1.52922
G1 X86.908 Y78.455 E1.53752
G1 X87.037 Y78.669 F7800.000
G1 X86.625 Y79.005 E1.54721 F315.000
G1 X86.191 Y79.287 E1.55668
G1 X85.729 Y79.522 E1.56615
G1 X85.245 Y79.708 E1.57561
G1 X84.692 Y79.850 E1.58604
G1 X82.687 Y79.842 E1.62269
G1 X82.186 Y79.708 E1.63216
G1 X81.702 Y79.522 E1.64163
G1 X81.344 Y79.339 E1.64898
G1 X80.806 Y79.005 E1.66055
G1 X80.404 Y78.678 E1.67002
G1 X80.004 Y78.271 E1.68045
G1 X79.008 Y76.530 E1.71710
G1 X78.874 Y76.029 E1.72657
G1 X78.793 Y75.517 E1.73603
G1 X78.766 Y75.000 E1.74550
G1 X78.793 Y74.483 E1.75496
G1 X78.874 Y73.971 E1.76443
G1 X79.027 Y73.421 E1.77486
G1 X80.037 Y71.688 E1.81151
G1 X80.478 Y71.262 E1.82271
G1 X80.806 Y70.995 E1.83044
G1 X81.241 Y70.713 E1.83990
G1 X81.702 Y70.478 E1.84937
G1 X82.186 Y70.292 E1.85884
G1 X82.739 Y70.150 E1.86927
G1 X84.714 Y70.153 E1.90536
G1 X85.245 Y70.292 E1.91539 F315.000
G1 X85.729 Y70.478 E1.92486
G1 X86.191 Y70.713 E1.93432
G1 X86.625 Y70.995 E1.94379
G1 X87.028 Y71.322 E1.95325
G1 X87.428 Y71.729 E1.96369
G1 X88.423 Y73.470 E2.00034
G1 X88.557 Y73.971 E2.00980
G1 X88.639 Y74.483 E2.01927
G1 X88.666 Y75.000 E2.02874
G1 X88.640 Y75.486 E2.03763
G1 X88.557 Y76.029 E2.04767
G1 X88.404 Y76.579 E2.05810
G1 X87.428 Y78.271 E2.09379
G1 X87.079 Y78.627 E2.10289
G1 X81.774 Y79.111 F7800.000
G1 X79.823 Y77.159 E2.15332 F900.000
G1 X79.381 Y76.371 F7800.000
G1 X82.347 Y79.338 E2.22997 F900.000
G1 X82.803 Y79.448 E2.23854
G1 X79.258 Y75.903 E2.33014
G1 X79.193 Y75.492 E2.33774
G1 X83.149 Y79.448 E2.43995
G1 X83.495 Y79.448 E2.44627
G1 X79.172 Y75.125 E2.55797
G1 X79.177 Y74.784 E2.56420
G1 X83.840 Y79.448 E2.68471
G1 X84.186 Y79.448 E2.69103
G1 X79.200 Y74.462 E2.81986
G1 X79.248 Y74.163 E2.82538
G1 X84.532 Y79.448 E2.96193
G1 X84.835 Y79.405 E2.96752
G1 X79.312 Y73.882 E3.11023
G1 X79.386 Y73.610 E3.11538
G1 X85.108 Y79.331 E3.26322
G1 X85.359 Y79.237 E3.26812
G1 X79.508 Y73.386 E3.41930
G1 X79.635 Y73.167 E3.42393
G1 X85.605 Y79.137 E3.57820
G1 X85.833 Y79.020 E3.58289
G1 X79.761 Y72.948 E3.73979
G1 X79.888 Y72.728 E3.74441
G1 X86.057 Y78.898 E3.90383
G1 X86.267 Y78.761 E3.90840
G1 X80.014 Y72.509 E4.06996
G1 X80.141 Y72.290 E4.07458
G1 X86.469 Y78.618 E4.23809
G1 X86.655 Y78.458 E4.24257
G1 X80.268 Y72.071 E4.40763
G1 X80.430 Y71.887 E4.41211
G1 X86.828 Y78.285 E4.57743
G1 X87.001 Y78.113 E4.58189
G1 X80.603 Y71.715 E4.74721
G1 X80.776 Y71.542 E4.75168
G1 X87.164 Y77.929 E4.91674
G1 X87.291 Y77.710 E4.92136
G1 X80.963 Y71.382 E5.08487
G1 X81.165 Y71.239 E5.08941
G1 X87.417 Y77.491 E5.25097
G1 X87.544 Y77.272 E5.25559
G1 X81.374 Y71.102 E5.41500
G1 X81.597 Y70.979 E5.41966
G1 X87.670 Y77.052 E5.57658
G1 X87.797 Y76.833 E5.58120
G1 X81.826 Y70.863 E5.73548
G1 X82.073 Y70.763 E5.74033
G1 X87.923 Y76.614 E5.89151
G1 X88.046 Y76.390 E5.89617
G1 X82.324 Y70.669 E6.04401
G1 X82.597 Y70.596 E6.04917
G1 X88.120 Y76.118 E6.19188
G1 X88.184 Y75.837 E6.19716
G1 X82.899 Y70.552 E6.33371
G1 X83.244 Y70.551 E6.34002
G1 X88.231 Y75.538 E6.46888
G1 X88.255 Y75.216 E6.47478
G1 X83.590 Y70.551 E6.59533
G1 X83.935 Y70.550 E6.60164
G1 X88.260 Y74.875 E6.71338
G1 X88.239 Y74.508 E6.72010
G1 X84.280 Y70.550 E6.82238
G1 X84.625 Y70.549 E6.82869
G1 X88.174 Y74.097 E6.92037
G1 X88.051 Y73.629 E6.92923
G1 X85.084 Y70.662 E7.00587
G1 X85.660 Y70.893 F7800.000
G1 X87.609 Y72.841 E7.05622 F900.000
G1 X87.136 Y72.023 F7800.000
G1 X86.612 Y71.498 E7.06978 F900.000
G1 X80.295 Y77.977 F7800.000
G1 X80.820 Y78.502 E7.08334 F900.000
G1 F1800.000 E6.08334
G1 Z0.500 F7800.000
G92 E0
G1 X69.507 Y75.685 F7800.000
G1 Z0.200 F7800.000
G1 E1.00000 F1800.000
G1 X69.417 Y76.018 E1.00630 F450.000
G1 X69.324 Y76.262 E1.01108
G1 X69.137 Y76.647 E1.01890
G1 X68.949 Y76.936 E1.02520
G1 X68.796 Y77.126 E1.02965
G1 X68.489 Y77.448 E1.03779
G1 X68.221 Y77.665 E1.04409
G1 X67.931 Y77.853 E1.05039
G1 X67.697 Y77.972 E1.05519
G1 X67.302 Y78.133 E1.06298
G1 X66.969 Y78.222 E1.06928
G1 X66.629 Y78.276 E1.07558
G1 X66.284 Y78.294 E1.08188
G1 X66.041 Y78.282 E1.08634
G1 X65.599 Y78.222 E1.09448
G1 X65.266 Y78.133 E1.10078
G1 X64.944 Y78.010 E1.10708
G1 X64.390 Y77.710 E1.11859
G1 X64.098 Y77.518 E1.12497
G1 X63.826 Y77.295 E1.13140
G1 X63.576 Y77.043 E1.13790
G1 X63.352 Y76.763 E1.14444
G1 X63.158 Y76.458 E1.15104
G1 X62.995 Y76.132 E1.15770
G1 X62.866 Y75.788 E1.16441
G1 X62.774 Y75.430 E1.17118
G1 X62.719 Y75.061 E1.17799
G1 X62.704 Y74.685 E1.18487
G1 X62.728 Y74.306 E1.19180
G1 X62.793 Y73.929 E1.19879
G1 X62.933 Y73.508 E1.20690
G1 X63.107 Y73.166 E1.21392
G1 X63.316 Y72.844 E1.22093
G1 X63.558 Y72.545 E1.22795
G1 X63.829 Y72.274 E1.23496
G1 X64.187 Y72.010 E1.24308
G1 X64.525 Y71.832 E1.25007
G1 X64.878 Y71.692 E1.25699
G1 X65.240 Y71.591 E1.26387
G1 X65.608 Y71.529 E1.27069
G1 X66.075 Y71.512 E1.27923
G1 X66.345 Y71.522 E1.28416 F450.000
G1 X66.705 Y71.576 E1.29081
G1 X67.055 Y71.667 E1.29741
G1 X67.390 Y71.793 E1.30396
G1 X67.707 Y71.952 E1.31045
G1 X68.004 Y72.143 E1.31689
G1 X68.489 Y72.552 E1.32848
G1 X68.732 Y72.796 E1.33478
G1 X68.949 Y73.064 E1.34108
G1 X69.137 Y73.353 E1.34738
G1 X69.294 Y73.660 E1.35368
G1 X69.417 Y73.982 E1.35998
G1 X69.507 Y74.315 E1.36628
G1 X69.561 Y74.656 E1.37258
G1 X69.579 Y75.000 E1.37888
G1 X69.561 Y75.344 E1.38518
G1 X69.516 Y75.626 E1.39038
G1 X69.269 Y75.634 F7800.000
G1 X69.186 Y75.943 E1.39622 F450.000
G1 X69.097 Y76.175 E1.40076
G1 X68.927 Y76.526 E1.40788
G1 X68.753 Y76.793 E1.41372
G1 X68.607 Y76.973 E1.41794
G1 X68.326 Y77.267 E1.42538
G1 X68.078 Y77.468 E1.43122
G1 X67.810 Y77.642 E1.43705
G1 X67.587 Y77.756 E1.44162
G1 X67.227 Y77.902 E1.44872
G1 X66.919 Y77.984 E1.45455
G1 X66.603 Y78.034 E1.46039
G1 X66.284 Y78.051 E1.46622
G1 X66.053 Y78.039 E1.47044
G1 X65.650 Y77.984 E1.47789
G1 X65.341 Y77.902 E1.48372
G1 X65.043 Y77.787 E1.48956
G1 X64.513 Y77.499 E1.50059
G1 X64.242 Y77.321 E1.50651
G1 X63.989 Y77.115 E1.51248
G1 X63.757 Y76.880 E1.51850
G1 X63.549 Y76.620 E1.52459
G1 X63.369 Y76.337 E1.53072
G1 X63.217 Y76.034 E1.53691
G1 X63.098 Y75.714 E1.54315
G1 X63.012 Y75.380 E1.54946
G1 X62.961 Y75.035 E1.55581
G1 X62.947 Y74.685 E1.56222
G1 X62.970 Y74.332 E1.56869
G1 X63.031 Y73.980 E1.57521
G1 X63.155 Y73.607 E1.58240
G1 X63.318 Y73.287 E1.58895
G1 X63.513 Y72.987 E1.59550
G1 X63.739 Y72.708 E1.60205
G1 X63.992 Y72.455 E1.60860
G1 X64.309 Y72.221 E1.61579
G1 X64.625 Y72.055 E1.62231
G1 X64.953 Y71.924 E1.62877
G1 X65.291 Y71.829 E1.63518
G1 X65.634 Y71.771 E1.64154
G1 X65.927 Y71.753 E1.64689
G1 X66.320 Y71.764 E1.65408 F450.000
G1 X66.655 Y71.814 E1.66027
G1 X66.980 Y71.898 E1.66640
G1 X67.291 Y72.016 E1.67249
G1 X67.586 Y72.163 E1.67851
G1 X67.861 Y72.340 E1.68448
G1 X68.326 Y72.733 E1.69560
G1 X68.552 Y72.958 E1.70143
G1 X68.753 Y73.207 E1.70727
G1 X68.927 Y73.474 E1.71310
G1 X69.072 Y73.759 E1.71894
G1 X69.186 Y74.057 E1.72477
G1 X69.269 Y74.366 E1.73061
G1 X69.319 Y74.681 E1.73644
G1 X69.335 Y75.000 E1.74228
G1 X69.319 Y75.319 E1.74812
G1 X69.278 Y75.575 E1.75285
G1 X69.031 Y75.584 F7800.000
G1 X68.955 Y75.868 E1.75822 F315.000
G1 X68.870 Y76.088 E1.76254
G1 X68.716 Y76.404 E1.76896
G1 X68.556 Y76.650 E1.77433
G1 X68.418 Y76.820 E1.77832
G1 X68.163 Y77.087 E1.78506
G1 X67.935 Y77.272 E1.79043
G1 X67.688 Y77.432 E1.79580
G1 X67.494 Y77.531 E1.79979
G1 X67.152 Y77.670 E1.80654
G1 X66.868 Y77.747 E1.81191
G1 X66.578 Y77.792 E1.81728
G1 X66.284 Y77.808 E1.82265
G1 X66.015 Y77.794 E1.82757
G1 X65.700 Y77.747 E1.83338
G1 X65.417 Y77.670 E1.83875
G1 X65.142 Y77.565 E1.84412
G1 X64.635 Y77.288 E1.85469
G1 X64.385 Y77.125 E1.86014
G1 X64.152 Y76.934 E1.86564
G1 X63.938 Y76.717 E1.87120
G1 X63.747 Y76.477 E1.87682
G1 X63.580 Y76.215 E1.88249
G1 X63.440 Y75.935 E1.88821
G1 X63.330 Y75.639 E1.89399
G1 X63.250 Y75.329 E1.89983
G1 X63.204 Y75.010 E1.90572
G1 X63.191 Y74.685 E1.91166
G1 X63.212 Y74.358 E1.91766
G1 X63.269 Y74.031 E1.92371
G1 X63.377 Y73.706 E1.92998
G1 X63.528 Y73.409 E1.93607
G1 X63.710 Y73.130 E1.94215
G1 X63.919 Y72.871 E1.94824
G1 X64.155 Y72.635 E1.95432
G1 X64.431 Y72.432 E1.96059
G1 X64.724 Y72.277 E1.96665
G1 X65.029 Y72.155 E1.97264
G1 X65.342 Y72.067 E1.97859
G1 X65.660 Y72.013 E1.98448
G1 X66.044 Y71.997 E1.99150
G1 X66.295 Y72.006 E1.99608 F315.000
G1 X66.604 Y72.052 E2.00181
G1 X66.905 Y72.130 E2.00748
G1 X67.193 Y72.238 E2.01309
G1 X67.464 Y72.375 E2.01865
G1 X67.718 Y72.537 E2.02416
G1 X68.163 Y72.913 E2.03480
G1 X68.371 Y73.121 E2.04017
G1 X68.556 Y73.350 E2.04554
G1 X68.716 Y73.596 E2.05091
G1 X68.849 Y73.858 E2.05628
G1 X68.955 Y74.132 E2.06165
G1 X69.031 Y74.416 E2.06702
G1 X69.077 Y74.706 E2.07239
G1 X69.092 Y75.000 E2.07776
G1 X69.077 Y75.293 E2.08313
G1 X69.040 Y75.525 E2.08741
G1 X70.664 Y75.842 F7800.000
G1 X70.531 Y76.373 E2.09740 F450.000
G1 X69.597 Y77.991 E2.13154
G1 X69.271 Y78.317 E2.13996
G1 X68.908 Y78.611 E2.14849
G1 X68.516 Y78.865 E2.15703
G1 X68.100 Y79.077 E2.16557
G1 X67.664 Y79.245 E2.17410
G1 X67.218 Y79.364 E2.18252
G1 X65.350 Y79.364 E2.21666
G1 X64.905 Y79.245 E2.22508
G1 X64.469 Y79.077 E2.23361
G1 X64.053 Y78.865 E2.24215
G1 X63.661 Y78.611 E2.25069
G1 X63.298 Y78.317 E2.25922
G1 X62.972 Y77.991 E2.26764
G1 X62.038 Y76.373 E2.30178
G1 X61.918 Y75.928 E2.31020
G1 X61.845 Y75.467 E2.31873
G1 X61.821 Y75.000 E2.32727
G1 X61.845 Y74.533 E2.33581
G1 X61.918 Y74.072 E2.34434
G1 X62.038 Y73.627 E2.35276
G1 X62.972 Y72.009 E2.38690
G1 X63.298 Y71.683 E2.39532
G1 X63.661 Y71.389 E2.40385
G1 X64.053 Y71.135 E2.41239
G1 X64.469 Y70.923 E2.42092
G1 X64.905 Y70.755 E2.42946
G1 X65.350 Y70.636 E2.43788
G1 X67.218 Y70.636 E2.47202
G1 X67.663 Y70.755 E2.48044
G1 X68.100 Y70.923 E2.48897 F450.000
G1 X68.516 Y71.135 E2.49751
G1 X68.908 Y71.389 E2.50605
G1 X69.271 Y71.683 E2.51458
G1 X69.597 Y72.009 E2.52300
G1 X70.531 Y73.627 E2.55714
G1 X70.650 Y74.072 E2.56556
G1 X70.723 Y74.533 E2.57409
G1 X70.748 Y75.000 E2.58263
G1 X70.723 Y75.467 E2.59116
G1 X70.673 Y75.783 E2.59702
G1 F1800.000 E1.59702
G1 Z0.500 F7800.000
G92 E0
G1 X65.306 Y70.396 F7800.000
G1 Z0.200 F7800.000
G1 E1.00000 F1800.000
G1 X67.263 Y70.396 E1.03576 F450.000
G1 X67.739 Y70.524 E1.04476
G1 X68.199 Y70.700 E1.05376
G1 X68.638 Y70.924 E1.06276
G1 X69.051 Y71.192 E1.07176
G1 X69.434 Y71.502 E1.08077
G1 X69.795 Y71.867 E1.09015
G1 X70.753 Y73.526 E1.12515
G1 X70.888 Y74.021 E1.13453
G1 X70.965 Y74.508 E1.14353
G1 X70.991 Y75.000 E1.15254
G1 X70.965 Y75.492 E1.16154
G1 X70.888 Y75.979 E1.17054
G1 X70.753 Y76.474 E1.17993
G1 X70.360 Y77.154 E1.19427
G1 X69.795 Y78.133 E1.21492
G1 X69.434 Y78.498 E1.22431
G1 X69.051 Y78.808 E1.23331
G1 X68.638 Y79.076 E1.24231
G1 X68.199 Y79.300 E1.25131
G1 X67.739 Y79.476 E1.26031
G1 X67.239 Y79.610 E1.26977
G1 X65.327 Y79.607 E1.30470
G1 X64.830 Y79.476 E1.31409
G1 X64.370 Y79.300 E1.32309
G1 X63.931 Y79.076 E1.33209
G1 X63.518 Y78.808 E1.34109
G1 X63.135 Y78.498 E1.35010
G1 X62.787 Y78.149 E1.35910
G1 X61.808 Y76.454 E1.39486
G1 X61.680 Y75.979 E1.40386
G1 X61.603 Y75.492 E1.41286
G1 X61.578 Y75.000 E1.42186
G1 X61.603 Y74.508 E1.43086
G1 X61.680 Y74.021 E1.43986
G1 X61.816 Y73.526 E1.44925
G1 X62.773 Y71.867 E1.48424
G1 X63.135 Y71.502 E1.49363
G1 X63.518 Y71.192 E1.50263
G1 X63.931 Y70.924 E1.51163
G1 X64.370 Y70.700 E1.52063
G1 X64.830 Y70.524 E1.52964
G1 X65.248 Y70.412 E1.53754
G1 X65.268 Y70.156 F7800.000
G1 X67.288 Y70.154 E1.57445 F315.000
G1 X67.814 Y70.292 E1.58439 F315.000
G1 X68.298 Y70.478 E1.59385
G1 X68.759 Y70.713 E1.60332
G1 X69.194 Y70.995 E1.61279
G1 X69.506 Y71.249 E1.62014
G1 X69.963 Y71.688 E1.63171
G1 X70.973 Y73.421 E1.66836
G1 X71.126 Y73.971 E1.67879
G1 X71.207 Y74.483 E1.68826
G1 X71.234 Y75.000 E1.69773
G1 X71.207 Y75.517 E1.70719
G1 X71.126 Y76.029 E1.71666
G1 X70.973 Y76.579 E1.72709
G1 X69.963 Y78.312 E1.76374
G1 X69.520 Y78.740 E1.77499
G1 X69.194 Y79.005 E1.78266
G1 X68.759 Y79.287 E1.79213
G1 X68.298 Y79.522 E1.80160
G1 X67.814 Y79.708 E1.81106
G1 X67.261 Y79.850 E1.82150
G1 X65.255 Y79.842 E1.85815
G1 X64.755 Y79.708 E1.86761
G1 X64.271 Y79.522 E1.87708
G1 X63.809 Y79.287 E1.88654
G1 X63.375 Y79.005 E1.89601
G1 X62.972 Y78.678 E1.90548
G1 X62.572 Y78.271 E1.91591
