; generated by Slic3r 1.1.7 on 2014-12-04 at 20:24:31

; perimeters extrusion width = 0.40mm
; infill extrusion width = 0.67mm
; solid infill extrusion width = 0.67mm
; top infill extrusion width = 0.67mm

G21 ; set units to millimeters
M107
M104 S215 ; set temperature
G28 ; home all axes
G29; calibrate bed leveling
G1 Z5 F5000 ; lift nozzle
G28 X ; Go to corner x
G28 Y ; Go to corner y

M109 S215 ; wait for temperature to be reached
G90 ; use absolute coordinates
G92 E0
M82 ; use absolute distances for extrusion
G1 F1800.000 E-1.00000
G1 Z0.550 F7800.000
G92 E0
G1 X54.997 Y56.481 F7800.000
G1 Z0.250 F7800.000
G1 E1.00000 F1800.000
G1 X55.997 Y55.532 E1.04376 F1080.000
G1 X57.091 Y54.692 E1.08752
G1 X57.622 Y54.348 E1.10760
G1 X58.267 Y53.972 E1.13128
G1 X58.831 Y53.685 E1.15137
G1 X59.670 Y53.318 E1.18044
G1 X60.811 Y52.918 E1.21881
G1 X61.460 Y52.744 E1.24012
G1 X62.152 Y52.596 E1.26258
G1 X63.303 Y52.496 E1.29924
G1 X87.730 Y52.578 E2.07438
G1 X88.524 Y52.740 E2.10010 F1080.000
G1 X89.135 Y52.904 E2.12019
G1 X89.846 Y53.132 E2.14387
G1 X91.120 Y53.660 E2.18763
G1 X92.332 Y54.318 E2.23138
G1 X92.827 Y54.639 E2.25013
G1 X93.468 Y55.099 E2.27515
G1 X94.517 Y55.994 E2.31891
G1 X95.466 Y56.995 E2.36267
G1 X96.128 Y57.941 E2.39933
G1 X96.675 Y58.889 E2.43405
G1 X97.823 Y61.040 E2.51143
G1 X98.080 Y61.809 E2.53715
G1 X98.401 Y63.150 E2.58091
G1 X98.581 Y64.517 E2.62467
G1 X98.626 Y65.550 E2.65747
G1 X98.617 Y84.795 E3.26818
G1 X98.584 Y85.428 E3.28828
G1 X98.509 Y86.170 E3.31196
G1 X98.410 Y86.796 E3.33205
G1 X98.258 Y87.526 E3.35573
G1 X98.094 Y88.138 E3.37582
G1 X97.866 Y88.848 E3.39950
G1 X97.377 Y89.895 E3.43616
G1 X96.519 Y91.381 E3.49060
G1 X95.541 Y92.912 E3.54827
G1 X95.003 Y93.519 E3.57399
G1 X94.003 Y94.468 E3.61775
G1 X92.909 Y95.308 E3.66151
G1 X92.378 Y95.652 E3.68160
G1 X91.733 Y96.028 E3.70528
G1 X91.169 Y96.315 E3.72537
G1 X90.489 Y96.622 E3.74905
G1 X89.189 Y97.082 E3.79281
G1 X88.577 Y97.246 E3.81290
G1 X87.848 Y97.404 E3.83658
G1 X86.697 Y97.504 E3.87324
G1 X62.271 Y97.422 E4.64836
G1 X61.476 Y97.260 E4.67410
G1 X60.865 Y97.096 E4.69418
G1 X60.154 Y96.868 E4.71787
G1 X58.880 Y96.340 E4.76163
G1 X58.316 Y96.053 E4.78171
G1 X57.668 Y95.682 E4.80540
G1 X56.532 Y94.901 E4.84915
G1 X56.114 Y94.563 E4.86619
G1 X55.483 Y94.006 E4.89292
G1 X54.478 Y92.936 E4.93952
G1 X53.872 Y92.059 E4.97334
G1 X52.992 Y90.534 E5.02919
G1 X52.177 Y88.960 E5.08545
G1 X51.920 Y88.191 E5.11117
G1 X51.599 Y86.850 E5.15493
G1 X51.419 Y85.483 E5.19869
G1 X51.374 Y84.450 E5.23150
G1 X51.383 Y65.204 E5.84221
G1 X51.491 Y63.830 E5.88597
G1 X51.590 Y63.204 E5.90606
G1 X51.742 Y62.474 E5.92974
G1 X51.906 Y61.862 E5.94984
G1 X52.134 Y61.152 E5.97351
G1 X52.623 Y60.105 E6.01017
G1 X53.512 Y58.565 E6.06660
G1 X54.459 Y57.088 E6.12228
G1 X54.957 Y56.526 E6.14610
G1 X55.181 Y56.726 F7800.000
G1 X56.187 Y55.766 E6.19022 F1080.000
G1 X57.255 Y54.946 E6.23297
G1 X57.786 Y54.601 E6.25306
G1 X58.404 Y54.241 E6.27574
G1 X58.968 Y53.954 E6.29583
G1 X59.778 Y53.599 E6.32389
G1 X60.889 Y53.210 E6.36126
G1 X61.538 Y53.036 E6.38257
G1 X62.199 Y52.894 E6.40403
G1 X63.303 Y52.798 E6.43919
G1 X87.683 Y52.876 E7.21283
G1 X88.446 Y53.032 E7.23754 F1080.000
G1 X89.057 Y53.195 E7.25763
G1 X89.738 Y53.414 E7.28031
G1 X90.983 Y53.928 E7.32307
G1 X92.168 Y54.571 E7.36582
G1 X92.663 Y54.892 E7.38456
G1 X93.278 Y55.333 E7.40859
G1 X94.303 Y56.208 E7.45135
G1 X95.231 Y57.185 E7.49410
G1 X95.867 Y58.092 E7.52926
G1 X96.414 Y59.040 E7.56398
G1 X97.541 Y61.148 E7.63985
G1 X97.788 Y61.887 E7.66457
G1 X98.103 Y63.197 E7.70733
G1 X98.280 Y64.533 E7.75009
G1 X98.325 Y65.550 E7.78239
G1 X98.316 Y84.780 E8.39260
G1 X98.283 Y85.412 E8.41269
G1 X98.211 Y86.123 E8.43537
G1 X98.112 Y86.748 E8.45546
G1 X97.966 Y87.448 E8.47814
G1 X97.802 Y88.060 E8.49823
G1 X97.584 Y88.740 E8.52091
G1 X97.116 Y89.744 E8.55607
G1 X96.258 Y91.230 E8.61051
G1 X95.307 Y92.723 E8.66668
G1 X94.790 Y93.306 E8.69140
G1 X93.813 Y94.234 E8.73415
G1 X92.745 Y95.054 E8.77691
G1 X92.214 Y95.399 E8.79699
G1 X91.596 Y95.759 E8.81968
G1 X91.032 Y96.046 E8.83977
G1 X90.381 Y96.340 E8.86244
G1 X89.111 Y96.790 E8.90520
G1 X88.499 Y96.954 E8.92529
G1 X87.801 Y97.106 E8.94797
G1 X86.697 Y97.202 E8.98313
G1 X62.318 Y97.124 E9.75675
G1 X61.554 Y96.968 E9.78148
G1 X60.943 Y96.805 E9.80157
G1 X60.262 Y96.586 E9.82425
G1 X59.017 Y96.072 E9.86701
G1 X58.453 Y95.784 E9.88709
G1 X57.832 Y95.429 E9.90977
G1 X56.722 Y94.667 E9.95253
G1 X56.304 Y94.329 E9.96957
G1 X55.697 Y93.792 E9.99529
G1 X54.712 Y92.746 E10.04089
G1 X54.133 Y91.908 E10.07321
G1 X53.253 Y90.383 E10.12906
G1 X52.459 Y88.852 E10.18382
G1 X52.212 Y88.113 E10.20854
G1 X51.897 Y86.803 E10.25129
G1 X51.720 Y85.467 E10.29405
G1 X51.675 Y84.450 E10.32635
G1 X51.684 Y65.220 E10.93657
G1 X51.789 Y63.877 E10.97932
G1 X51.888 Y63.252 E10.99941
G1 X52.034 Y62.552 E11.02209
G1 X52.198 Y61.940 E11.04219
G1 X52.416 Y61.260 E11.06486
G1 X52.884 Y60.256 E11.10002
G1 X53.773 Y58.716 E11.15644
G1 X54.693 Y57.278 E11.21063
G1 X55.141 Y56.771 E11.23208
G1 F1800.000 E10.23208
G1 Z0.550 F7800.000
G92 E0
G1 X81.504 Y70.240 F7800.000
G1 Z0.250 F7800.000
G1 E1.00000 F1800.000
G1 X81.343 Y70.109 E1.00660 F540.000
G1 X80.850 Y69.607 E1.02893
G1 X79.613 Y67.446 E1.10795
G1 X79.447 Y66.826 E1.12833
G1 X79.346 Y66.191 E1.14870
G1 X79.313 Y65.550 E1.16908
G1 X79.346 Y64.909 E1.18946
G1 X79.447 Y64.274 E1.20984
G1 X79.635 Y63.596 E1.23217
G1 X80.507 Y62.087 E1.28749
G1 X80.850 Y61.493 E1.30925
G1 X81.343 Y60.991 E1.33158
G1 X81.842 Y60.587 E1.35195
G1 X82.380 Y60.237 E1.37233
G1 X82.952 Y59.945 E1.39271
G1 X83.552 Y59.715 E1.41309
G1 X84.233 Y59.539 E1.43542
G1 X86.662 Y59.539 E1.51250 F540.000
G1 X87.344 Y59.715 E1.53482
G1 X87.943 Y59.945 E1.55520
G1 X88.515 Y60.237 E1.57558
G1 X88.991 Y60.546 E1.59359
G1 X89.553 Y60.991 E1.61632
G1 X90.007 Y61.445 E1.63670
G1 X91.283 Y63.654 E1.71766
G1 X91.449 Y64.274 E1.73803
G1 X91.549 Y64.909 E1.75841
G1 X91.583 Y65.550 E1.77879
G1 X91.551 Y66.159 E1.79814
G1 X91.449 Y66.826 E1.81954
G1 X91.260 Y67.504 E1.84187
G1 X90.007 Y69.655 E1.92089
G1 X89.553 Y70.109 E1.94126
G1 X89.054 Y70.513 E1.96164
G1 X88.542 Y70.846 E1.98100
G1 X87.943 Y71.155 E2.00239
G1 X87.344 Y71.385 E2.02277
G1 X86.662 Y71.561 E2.04510
G1 X84.172 Y71.551 E2.12412
G1 X83.552 Y71.385 E2.14449
G1 X82.952 Y71.155 E2.16487
G1 X82.380 Y70.863 E2.18525
G1 X81.842 Y70.513 E2.20563
G1 X81.551 Y70.278 E2.21750
G1 X81.361 Y70.513 F7800.000
G1 X81.140 Y70.334 E2.22651 F378.000
G1 X80.600 Y69.779 E2.25109
G1 X79.362 Y67.634 E2.32968
G1 X79.326 Y67.539 E2.33289
G1 X79.151 Y66.888 E2.35428
G1 X79.046 Y66.223 E2.37566
G1 X79.011 Y65.550 E2.39704
G1 X79.046 Y64.877 E2.41842
G1 X79.151 Y64.212 E2.43980
G1 X79.362 Y63.466 E2.46439
G1 X80.600 Y61.321 E2.54297
G1 X80.664 Y61.243 E2.54619
G1 X81.140 Y60.766 E2.56757
G1 X81.664 Y60.342 E2.58895
G1 X82.229 Y59.975 E2.61033
G1 X82.830 Y59.669 E2.63172
G1 X82.981 Y59.611 E2.63687
G1 X83.459 Y59.428 E2.65310
G1 X84.109 Y59.253 E2.67448
G1 X84.210 Y59.237 E2.67770
G1 X86.739 Y59.246 E2.75795
G1 X87.437 Y59.428 E2.78085 F378.000
G1 X88.066 Y59.669 E2.80224
G1 X88.666 Y59.975 E2.82362
G1 X89.156 Y60.293 E2.84213
G1 X89.755 Y60.766 E2.86637
G1 X90.295 Y61.321 E2.89095
G1 X91.534 Y63.466 E2.96954
G1 X91.744 Y64.212 E2.99412
G1 X91.850 Y64.877 E3.01550
G1 X91.885 Y65.550 E3.03688
G1 X91.850 Y66.223 E3.05827
G1 X91.744 Y66.888 E3.07965
G1 X91.534 Y67.634 E3.10423
G1 X90.295 Y69.779 E3.18282
G1 X89.755 Y70.334 E3.20740
G1 X89.232 Y70.758 E3.22878
G1 X88.666 Y71.125 E3.25016
G1 X88.066 Y71.431 E3.27155
G1 X87.437 Y71.672 E3.29293
G1 X86.686 Y71.863 E3.31751
G1 X84.210 Y71.863 E3.39610
G1 X84.109 Y71.847 E3.39931
G1 X83.459 Y71.672 E3.42070
G1 X82.830 Y71.431 E3.44208
G1 X82.229 Y71.125 E3.46346
G1 X81.664 Y70.758 E3.48484
G1 X81.408 Y70.550 E3.49531
G1 X81.625 Y70.082 F7800.000
G1 X80.982 Y69.439 E3.52416 F1080.000
G1 X80.397 Y68.426 F7800.000
G1 X82.852 Y70.880 E3.63431 F1080.000
G1 X79.818 Y67.418 F7800.000
G1 X83.584 Y71.184 E3.80334 F1080.000
G1 X84.174 Y71.346 E3.82275
G1 X79.653 Y66.825 E4.02564
G1 X79.566 Y66.310 E4.04221
G1 X84.609 Y71.352 E4.26851
G1 X85.037 Y71.352 E4.28210
G1 X79.527 Y65.842 E4.52939
G1 X79.519 Y65.406 E4.54323
G1 X85.466 Y71.352 E4.81010
G1 X85.894 Y71.352 E4.82369
G1 X79.541 Y64.999 E5.10882
G1 X79.593 Y64.622 E5.12087
G1 X86.323 Y71.352 E5.42289
G1 X86.740 Y71.341 E5.43613
G1 X79.658 Y64.259 E5.75396
G1 X79.751 Y63.923 E5.76500
G1 X87.078 Y71.250 E6.09381
G1 X87.404 Y71.149 E6.10467
G1 X79.860 Y63.604 E6.44323
G1 X80.017 Y63.333 E6.45319
G1 X87.714 Y71.030 E6.79861
G1 X88.010 Y70.897 E6.80889
G1 X80.174 Y63.061 E7.16053
G1 X80.331 Y62.789 E7.17048
G1 X88.292 Y70.751 E7.52777
G1 X88.564 Y70.594 E7.53773
G1 X80.488 Y62.518 E7.90018
G1 X80.644 Y62.246 E7.91014
G1 X88.824 Y70.426 E8.27721
G1 X89.071 Y70.244 E8.28693
G1 X80.801 Y61.974 E8.65804
G1 X80.958 Y61.703 E8.66800
G1 X89.304 Y70.049 E9.04253
G1 X89.518 Y69.835 E9.05215
G1 X81.163 Y61.480 E9.42708
G1 X81.378 Y61.265 E9.43670
G1 X89.732 Y69.620 E9.81164
G1 X89.938 Y69.397 E9.82126
G1 X81.592 Y61.051 E10.19580
G1 X81.825 Y60.856 E10.20545
G1 X90.094 Y69.126 E10.57656
G1 X90.251 Y68.854 E10.58651
G1 X82.072 Y60.674 E10.95358
G1 X82.331 Y60.506 E10.96341
G1 X90.408 Y68.582 E11.32587
G1 X90.565 Y68.311 E11.33582
G1 X82.602 Y60.347 E11.69319
G1 X82.885 Y60.203 E11.70330
G1 X90.722 Y68.039 E12.05497
G1 X90.879 Y67.767 E12.06492
G1 X83.182 Y60.070 E12.41034
G1 X83.491 Y59.951 E12.42087
G1 X91.035 Y67.496 E12.75943
G1 X91.145 Y67.177 E12.77013
G1 X83.818 Y59.850 E13.09894
G1 X84.156 Y59.759 E13.11004
G1 X91.238 Y66.841 E13.42787
G1 X91.303 Y66.478 E13.43960
G1 X84.571 Y59.746 E13.74168
G1 X84.998 Y59.745 E13.75523
G1 X91.355 Y66.101 E14.04050
G1 X91.376 Y65.694 E14.05344
G1 X85.425 Y59.743 E14.32052
G1 X85.852 Y59.741 E14.33406
G1 X91.369 Y65.258 E14.58164
G1 X91.329 Y64.790 E14.59654
G1 X86.278 Y59.740 E14.82320
G1 X86.726 Y59.758 E14.83741
G1 X91.243 Y64.276 E15.04012
G1 X91.078 Y63.682 E15.05966
G1 X87.312 Y59.916 E15.22868
G1 X88.044 Y60.220 F7800.000
G1 X90.499 Y62.674 E15.33883 F1080.000
G1 X89.913 Y61.661 F7800.000
G1 X89.270 Y61.018 E15.36768 F1080.000
G1 F1800.000 E14.36768
G1 Z0.550 F7800.000
G92 E0
G1 X91.551 Y85.063 F7800.000
G1 Z0.250 F7800.000
G1 E1.00000 F1800.000
G1 X91.449 Y85.726 E1.02126 F540.000
G1 X91.260 Y86.404 E1.04359
G1 X90.046 Y88.507 E1.12067
G1 X89.553 Y89.009 E1.14300
G1 X89.054 Y89.413 E1.16338
G1 X88.515 Y89.763 E1.18376
G1 X87.943 Y90.055 E1.20414
G1 X87.344 Y90.285 E1.22451
G1 X86.662 Y90.461 E1.24684
G1 X84.204 Y90.456 E1.32485
G1 X83.552 Y90.285 E1.34624
G1 X82.952 Y90.055 E1.36662
G1 X82.380 Y89.763 E1.38700
G1 X81.904 Y89.454 E1.40501
G1 X81.343 Y89.009 E1.42774
G1 X80.850 Y88.507 E1.45007
G1 X80.000 Y87.035 E1.50400
G1 X79.635 Y86.404 E1.52715
G1 X79.447 Y85.726 E1.54948
G1 X79.346 Y85.091 E1.56986
G1 X79.313 Y84.450 E1.59024
G1 X79.346 Y83.809 E1.61062
G1 X79.447 Y83.174 E1.63099
G1 X79.613 Y82.554 E1.65137
G1 X80.850 Y80.393 E1.73039
G1 X81.343 Y79.891 E1.75272
G1 X81.842 Y79.487 E1.77309
G1 X82.380 Y79.137 E1.79347
G1 X82.952 Y78.845 E1.81385
G1 X83.552 Y78.615 E1.83423
G1 X84.233 Y78.439 E1.85656
G1 X86.662 Y78.439 E1.93364 F540.000
G1 X87.344 Y78.615 E1.95597
G1 X87.943 Y78.845 E1.97634
G1 X88.515 Y79.137 E1.99672
G1 X89.054 Y79.487 E2.01710
G1 X89.553 Y79.891 E2.03748
G1 X90.046 Y80.393 E2.05981
G1 X91.260 Y82.496 E2.13689
G1 X91.449 Y83.174 E2.15921
G1 X91.549 Y83.809 E2.17959
G1 X91.583 Y84.450 E2.19997
G1 X91.554 Y85.003 E2.21755
G1 X91.855 Y85.019 F7800.000
G1 X91.744 Y85.788 E2.24222 F378.000
G1 X91.534 Y86.534 E2.26680
G1 X90.295 Y88.679 E2.34539
G1 X89.755 Y89.234 E2.36997
G1 X89.232 Y89.658 E2.39135
G1 X88.666 Y90.025 E2.41273
G1 X88.109 Y90.309 E2.43259
G1 X87.437 Y90.572 E2.45549
G1 X86.686 Y90.762 E2.48007
G1 X84.210 Y90.762 E2.55866
G1 X83.459 Y90.572 E2.58324
G1 X82.830 Y90.331 E2.60462
G1 X82.229 Y90.025 E2.62601
G1 X81.664 Y89.658 E2.64739
G1 X81.140 Y89.234 E2.66877
G1 X80.600 Y88.679 E2.69335
G1 X79.362 Y86.534 E2.77194
G1 X79.326 Y86.439 E2.77516
G1 X79.151 Y85.788 E2.79654
G1 X79.046 Y85.123 E2.81792
G1 X79.011 Y84.450 E2.83930
G1 X79.046 Y83.777 E2.86068
G1 X79.151 Y83.112 E2.88206
G1 X79.326 Y82.461 E2.90345
G1 X79.362 Y82.366 E2.90666
G1 X80.600 Y80.221 E2.98525
G1 X81.140 Y79.666 E3.00983
G1 X81.664 Y79.242 E3.03122
G1 X82.229 Y78.875 E3.05260
G1 X82.749 Y78.610 E3.07111
G1 X83.459 Y78.328 E3.09535
G1 X84.210 Y78.137 E3.11993
G1 X86.739 Y78.146 E3.20019
G1 X87.437 Y78.328 E3.22309 F378.000
G1 X88.066 Y78.569 E3.24447
G1 X88.666 Y78.875 E3.26585
G1 X89.232 Y79.242 E3.28723
G1 X89.755 Y79.666 E3.30861
G1 X90.295 Y80.221 E3.33320
G1 X91.534 Y82.366 E3.41178
G1 X91.570 Y82.461 E3.41500
G1 X91.744 Y83.112 E3.43638
G1 X91.850 Y83.777 E3.45776
G1 X91.885 Y84.450 E3.47915
G1 X91.858 Y84.959 E3.49533
G1 X90.499 Y81.574 F7800.000
G1 X88.044 Y79.120 E3.60548 F1080.000
G1 X87.312 Y78.816 F7800.000
G1 X91.078 Y82.582 E3.77450 F1080.000
G1 X91.243 Y83.175 E3.79404
G1 X86.726 Y78.658 E3.99675
G1 X86.278 Y78.640 E4.01096
G1 X91.329 Y83.690 E4.23762
G1 X91.369 Y84.158 E4.25251
G1 X85.852 Y78.641 E4.50009
G1 X85.425 Y78.643 E4.51364
G1 X91.376 Y84.594 E4.78072
G1 X91.355 Y85.001 E4.79365
G1 X84.998 Y78.645 E5.07893
G1 X84.571 Y78.646 E5.09247
G1 X91.303 Y85.378 E5.39455
G1 X91.238 Y85.741 E5.40628
G1 X84.156 Y78.659 E5.72411
G1 X83.818 Y78.750 E5.73521
G1 X91.145 Y86.077 E6.06403
G1 X91.035 Y86.396 E6.07473
G1 X83.491 Y78.851 E6.41329
G1 X83.182 Y78.970 E6.42381
G1 X90.879 Y86.667 E6.76923
G1 X90.722 Y86.939 E6.77919
G1 X82.885 Y79.103 E7.13086
G1 X82.602 Y79.247 E7.14097
G1 X90.565 Y87.211 E7.49834
G1 X90.408 Y87.482 E7.50829
G1 X82.331 Y79.406 E7.87074
G1 X82.072 Y79.574 E7.88057
G1 X90.251 Y87.754 E8.24765
G1 X90.094 Y88.026 E8.25760
G1 X81.825 Y79.756 E8.62871
G1 X81.592 Y79.951 E8.63836
G1 X89.938 Y88.297 E9.01290
G1 X89.732 Y88.520 E9.02252
G1 X81.378 Y80.165 E9.39746
G1 X81.163 Y80.380 E9.40707
G1 X89.518 Y88.735 E9.78201
G1 X89.304 Y88.949 E9.79162
G1 X80.958 Y80.603 E10.16616
G1 X80.801 Y80.874 E10.17611
G1 X89.071 Y89.144 E10.54722
G1 X88.824 Y89.326 E10.55695
G1 X80.644 Y81.146 E10.92402
G1 X80.488 Y81.418 E10.93397
G1 X88.564 Y89.494 E11.29643
G1 X88.292 Y89.651 E11.30638
G1 X80.331 Y81.689 E11.66367
G1 X80.174 Y81.961 E11.67363
G1 X88.010 Y89.797 E12.02527
G1 X87.714 Y89.930 E12.03555
G1 X80.017 Y82.233 E12.38097
G1 X79.860 Y82.504 E12.39092
G1 X87.404 Y90.049 E12.72948
G1 X87.078 Y90.150 E12.74034
G1 X79.751 Y82.823 E13.06916
G1 X79.658 Y83.159 E13.08020
G1 X86.740 Y90.241 E13.39803
G1 X86.323 Y90.252 E13.41127
G1 X79.593 Y83.522 E13.71328
G1 X79.541 Y83.899 E13.72533
G1 X85.894 Y90.252 E14.01046
G1 X85.466 Y90.252 E14.02406
G1 X79.519 Y84.306 E14.29092
G1 X79.527 Y84.742 E14.30477
G1 X85.037 Y90.252 E14.55205
G1 X84.609 Y90.252 E14.56565
G1 X79.566 Y85.210 E14.79195
G1 X79.653 Y85.725 E14.80851
G1 X84.174 Y90.246 E15.01141
G1 X83.584 Y90.084 E15.03082
G1 X79.818 Y86.318 E15.19984
G1 X80.397 Y87.326 F7800.000
G1 X82.852 Y89.780 E15.30999 F1080.000
G1 X81.625 Y88.982 F7800.000
G1 X80.982 Y88.339 E15.33885 F1080.000
G1 X89.270 Y79.918 F7800.000
G1 X89.913 Y80.561 E15.36770 F1080.000
G1 F1800.000 E14.36770
G1 Z0.550 F7800.000
G92 E0
G1 X58.849 Y86.593 F7800.000
G1 Z0.250 F7800.000
G1 E1.00000 F1800.000
G1 X58.717 Y86.346 E1.00890 F540.000
G1 X58.551 Y85.726 E1.02928
G1 X58.451 Y85.091 E1.04966
G1 X58.417 Y84.450 E1.07004
G1 X58.451 Y83.809 E1.09041
G1 X58.551 Y83.174 E1.11079
G1 X58.740 Y82.496 E1.13312
G1 X59.954 Y80.393 E1.21020
G1 X60.447 Y79.891 E1.23253
G1 X60.946 Y79.487 E1.25291
G1 X61.485 Y79.137 E1.27328
G1 X62.057 Y78.845 E1.29366
G1 X62.656 Y78.615 E1.31404
G1 X63.338 Y78.439 E1.33637
G1 X65.767 Y78.439 E1.41345 F540.000
G1 X66.448 Y78.615 E1.43578
G1 X67.048 Y78.845 E1.45616
G1 X67.620 Y79.137 E1.47653
G1 X68.096 Y79.446 E1.49454
G1 X68.657 Y79.891 E1.51728
G1 X69.111 Y80.345 E1.53766
G1 X70.365 Y82.496 E1.61667
G1 X70.553 Y83.174 E1.63900
G1 X70.654 Y83.809 E1.65938
G1 X70.687 Y84.450 E1.67976
G1 X70.654 Y85.091 E1.70014
G1 X70.553 Y85.726 E1.72051
G1 X70.365 Y86.404 E1.74284
