; generated by Slic3r 1.1.7 on 2014-11-29 at 19:48:52

; perimeters extrusion width = 0.40mm
; infill extrusion width = 0.42mm
; solid infill extrusion width = 0.42mm
; top infill extrusion width = 0.42mm

G21 ; set units to millimeters
M107
M104 S215 ; set temperature
G28 ; home all axes
G1 Z5 F5000 ; lift nozzle

M109 S215 ; wait for temperature to be reached
G90 ; use absolute coordinates
G92 E0
M82 ; use absolute distances for extrusion
G1 F1800.000 E-1.00000
G1 Z1.400 F7800.000
G92 E0
G1 X64.818 Y64.432 F7800.000
G1 Z0.400 F7800.000
G1 E1.00000 F1800.000
G1 X65.302 Y63.945 E1.08158 F703.359
G1 X66.898 Y62.728 E1.31995
G1 X68.644 Y61.739 E1.55830
G1 X70.509 Y60.997 E1.79667
G1 X72.458 Y60.516 E2.03507
G1 X74.454 Y60.304 E2.27345
G1 X76.460 Y60.367 E2.51182
G1 X78.439 Y60.702 E2.75019 F703.359
G1 X79.280 Y60.938 E2.85396
G1 X80.354 Y61.304 E2.98867
G1 X81.155 Y61.652 E3.09244
G1 X82.169 Y62.160 E3.22712
G1 X83.851 Y63.256 E3.46549
G1 X85.367 Y64.571 E3.70387
G1 X86.691 Y66.079 E3.94224
G1 X87.797 Y67.754 E4.18061
G1 X87.897 Y67.948 E4.20655
G1 X88.664 Y69.564 E4.41900
G1 X89.277 Y71.476 E4.65737
G1 X89.624 Y73.452 E4.89574
G1 X89.699 Y75.458 E5.13412
G1 X89.499 Y77.455 E5.37249
G1 X89.455 Y77.669 E5.39843
G1 X89.030 Y79.407 E5.61088
G1 X88.299 Y81.276 E5.84925
G1 X87.321 Y83.029 E6.08762
G1 X86.113 Y84.631 E6.32600
G1 X84.698 Y86.055 E6.56437
G1 X84.528 Y86.193 E6.59031
G1 X83.102 Y87.272 E6.80276
G1 X81.356 Y88.261 E7.04110
G1 X79.491 Y89.003 E7.27946
G1 X77.542 Y89.484 E7.51788
G1 X75.546 Y89.696 E7.75625
G1 X73.540 Y89.633 E7.99462
G1 X73.323 Y89.603 E8.02056
G1 X71.561 Y89.298 E8.23301
G1 X70.720 Y89.062 E8.33678
G1 X69.646 Y88.696 E8.47149
G1 X68.845 Y88.348 E8.57526
G1 X67.831 Y87.840 E8.70994
G1 X66.149 Y86.744 E8.94831
G1 X64.633 Y85.429 E9.18668
G1 X63.309 Y83.921 E9.42506
G1 X62.203 Y82.246 E9.66343
G1 X61.336 Y80.436 E9.90181
G1 X60.723 Y78.524 E10.14018
G1 X60.376 Y76.548 E10.37855
G1 X60.301 Y74.542 E10.61693
G1 X60.501 Y72.545 E10.85530
G1 X60.970 Y70.593 E11.09367
G1 X61.701 Y68.724 E11.33205
G1 X62.679 Y66.971 E11.57042
G1 X63.887 Y65.369 E11.80879
G1 X64.776 Y64.475 E11.95846
G1 F1800.000 E10.95846
G1 Z1.400 F7800.000
G92 E0
G1 X80.036 Y79.692 F7800.000
G1 Z0.400 F7800.000
G1 E1.00000 F1800.000
G1 X79.278 Y80.392 E1.12254 F600.000
G1 X78.477 Y80.938 E1.23761
G1 X77.492 Y81.415 E1.36758
G1 X76.505 Y81.716 E1.49011
G1 X75.484 Y81.865 E1.61263
G1 X74.516 Y81.865 E1.72771
G1 X73.495 Y81.716 E1.85023
G1 X72.508 Y81.415 E1.97276
G1 X71.577 Y80.971 E2.09529
G1 X70.675 Y80.351 E2.22526
G1 X69.964 Y79.692 E2.34033
G1 X69.319 Y78.887 E2.46287
G1 X68.802 Y77.994 E2.58542
G1 X68.424 Y77.034 E2.70797
G1 X68.189 Y75.966 E2.83791
G1 X68.116 Y75.000 E2.95290
G1 X68.194 Y73.972 E3.07537
G1 X68.424 Y72.966 E3.19792
G1 X68.802 Y72.006 E3.32046
G1 X69.319 Y71.113 E3.44301
G1 X69.924 Y70.356 E3.55809
G1 X70.722 Y69.608 E3.68805
G1 X71.577 Y69.029 E3.81058
G1 X72.508 Y68.585 E3.93311
G1 X73.495 Y68.284 E4.05564
G1 X74.453 Y68.140 E4.17072
G1 X75.547 Y68.140 E4.30068
G1 X76.505 Y68.284 E4.41576 F600.000
G1 X77.492 Y68.585 E4.53829
G1 X78.423 Y69.029 E4.66082
G1 X79.278 Y69.608 E4.78336
G1 X80.036 Y70.308 E4.90590
G1 X80.681 Y71.113 E5.02844
G1 X81.222 Y72.064 E5.15839
G1 X81.576 Y72.966 E5.27347
G1 X81.806 Y73.972 E5.39602
G1 X81.884 Y75.000 E5.51848
G1 X81.806 Y76.028 E5.64095
G1 X81.576 Y77.034 E5.76350
G1 X81.198 Y77.994 E5.88604
G1 X80.681 Y78.887 E6.00859
G1 X80.075 Y79.647 E6.12401
G1 F1800.000 E5.12401
G1 Z1.400 F7800.000
G92 E0
G1 X75.528 Y67.740 F7800.000
G1 X80.546 Y80.169 F7800.000
G1 Z0.400 F7800.000
G1 E1.00000 F1800.000
G1 X80.187 Y80.554 E1.06251 F600.000
G1 X79.382 Y81.208 E1.18569
G1 X78.496 Y81.747 E1.30887
G1 X77.545 Y82.160 E1.43204
G1 X76.546 Y82.440 E1.55523
G1 X75.519 Y82.581 E1.67841
G1 X74.481 Y82.581 E1.80158
G1 X73.454 Y82.440 E1.92476
G1 X72.455 Y82.160 E2.04795
G1 X71.504 Y81.747 E2.17112
G1 X70.618 Y81.208 E2.29430
G1 X69.813 Y80.554 E2.41747
G1 X69.105 Y79.796 E2.54065
G1 X68.507 Y78.948 E2.66383
G1 X68.030 Y78.027 E2.78701
G1 X67.683 Y77.050 E2.91019
G1 X67.472 Y76.035 E3.03336
G1 X67.401 Y75.000 E3.15654
G1 X67.472 Y73.965 E3.27972
G1 X67.683 Y72.950 E3.40290
G1 X68.030 Y71.973 E3.52608
G1 X68.507 Y71.052 E3.64925
G1 X69.105 Y70.204 E3.77243
G1 X69.813 Y69.446 E3.89561
G1 X70.618 Y68.792 E4.01879
G1 X71.504 Y68.253 E4.14197
G1 X72.455 Y67.840 E4.26513
G1 X73.454 Y67.560 E4.38832
G1 X74.481 Y67.419 E4.51150
G1 X75.519 Y67.419 E4.63468
G1 X75.708 Y67.445 E4.65737
G1 X76.546 Y67.560 E4.75786 F600.000
G1 X77.545 Y67.840 E4.88105
G1 X78.496 Y68.253 E5.00421
G1 X79.382 Y68.792 E5.12739
G1 X80.187 Y69.446 E5.25057
G1 X80.895 Y70.204 E5.37375
G1 X81.493 Y71.052 E5.49693
G1 X81.970 Y71.973 E5.62011
G1 X82.317 Y72.950 E5.74328
G1 X82.528 Y73.965 E5.86646
G1 X82.599 Y75.000 E5.98964
G1 X82.528 Y76.035 E6.11282
G1 X82.317 Y77.050 E6.23600
G1 X81.970 Y78.027 E6.35917
G1 X81.493 Y78.948 E6.48235
G1 X80.895 Y79.796 E6.60553
G1 X80.587 Y80.125 E6.65907
G1 F1800.000 E5.65907
G1 Z1.400 F7800.000
G92 E0
G1 X76.062 Y67.630 F7800.000
M106 S255
M104 S210 ; set temperature
G1 X80.148 Y79.820 F7800.000
G1 Z0.700 F7800.000
G1 E1.00000 F1800.000
G1 X79.367 Y80.537 E1.05291 F600.000
G1 X78.603 Y81.059 E1.09907
G1 X78.487 Y81.129 E1.10583
G1 X77.528 Y81.583 E1.15874
G1 X76.512 Y81.887 E1.21164
G1 X75.463 Y82.035 E1.26454
G1 X74.537 Y82.035 E1.31070
G1 X73.488 Y81.887 E1.36360
G1 X72.472 Y81.583 E1.41651
G1 X71.513 Y81.129 E1.46941
G1 X70.633 Y80.537 E1.52232
G1 X70.530 Y80.449 E1.52908
G1 X69.852 Y79.820 E1.57524
G1 X69.187 Y78.994 E1.62816
G1 X68.654 Y78.077 E1.68107
G1 X68.264 Y77.090 E1.73399
G1 X68.026 Y76.057 E1.78691
G1 X68.015 Y75.921 E1.79368
G1 X67.946 Y75.000 E1.83978
G1 X68.026 Y73.943 E1.89265
G1 X68.264 Y72.910 E1.94557
G1 X68.654 Y71.923 E1.99848
G1 X69.187 Y71.006 E2.05140
G1 X69.764 Y70.283 E2.09756
G1 X69.852 Y70.180 E2.10432
G1 X70.633 Y69.463 E2.15723
G1 X71.513 Y68.871 E2.21014
G1 X72.472 Y68.417 E2.26305
G1 X73.488 Y68.113 E2.31596
G1 X74.402 Y67.975 E2.36211
G1 X75.598 Y67.975 E2.42175
G1 X76.512 Y68.113 E2.46790 F600.000
G1 X77.528 Y68.417 E2.52081
G1 X78.487 Y68.871 E2.57371
G1 X79.367 Y69.463 E2.62662
G1 X80.148 Y70.180 E2.67954
G1 X80.813 Y71.006 E2.73245
G1 X81.346 Y71.923 E2.78537
G1 X81.736 Y72.910 E2.83829
G1 X81.974 Y73.943 E2.89121
G1 X81.985 Y74.078 E2.89797
G1 X82.054 Y75.000 E2.94408
G1 X81.974 Y76.057 E2.99694
G1 X81.736 Y77.090 E3.04986
G1 X81.346 Y78.077 E3.10278
G1 X80.813 Y78.994 E3.15570
G1 X80.187 Y79.774 E3.20562
G1 X79.859 Y79.543 F7800.000
G1 X79.124 Y80.219 E3.25547 F600.000
G1 X78.385 Y80.723 E3.30006
G1 X77.393 Y81.206 E3.35515
G1 X76.436 Y81.494 E3.40499
G1 X75.447 Y81.635 E3.45484
G1 X74.553 Y81.635 E3.49942
G1 X73.564 Y81.494 E3.54927
G1 X72.510 Y81.165 E3.60436
G1 X71.705 Y80.778 E3.64894
G1 X70.876 Y80.219 E3.69879
G1 X70.072 Y79.462 E3.75388
G1 X69.515 Y78.764 E3.79847
G1 X69.013 Y77.900 E3.84832
G1 X68.646 Y76.970 E3.89817
G1 X68.621 Y76.867 E3.90344
G1 X68.423 Y75.996 E3.94803
G1 X68.348 Y75.000 E3.99787
G1 X68.423 Y74.004 E4.04771
G1 X68.646 Y73.030 E4.09756
G1 X69.013 Y72.100 E4.14742
G1 X69.460 Y71.326 E4.19201
G1 X70.141 Y70.457 E4.24709
G1 X70.876 Y69.781 E4.29694
G1 X71.705 Y69.222 E4.34679
G1 X72.607 Y68.794 E4.39664
G1 X73.461 Y68.531 E4.44122
G1 X74.553 Y68.365 E4.49631
G1 X75.447 Y68.365 E4.54090 F600.000
G1 X76.436 Y68.506 E4.59074
G1 X77.393 Y68.794 E4.64059
G1 X78.295 Y69.222 E4.69044
G1 X79.124 Y69.781 E4.74029
G1 X79.859 Y70.457 E4.79014
G1 X80.485 Y71.236 E4.83999
G1 X80.987 Y72.100 E4.88984
G1 X81.354 Y73.030 E4.93970
G1 X81.577 Y74.004 E4.98955
G1 X81.652 Y75.000 E5.03939
G1 X81.577 Y75.996 E5.08923
G1 X81.354 Y76.970 E5.13909
G1 X80.987 Y77.900 E5.18894
G1 X80.485 Y78.764 E5.23880
G1 X79.898 Y79.497 E5.28566
G1 F1800.000 E4.28566
G1 Z1.700 F7800.000
G92 E0
G1 X74.484 Y67.971 F7800.000
G1 X80.392 Y80.041 F7800.000
G1 Z0.700 F7800.000
G1 E1.00000 F1800.000
G1 X80.050 Y80.407 E1.02502 F600.000
G1 X79.267 Y81.044 E1.07540
G1 X78.404 Y81.569 E1.12578
G1 X77.478 Y81.971 E1.17615
G1 X76.505 Y82.244 E1.22654
G1 X75.505 Y82.381 E1.27692
G1 X74.495 Y82.381 E1.32730
G1 X73.495 Y82.244 E1.37768
G1 X72.522 Y81.971 E1.42807
G1 X72.109 Y81.792 E1.45054
G1 X71.596 Y81.569 E1.47843
G1 X70.733 Y81.044 E1.52881
G1 X69.950 Y80.407 E1.57919
G1 X69.261 Y79.669 E1.62957
G1 X68.678 Y78.844 E1.67995
G1 X68.214 Y77.948 E1.73033
G1 X67.876 Y76.996 E1.78071
G1 X67.670 Y76.007 E1.83109
G1 X67.601 Y75.000 E1.88147
G1 X67.670 Y73.993 E1.93184
G1 X67.876 Y73.004 E1.98222
G1 X68.214 Y72.052 E2.03260
G1 X68.678 Y71.156 E2.08298
G1 X69.261 Y70.331 E2.13336
G1 X69.950 Y69.593 E2.18374
G1 X70.733 Y68.956 E2.23412
G1 X71.596 Y68.431 E2.28450
G1 X72.522 Y68.029 E2.33486
G1 X73.495 Y67.756 E2.38526
G1 X74.495 Y67.619 E2.43563
G1 X75.505 Y67.619 E2.48601 F600.000
G1 X76.505 Y67.756 E2.53639
G1 X76.939 Y67.878 E2.55886
G1 X77.478 Y68.029 E2.58679
G1 X78.404 Y68.431 E2.63715
G1 X79.267 Y68.956 E2.68753
G1 X80.050 Y69.593 E2.73791
G1 X80.739 Y70.331 E2.78829
G1 X81.322 Y71.156 E2.83867
G1 X81.786 Y72.052 E2.88904
G1 X82.124 Y73.004 E2.93942
G1 X82.330 Y73.993 E2.98980
G1 X82.399 Y75.000 E3.04018
G1 X82.330 Y76.007 E3.09056
G1 X82.124 Y76.996 E3.14094
G1 X81.786 Y77.948 E3.19132
G1 X81.322 Y78.844 E3.24170
G1 X80.739 Y79.669 E3.29208
G1 X80.433 Y79.997 E3.31444
G1 X80.685 Y80.314 F7800.000
G1 X80.324 Y80.700 E3.34083 F600.000
G1 X79.498 Y81.372 E3.39394
G1 X78.588 Y81.925 E3.44704
G1 X77.612 Y82.349 E3.50014
G1 X76.587 Y82.636 E3.55326
G1 X75.532 Y82.781 E3.60637
G1 X74.468 Y82.781 E3.65948
G1 X73.413 Y82.636 E3.71259
G1 X72.388 Y82.349 E3.76571
G1 X71.412 Y81.925 E3.81881
G1 X70.502 Y81.372 E3.87192
G1 X69.676 Y80.700 E3.92503
G1 X68.950 Y79.922 E3.97813
G1 X68.336 Y79.053 E4.03124
G1 X67.846 Y78.107 E4.08435
G1 X67.490 Y77.104 E4.13746
G1 X67.273 Y76.062 E4.19057
G1 X67.200 Y75.000 E4.24368
G1 X67.273 Y73.938 E4.29679
G1 X67.490 Y72.896 E4.34990
G1 X67.846 Y71.893 E4.40301
G1 X68.336 Y70.947 E4.45612
G1 X68.950 Y70.078 E4.50923
G1 X69.676 Y69.300 E4.56233
G1 X70.502 Y68.628 E4.61544
G1 X71.412 Y68.075 E4.66855
G1 X72.388 Y67.651 E4.72165
G1 X73.413 Y67.364 E4.77477
G1 X74.468 Y67.219 E4.82788
G1 X75.532 Y67.219 E4.88099
G1 X76.114 Y67.299 E4.91027
G1 X76.587 Y67.364 E4.93410 F600.000
G1 X77.612 Y67.651 E4.98722
G1 X78.588 Y68.075 E5.04032
G1 X79.498 Y68.628 E5.09342
G1 X80.324 Y69.300 E5.14653
G1 X81.050 Y70.078 E5.19964
G1 X81.664 Y70.947 E5.25275
G1 X82.154 Y71.893 E5.30586
G1 X82.510 Y72.896 E5.35897
G1 X82.727 Y73.938 E5.41208
G1 X82.800 Y75.000 E5.46519
G1 X82.727 Y76.062 E5.51830
G1 X82.510 Y77.104 E5.57141
G1 X82.154 Y78.107 E5.62451
G1 X81.664 Y79.053 E5.67762
G1 X81.050 Y79.922 E5.73073
G1 X80.726 Y80.270 E5.75446
G1 F1800.000 E4.75446
G1 Z1.700 F7800.000
G92 E0
G1 X76.467 Y67.487 F7800.000
G1 X80.121 Y79.811 F7800.000
G1 Z1.000 F7800.000
G1 E1.00000 F1800.000
G1 X79.339 Y80.525 E1.05283 F600.000
G1 X78.617 Y81.018 E1.09644
G1 X78.459 Y81.114 E1.10567
G1 X77.501 Y81.565 E1.15850
G1 X76.486 Y81.865 E1.21132
G1 X75.437 Y82.010 E1.26414
G1 X74.563 Y82.010 E1.30775
G1 X73.514 Y81.865 E1.36057
G1 X72.499 Y81.565 E1.41339
G1 X71.541 Y81.114 E1.46622
G1 X70.661 Y80.525 E1.51905
G1 X70.520 Y80.405 E1.52827
G1 X69.879 Y79.811 E1.57189
G1 X69.214 Y78.987 E1.62472
G1 X68.680 Y78.072 E1.67756
G1 X68.290 Y77.087 E1.73040
G1 X68.052 Y76.055 E1.78324
G1 X68.038 Y75.871 E1.79247
G1 X67.973 Y75.000 E1.83603
G1 X68.052 Y73.945 E1.88882
G1 X68.290 Y72.913 E1.94166
G1 X68.680 Y71.928 E1.99450
G1 X69.214 Y71.013 E2.04734
G1 X69.759 Y70.330 E2.09095
G1 X69.879 Y70.189 E2.10018
G1 X70.661 Y69.475 E2.15301
G1 X71.541 Y68.886 E2.20584
G1 X72.499 Y68.435 E2.25867
G1 X73.514 Y68.135 E2.31149
G1 X74.379 Y68.004 E2.35510
G1 X74.563 Y67.990 E2.36433
G1 X75.621 Y68.004 E2.41714
G1 X76.486 Y68.135 E2.46075 F600.000
G1 X77.501 Y68.435 E2.51358
G1 X78.459 Y68.886 E2.56640
G1 X79.339 Y69.475 E2.61923
G1 X80.121 Y70.189 E2.67206
G1 X80.786 Y71.013 E2.72490
G1 X81.320 Y71.928 E2.77774
G1 X81.710 Y72.913 E2.83058
G1 X81.948 Y73.945 E2.88342
G1 X81.962 Y74.129 E2.89265
G1 X82.027 Y75.000 E2.93621
G1 X81.948 Y76.055 E2.98900
G1 X81.710 Y77.087 E3.04184
G1 X81.320 Y78.072 E3.09468
G1 X80.786 Y78.987 E3.14752
G1 X80.160 Y79.765 E3.19736
G1 X79.832 Y79.533 F7800.000
G1 X79.096 Y80.207 E3.24713 F600.000
G1 X78.400 Y80.682 E3.28917
G1 X78.268 Y80.763 E3.29691
G1 X77.365 Y81.188 E3.34667
G1 X76.409 Y81.472 E3.39644
G1 X75.421 Y81.610 E3.44620
G1 X74.579 Y81.610 E3.48824
G1 X73.591 Y81.472 E3.53800
G1 X72.635 Y81.188 E3.58776
G1 X72.492 Y81.129 E3.59550
G1 X71.732 Y80.763 E3.63754
G1 X70.904 Y80.207 E3.68731
G1 X70.168 Y79.533 E3.73708
G1 X70.068 Y79.415 E3.74481
G1 X69.542 Y78.757 E3.78686
G1 X69.040 Y77.895 E3.83663
G1 X68.673 Y76.967 E3.88641
G1 X68.636 Y76.816 E3.89414
G1 X68.449 Y75.995 E3.93619
G1 X68.374 Y75.000 E3.98594
G1 X68.449 Y74.005 E4.03570
G1 X68.673 Y73.033 E4.08548
G1 X69.040 Y72.105 E4.13526
G1 X69.461 Y71.376 E4.17730
G1 X69.542 Y71.243 E4.18504
G1 X70.168 Y70.467 E4.23481
G1 X70.904 Y69.793 E4.28458
G1 X71.732 Y69.237 E4.33435
G1 X72.635 Y68.812 E4.38411
G1 X73.440 Y68.564 E4.42616
G1 X73.591 Y68.528 E4.43389
G1 X74.579 Y68.390 E4.48365
G1 X75.421 Y68.390 E4.52569 F600.000
G1 X76.409 Y68.528 E4.57545
G1 X77.365 Y68.812 E4.62522
G1 X78.268 Y69.237 E4.67498
G1 X79.096 Y69.793 E4.72475
G1 X79.832 Y70.467 E4.77452
G1 X80.458 Y71.243 E4.82430
G1 X80.960 Y72.105 E4.87407
G1 X81.327 Y73.033 E4.92385
G1 X81.551 Y74.005 E4.97362
G1 X81.626 Y75.000 E5.02338
G1 X81.551 Y75.995 E5.07314
G1 X81.327 Y76.967 E5.12292
G1 X80.960 Y77.895 E5.17270
G1 X80.458 Y78.757 E5.22247
G1 X79.871 Y79.488 E5.26925
G1 F1800.000 E4.26925
G1 Z2.000 F7800.000
G92 E0
G1 X74.510 Y67.996 F7800.000
G1 X80.384 Y80.049 F7800.000
G1 Z1.000 F7800.000
G1 E1.00000 F1800.000
G1 X80.050 Y80.407 E1.02443 F600.000
G1 X79.267 Y81.044 E1.07481
G1 X78.404 Y81.569 E1.12519
G1 X77.478 Y81.971 E1.17555
G1 X76.505 Y82.244 E1.22595
G1 X75.505 Y82.381 E1.27633
G1 X74.495 Y82.381 E1.32671
G1 X73.495 Y82.244 E1.37708
G1 X72.522 Y81.971 E1.42749
G1 X72.409 Y81.922 E1.43361
G1 X71.596 Y81.569 E1.47784
G1 X70.733 Y81.044 E1.52822
G1 X69.950 Y80.407 E1.57860
G1 X69.261 Y79.669 E1.62898
G1 X68.678 Y78.844 E1.67936
G1 X68.214 Y77.948 E1.72974
G1 X67.876 Y76.996 E1.78012
G1 X67.670 Y76.007 E1.83049
G1 X67.601 Y75.000 E1.88087
G1 X67.670 Y73.993 E1.93125
G1 X67.876 Y73.004 E1.98163
G1 X68.214 Y72.052 E2.03201
G1 X68.678 Y71.156 E2.08239
G1 X69.261 Y70.331 E2.13277
G1 X69.950 Y69.593 E2.18315
G1 X70.733 Y68.956 E2.23353
G1 X71.596 Y68.431 E2.28391
G1 X72.522 Y68.029 E2.33426
G1 X73.495 Y67.756 E2.38466
G1 X74.495 Y67.619 E2.43504
G1 X75.505 Y67.619 E2.48542 F600.000
G1 X76.505 Y67.756 E2.53580
G1 X77.478 Y68.029 E2.58620
G1 X77.591 Y68.078 E2.59233
G1 X78.404 Y68.431 E2.63656
G1 X79.267 Y68.956 E2.68694
G1 X80.050 Y69.593 E2.73732
G1 X80.739 Y70.331 E2.78769
G1 X81.429 Y71.308 E2.84736
G1 X81.400 Y71.308 E2.84878
G1 X81.786 Y72.052 E2.89062
G1 X82.124 Y73.004 E2.94100
G1 X82.330 Y73.993 E2.99138
G1 X82.399 Y75.000 E3.04175
G1 X82.330 Y76.007 E3.09213
G1 X82.124 Y76.996 E3.14251
G1 X81.786 Y77.948 E3.19289
G1 X81.322 Y78.844 E3.24327
G1 X80.739 Y79.669 E3.29365
G1 X80.425 Y80.005 E3.31660
G1 X80.677 Y80.322 F7800.000
G1 X80.324 Y80.700 E3.34240 F600.000
G1 X79.498 Y81.372 E3.39551
G1 X78.588 Y81.925 E3.44862
G1 X77.612 Y82.349 E3.50170
G1 X76.587 Y82.636 E3.55484
G1 X75.532 Y82.781 E3.60794
G1 X74.468 Y82.781 E3.66105
G1 X73.413 Y82.636 E3.71416
G1 X72.388 Y82.349 E3.76730
G1 X71.412 Y81.925 E3.82038
G1 X70.502 Y81.372 E3.87349
G1 X69.676 Y80.700 E3.92660
G1 X68.950 Y79.922 E3.97971
G1 X68.336 Y79.053 E4.03282
G1 X67.846 Y78.107 E4.08593
G1 X67.490 Y77.104 E4.13903
G1 X67.273 Y76.062 E4.19214
G1 X67.200 Y75.000 E4.24525
G1 X67.273 Y73.938 E4.29836
G1 X67.490 Y72.896 E4.35147
G1 X67.846 Y71.893 E4.40458
G1 X68.336 Y70.947 E4.45769
G1 X68.950 Y70.078 E4.51080
G1 X69.676 Y69.300 E4.56391
G1 X70.502 Y68.628 E4.61702
G1 X71.412 Y68.075 E4.67013
G1 X72.388 Y67.651 E4.72321
G1 X73.413 Y67.364 E4.77634
G1 X74.468 Y67.219 E4.82945
