; generated by Slic3r 1.1.7 on 2014-12-13 at 22:18:50

; perimeters extrusion width = 0.40mm
; infill extrusion width = 0.67mm
; solid infill extrusion width = 0.67mm
; top infill extrusion width = 0.67mm

G21 ; set units to millimeters
M107
M104 S200 ; set temperature
G28; Home all axes
G29; Calibrate bed leveling (z-axis)
G91; Relative positioning
G1 X-160 Y160 Z15 F5000; Lift nozzle, return to origin
G90; Absolute positioning again
;G28 X ; Go to corner x
;G28 Y ; Go to corner y

M109 S200 ; wait for temperature to be reached
G90 ; use absolute coordinates
G92 E0
M82 ; use absolute distances for extrusion
G1 F1800.000 E-1.00000
G1 Z0.500 F7800.000
G92 E0
G1 X53.194 Y53.798 F7800.000
G1 Z0.200 F7800.000
G1 E1.00000 F1800.000
G1 X54.932 Y52.408 E1.04067 F900.000
G1 X57.900 Y51.657 E1.09661
G1 X92.100 Y51.657 E1.72148
G1 X94.290 Y52.054 E1.76215
G1 X96.202 Y53.194 E1.80282 F900.000
G1 X97.592 Y54.932 E1.84349
G1 X98.343 Y57.900 E1.89942
G1 X98.343 Y92.100 E2.52430
G1 X97.946 Y94.290 E2.56497
G1 X96.806 Y96.202 E2.60564
G1 X95.068 Y97.592 E2.64631
G1 X92.100 Y98.343 E2.70224
G1 X57.900 Y98.343 E3.32712
G1 X55.710 Y97.946 E3.36779
G1 X53.798 Y96.806 E3.40846
G1 X52.408 Y95.068 E3.44913
G1 X51.657 Y92.100 E3.50506
G1 X51.657 Y57.900 E4.12994
G1 X52.054 Y55.710 E4.17061
G1 X53.163 Y53.850 E4.21018
G1 F1800.000 E3.21018
G1 Z0.500 F7800.000
G92 E0
G1 X80.804 Y68.228 F7800.000
G1 Z0.200 F7800.000
G1 E1.00000 F1800.000
G1 X78.722 Y68.228 E1.03803 F450.000
G1 X78.722 Y67.036 E1.05981
G1 X80.804 Y67.036 E1.09784
G1 X80.804 Y66.671 E1.10451
G1 X80.528 Y66.709 E1.10959
G1 X80.518 Y66.467 E1.11403
G1 X80.372 Y66.588 E1.11749
G1 X80.086 Y66.704 E1.12312
G1 X79.788 Y66.735 E1.12859
G1 X79.486 Y66.691 E1.13417
G1 X79.202 Y66.560 E1.13989
G1 X78.958 Y66.344 E1.14585
G1 X78.793 Y66.066 E1.15175
G1 X78.700 Y65.721 E1.15829
G1 X78.677 Y65.389 E1.16437
G1 X78.690 Y65.151 E1.16873
G1 X78.734 Y64.903 E1.17331
G1 X78.832 Y64.668 E1.17797
G1 X78.998 Y64.395 E1.18381
G1 X78.722 Y64.395 E1.18885
G1 X78.722 Y61.803 E1.23620
G1 X80.804 Y61.803 E1.27423
G1 X80.804 Y61.421 E1.28121
G1 X78.722 Y61.421 E1.31925
G1 X78.722 Y60.229 E1.34102
G1 X80.804 Y60.229 E1.37905
G1 X80.804 Y59.486 E1.39264
G1 X81.913 Y59.486 E1.41291
G1 X81.913 Y64.347 E1.50173
G1 X81.620 Y64.347 E1.50709
G1 X81.844 Y64.729 E1.51519
G1 X81.921 Y65.000 E1.52034
G1 X81.974 Y65.000 E1.52131
G1 X81.945 Y65.585 E1.53201
G1 X81.905 Y65.826 E1.53648
G1 X81.811 Y66.057 E1.54103
G1 X81.671 Y66.293 E1.54604
G1 X81.913 Y66.293 E1.55046
G1 X81.913 Y68.970 E1.59936
G1 X80.804 Y68.970 E1.61964
G1 X80.804 Y68.288 E1.63210
G1 F1800.000 E0.63210
G1 Z0.500 F7800.000
G92 E0
G1 X80.691 Y62.752 F7800.000
G1 Z0.200 F7800.000
G1 E1.00000 F1800.000
G1 X80.691 Y64.010 E1.02298 F315.000
G1 X80.069 Y64.010 E1.03435
G1 X80.069 Y62.752 E1.05733
G1 X79.587 Y62.752 E1.06614
G1 X79.587 Y64.236 E1.09325
G1 X79.574 Y64.152 E1.09480
G1 X78.965 Y64.152 E1.10592
G1 X78.965 Y62.046 E1.14439
G1 X81.047 Y62.046 E1.18242
G1 X81.047 Y61.178 E1.19828
G1 X78.965 Y61.178 E1.23632
G1 X78.965 Y60.472 E1.24921
G1 X81.047 Y60.472 E1.28725
G1 X81.047 Y59.729 E1.30083
G1 X81.670 Y59.729 E1.31223
G1 X81.670 Y64.104 E1.39217
G1 X81.047 Y64.104 E1.40356
G1 X81.047 Y62.752 E1.42826
G1 X80.751 Y62.752 E1.43366
G1 F1800.000 E0.43366
G1 Z0.500 F7800.000
G92 E0
G1 X79.600 Y65.156 F7800.000
G1 Z0.200 F7800.000
G1 E1.00000 F1800.000
G1 X79.570 Y65.224 E1.00137 F315.000
G1 X79.548 Y65.393 E1.00447
G1 X79.566 Y65.562 E1.00757
G1 X79.593 Y65.631 E1.00894
G1 X79.631 Y65.698 E1.01035
G1 X79.712 Y65.766 E1.01228
G1 X79.793 Y65.783 E1.01379
G1 X79.864 Y65.772 E1.01510
G1 X79.958 Y65.616 E1.01841
G1 X80.166 Y64.891 E1.03220
G1 X80.331 Y64.610 E1.03816
G1 X80.458 Y64.498 E1.04126
G1 X80.594 Y64.410 E1.04421
G1 X80.749 Y64.364 E1.04717
G1 X80.915 Y64.342 E1.05022
G1 X81.131 Y64.374 E1.05420
G1 X81.328 Y64.468 E1.05820
G1 X81.501 Y64.625 E1.06247
G1 X81.619 Y64.825 E1.06671
G1 X81.693 Y65.089 E1.07172
G1 X81.705 Y65.243 E1.07455
G1 X81.719 Y65.243 E1.07480
G1 X81.703 Y65.559 E1.08058
G1 X81.670 Y65.760 E1.08430
G1 X81.593 Y65.949 E1.08803
G1 X81.484 Y66.132 E1.09192
G1 X81.347 Y66.252 E1.09525
G1 X81.199 Y66.345 E1.09844
G1 X81.116 Y66.369 E1.10003
G1 X81.140 Y66.536 E1.10310
G1 X81.670 Y66.536 E1.11279
G1 X81.670 Y68.727 E1.15283
G1 X81.047 Y68.727 E1.16422
G1 X81.047 Y67.985 E1.17778
G1 X78.965 Y67.985 E1.21581
G1 X78.965 Y67.279 E1.22871
G1 X81.047 Y67.279 E1.26674
G1 X81.047 Y66.392 E1.28294
G1 X80.759 Y66.432 E1.28824
G1 X80.739 Y65.969 E1.29672
G1 X80.584 Y65.942 E1.29959
G1 X80.537 Y66.060 E1.30191
G1 X80.414 Y66.237 E1.30584
G1 X80.246 Y66.377 E1.30984
G1 X80.026 Y66.466 E1.31417
G1 X79.793 Y66.490 E1.31846
G1 X79.556 Y66.456 E1.32283
G1 X79.336 Y66.355 E1.32725
G1 X79.147 Y66.187 E1.33186
G1 X79.019 Y65.971 E1.33646
G1 X78.941 Y65.680 E1.34196
G1 X78.920 Y65.387 E1.34733
G1 X78.932 Y65.178 E1.35115
G1 X78.968 Y64.972 E1.35497
G1 X79.050 Y64.779 E1.35880
G1 X79.163 Y64.591 E1.36281
G1 X79.320 Y64.457 E1.36658
G1 X79.487 Y64.352 E1.37019
G1 X79.598 Y64.305 E1.37240
G1 X79.969 Y64.234 E1.37930
G1 X80.030 Y64.862 E1.39083
G1 X80.141 Y64.886 E1.39290
G1 X79.772 Y64.996 E1.39993
G1 X79.632 Y65.105 E1.40317
G1 F1800.000 E0.40317
G1 Z0.500 F7800.000
G92 E0
G1 X87.676 Y67.840 F7800.000
G1 Z0.200 F7800.000
G1 E1.00000 F1800.000
G1 X87.634 Y67.702 E1.00263 F450.000
G1 X86.963 Y67.702 E1.01489
G1 X86.963 Y66.511 E1.03666
G1 X89.045 Y66.511 E1.07469
G1 X89.045 Y66.127 E1.08171
G1 X86.963 Y66.127 E1.11974
G1 X86.963 Y64.935 E1.14151
G1 X89.045 Y64.935 E1.17955
G1 X89.045 Y64.486 E1.18775
G1 X88.071 Y64.486 E1.20554
G1 X88.071 Y64.628 E1.20813
G1 X86.963 Y64.628 E1.22837
G1 X86.963 Y61.318 E1.28885
G1 X87.676 Y60.840 E1.30452
G1 X87.634 Y60.702 E1.30716
G1 X86.963 Y60.702 E1.31941
G1 X86.963 Y59.511 E1.34118
G1 X90.154 Y59.511 E1.39949
G1 X90.143 Y61.253 E1.43132
G1 X90.069 Y61.624 E1.43823
G1 X89.832 Y62.037 E1.44693
G1 X90.154 Y62.037 E1.45282
G1 X90.143 Y68.253 E1.56640
G1 X90.069 Y68.624 E1.57331
G1 X89.917 Y68.889 E1.57890
G1 X89.689 Y69.086 E1.58440
G1 X89.407 Y69.210 E1.59004
G1 X89.116 Y69.247 E1.59540
G1 X88.999 Y69.237 E1.59754
G1 X88.961 Y69.401 E1.60062
G1 X90.154 Y69.866 E1.62402
G1 X90.154 Y70.868 E1.64232
G1 X88.910 Y71.366 E1.66681
G1 X88.923 Y71.510 E1.66946
G1 X89.162 Y71.558 E1.67392
G1 X89.456 Y71.695 E1.67985
G1 X89.742 Y71.885 E1.68611
G1 X89.942 Y72.133 E1.69194
G1 X90.094 Y72.398 E1.69752
G1 X90.169 Y72.692 E1.70307
G1 X90.198 Y72.988 E1.70850
G1 X90.176 Y73.249 E1.71328
G1 X90.117 Y73.509 E1.71815
G1 X89.912 Y73.912 E1.72642
G1 X90.154 Y73.912 E1.73083
G1 X90.154 Y77.406 E1.79467
G1 X89.651 Y77.406 E1.80386
G1 X89.942 Y77.744 E1.81200
G1 X90.074 Y77.982 E1.81697
G1 X90.171 Y78.317 E1.82334
G1 X90.198 Y78.656 E1.82956
G1 X90.171 Y78.957 E1.83508
G1 X90.098 Y79.258 E1.84075
G1 X89.950 Y79.532 E1.84644
G1 X89.644 Y79.930 E1.85561
G1 X90.154 Y79.930 E1.86494
G1 X90.154 Y80.957 E1.88370
G1 X89.585 Y81.306 E1.89590
G1 X89.625 Y81.447 E1.89859
G1 X90.154 Y81.447 E1.90826
G1 X90.154 Y82.603 E1.92938
G1 X86.963 Y82.603 E1.98768
G1 X86.963 Y81.561 E2.00672
G1 X87.504 Y81.227 E2.01835
G1 X87.464 Y81.085 E2.02103
G1 X86.963 Y81.085 E2.03019
G1 X86.963 Y79.930 E2.05131
G1 X87.471 Y79.930 E2.06059
G1 X87.167 Y79.536 E2.06968
G1 X87.019 Y79.263 E2.07535
G1 X86.946 Y78.963 E2.08100
G1 X86.919 Y78.661 E2.08653
G1 X86.946 Y78.359 E2.09208
G1 X87.017 Y78.057 E2.09775
G1 X87.165 Y77.782 E2.10345
G1 X87.453 Y77.406 E2.11210
G1 X86.963 Y77.406 E2.12104
G1 X86.963 Y76.214 E2.14282
G1 X89.045 Y76.214 E2.18085
G1 X89.045 Y75.847 E2.18755
G1 X86.963 Y75.847 E2.22559
G1 X86.963 Y74.656 E2.24736
G1 X89.045 Y74.656 E2.28539
G1 X89.045 Y74.392 E2.29022
G1 X88.879 Y74.456 E2.29347
G1 X88.689 Y73.660 E2.30843
G1 X88.541 Y73.655 E2.31113
G1 X88.292 Y74.439 E2.32616
G1 X87.768 Y74.259 E2.33629
G1 X87.556 Y74.158 E2.34059
G1 X87.367 Y74.014 E2.34493
G1 X87.188 Y73.836 E2.34953
G1 X87.065 Y73.622 E2.35404
G1 X86.977 Y73.407 E2.35828
G1 X86.935 Y73.181 E2.36249
G1 X86.919 Y72.953 E2.36666
G1 X86.950 Y72.667 E2.37192
G1 X87.026 Y72.380 E2.37734
G1 X87.116 Y72.226 E2.38061
G1 X87.025 Y72.121 E2.38314
G1 X86.963 Y72.145 E2.38436
G1 X86.963 Y70.853 E2.40798
G1 X87.532 Y70.634 E2.41912
G1 X87.532 Y70.108 E2.42872
G1 X86.963 Y69.902 E2.43978
G1 X86.963 Y68.318 E2.46872
G1 X87.626 Y67.874 E2.48330
G1 X88.252 Y67.459 F7800.000
G1 X87.206 Y67.459 E2.50241 F315.000
G1 X87.206 Y66.754 E2.51531
G1 X89.288 Y66.754 E2.55334
G1 X89.288 Y65.884 E2.56923
G1 X87.206 Y65.884 E2.60726
G1 X87.206 Y65.178 E2.62016
G1 X89.288 Y65.178 E2.65819
G1 X89.288 Y62.985 E2.69825
G1 X88.932 Y62.985 E2.70475
G1 X88.932 Y64.243 E2.72773
G1 X88.310 Y64.243 E2.73910
G1 X88.310 Y62.985 E2.76208
G1 X87.828 Y62.985 E2.77088
G1 X87.828 Y64.385 E2.79646
G1 X87.206 Y64.385 E2.80782
G1 X87.206 Y61.448 E2.86149
G1 X88.152 Y60.794 E2.88249
G1 X88.228 Y60.684 E2.88495
G1 X88.252 Y60.459 E2.88907
G1 X87.206 Y60.459 E2.90818
G1 X87.206 Y59.754 E2.92108
G1 X89.911 Y59.754 E2.97051
G1 X89.901 Y61.225 E2.99739
G1 X89.839 Y61.537 E3.00321
G1 X89.727 Y61.732 E3.00732
G1 X89.558 Y61.879 E3.01140
G1 X89.341 Y61.974 E3.01573
G1 X89.111 Y62.003 E3.01997
G1 X88.966 Y61.991 E3.02262
G1 X88.826 Y61.959 E3.02524
G1 X88.575 Y61.811 E3.03058
G1 X88.432 Y61.618 E3.03496
G1 X88.415 Y61.618 E3.03528
G1 X88.376 Y61.503 E3.03749
G1 X88.062 Y61.747 E3.04475
G1 X87.442 Y62.139 E3.05816
G1 X87.483 Y62.279 E3.06083
G1 X89.911 Y62.279 E3.10521
G1 X89.911 Y67.920 E3.20827
G1 X89.901 Y68.225 E3.21384
G1 X89.839 Y68.537 E3.21966
G1 X89.727 Y68.732 E3.22377
G1 X89.558 Y68.879 E3.22785
G1 X89.341 Y68.974 E3.23218
G1 X89.111 Y69.003 E3.23642
G1 X88.826 Y68.959 E3.24168
G1 X88.698 Y68.896 E3.24430
G1 X88.575 Y68.811 E3.24703
G1 X88.432 Y68.618 E3.25141
G1 X88.415 Y68.618 E3.25173
G1 X88.376 Y68.503 E3.25395
G1 X88.062 Y68.747 E3.26120
G1 X87.509 Y69.097 E3.27316
G1 X89.911 Y70.032 E3.32026
G1 X89.911 Y70.703 E3.33252
G1 X87.206 Y71.787 E3.38577
G1 X87.206 Y71.020 E3.39978
G1 X87.775 Y70.801 E3.41092
G1 X87.775 Y69.938 E3.42668
G1 X87.206 Y69.732 E3.43774
G1 X87.206 Y68.448 E3.46120
G1 X88.152 Y67.794 E3.48220
G1 X88.228 Y67.684 E3.48466
G1 X88.250 Y67.519 E3.48769
G1 F1800.000 E2.48769
G1 Z0.500 F7800.000
G92 E0
G1 X89.158 Y72.592 F7800.000
G1 Z0.200 F7800.000
G1 E1.00000 F1800.000
G1 X88.889 Y72.467 E1.00541 F315.000
G1 X88.738 Y72.445 E1.00821
G1 X88.402 Y72.444 E1.01434
G1 X88.243 Y72.466 E1.01727
G1 X88.095 Y72.518 E1.02014
G1 X87.960 Y72.590 E1.02295
G1 X87.891 Y72.666 E1.02481
G1 X87.837 Y72.751 E1.02665
G1 X87.796 Y72.956 E1.03046
G1 X87.821 Y73.105 E1.03324
G1 X87.855 Y73.172 E1.03460
G1 X87.896 Y73.231 E1.03591
G1 X88.055 Y73.347 E1.03951
G1 X88.352 Y73.447 E1.04523
G1 X88.136 Y74.128 E1.05830
G1 X87.860 Y74.034 E1.06364
G1 X87.683 Y73.949 E1.06722
G1 X87.526 Y73.830 E1.07081
G1 X87.382 Y73.687 E1.07453
G1 X87.284 Y73.515 E1.07814
G1 X87.211 Y73.338 E1.08164
G1 X87.176 Y73.150 E1.08513
G1 X87.163 Y72.958 E1.08865
G1 X87.189 Y72.711 E1.09319
G1 X87.252 Y72.474 E1.09767
G1 X87.375 Y72.262 E1.10215
G1 X87.536 Y72.065 E1.10679
G1 X87.764 Y71.909 E1.11185
G1 X88.005 Y71.793 E1.11674
G1 X88.267 Y71.738 E1.12163
G1 X88.536 Y71.718 E1.12655
G1 X88.814 Y71.737 E1.13165
G1 X89.086 Y71.790 E1.13671
G1 X89.337 Y71.907 E1.14177
G1 X89.576 Y72.066 E1.14702
G1 X89.741 Y72.271 E1.15181
G1 X89.866 Y72.490 E1.15643
G1 X89.929 Y72.735 E1.16104
G1 X89.954 Y72.990 E1.16573
G1 X89.935 Y73.211 E1.16979
G1 X89.887 Y73.426 E1.17381
G1 X89.787 Y73.622 E1.17782
G1 X89.655 Y73.808 E1.18200
G1 X89.368 Y74.022 E1.18853
G1 X89.413 Y74.155 E1.19109
G1 X89.911 Y74.155 E1.20020
G1 X89.911 Y77.163 E1.25516
G1 X88.659 Y77.163 E1.27803
G1 X88.653 Y77.350 E1.28146
G1 X88.888 Y77.368 E1.28578
G1 X89.224 Y77.464 E1.29216
G1 X89.424 Y77.575 E1.29634
G1 X89.599 Y77.718 E1.30048
G1 X89.741 Y77.883 E1.30445
G1 X89.848 Y78.075 E1.30846
G1 X89.931 Y78.361 E1.31389
G1 X89.954 Y78.655 E1.31928
G1 X89.930 Y78.917 E1.32410
G1 X89.870 Y79.170 E1.32885
G1 X89.745 Y79.399 E1.33361
G1 X89.580 Y79.613 E1.33855
G1 X89.347 Y79.776 E1.34376
G1 X89.100 Y79.896 E1.34877
G1 X88.831 Y79.953 E1.35379
G1 X88.555 Y79.973 E1.35884
G1 X88.281 Y79.953 E1.36387
G1 X88.014 Y79.897 E1.36885
G1 X87.769 Y79.778 E1.37384
G1 X87.536 Y79.616 E1.37901
G1 X87.372 Y79.403 E1.38393
G1 X87.247 Y79.175 E1.38867
G1 X87.187 Y78.923 E1.39341
G1 X87.163 Y78.661 E1.39821
G1 X87.186 Y78.398 E1.40304
G1 X87.246 Y78.144 E1.40781
G1 X87.370 Y77.914 E1.41257
G1 X87.534 Y77.699 E1.41752
G1 X87.764 Y77.538 E1.42265
G1 X88.007 Y77.419 E1.42759
G1 X88.271 Y77.363 E1.43253
G1 X88.437 Y77.350 E1.43558
G1 X88.430 Y77.163 E1.43900
G1 X87.206 Y77.163 E1.46137
G1 X87.206 Y76.457 E1.47427
G1 X89.288 Y76.457 E1.51230
G1 X89.288 Y75.604 E1.52788
G1 X87.206 Y75.604 E1.56591
G1 X87.206 Y74.899 E1.57881
G1 X89.288 Y74.899 E1.61684
G1 X89.288 Y74.036 E1.63260
G1 X89.050 Y74.129 E1.63725
G1 X88.884 Y73.431 E1.65035
G1 X89.122 Y73.339 E1.65503
G1 X89.230 Y73.245 E1.65764
G1 X89.298 Y73.118 E1.66028
G1 X89.321 Y72.963 E1.66313
G1 X89.308 Y72.856 E1.66511
G1 X89.281 Y72.757 E1.66699
G1 X89.198 Y72.637 E1.66965
G1 F1800.000 E0.66965
G1 Z0.500 F7800.000
G92 E0
G1 X88.359 Y80.984 F7800.000
G1 Z0.200 F7800.000
G1 E1.00000 F1800.000
G1 X88.319 Y80.843 E1.00268 F315.000
G1 X87.206 Y80.843 E1.02302
G1 X87.206 Y80.173 E1.03526
G1 X89.911 Y80.173 E1.08470
G1 X89.911 Y80.821 E1.09654
G1 X88.724 Y81.549 E1.12199
G1 X88.764 Y81.690 E1.12467
G1 X89.911 Y81.690 E1.14564
G1 X89.911 Y82.360 E1.15788
G1 X87.206 Y82.360 E1.20731
G1 X87.206 Y81.697 E1.21943
G1 X88.308 Y81.015 E1.24311
G1 X85.540 Y80.919 F7800.000
G1 X85.580 Y81.061 E1.24580 F450.000
G1 X86.109 Y81.061 E1.25547
G1 X86.109 Y82.217 E1.27659
G1 X85.690 Y82.217 E1.28424
G1 X85.649 Y82.355 E1.28687
G1 X85.696 Y82.387 E1.28792
G1 X85.897 Y82.635 E1.29375
G1 X86.048 Y82.900 E1.29932
G1 X86.123 Y83.194 E1.30487
G1 X86.153 Y83.490 E1.31031
G1 X86.130 Y83.751 E1.31509
G1 X86.072 Y84.010 E1.31995
G1 X85.950 Y84.249 E1.32485
G1 X85.706 Y84.593 E1.33256
G1 X86.109 Y84.593 E1.33993
G1 X86.109 Y87.137 E1.38640
G1 X84.999 Y87.137 E1.40668
G1 X84.999 Y87.043 E1.40840
G1 X84.026 Y87.043 E1.42618
G1 X84.026 Y87.185 E1.42878
G1 X82.918 Y87.185 E1.44902
G1 X82.918 Y84.593 E1.49637
G1 X83.400 Y84.593 E1.50517
G1 X83.142 Y84.338 E1.51180
G1 X82.966 Y83.993 E1.51887
G1 X82.911 Y83.993 E1.51988
G1 X82.874 Y83.455 E1.52974
G1 X82.904 Y83.168 E1.53500
G1 X82.980 Y82.882 E1.54042
G1 X83.130 Y82.625 E1.54585
G1 X83.324 Y82.386 E1.55148
G1 X83.372 Y82.354 E1.55253
G1 X83.329 Y82.217 E1.55515
G1 X82.918 Y82.217 E1.56267
G1 X82.918 Y81.175 E1.58171
G1 X83.459 Y80.840 E1.59334
G1 X83.419 Y80.699 E1.59602
G1 X82.918 Y80.699 E1.60518
G1 X82.918 Y78.827 E1.63939
G1 X83.487 Y78.608 E1.65052
G1 X83.487 Y78.083 E1.66013
G1 X82.918 Y77.876 E1.67119
G1 X82.918 Y73.377 E1.75340
G1 X83.630 Y72.899 E1.76907
G1 X83.588 Y72.761 E1.77170
G1 X82.918 Y72.761 E1.78396
G1 X82.918 Y71.569 E1.80573
G1 X83.423 Y71.569 E1.81497
G1 X83.122 Y71.179 E1.82398
G1 X82.973 Y70.906 E1.82965
G1 X82.901 Y70.606 E1.83530
G1 X82.874 Y70.304 E1.84083
G1 X82.900 Y70.002 E1.84638
G1 X82.940 Y69.833 E1.84955
G1 X82.900 Y69.833 E1.85028
G1 X83.120 Y69.425 E1.85874
G1 X83.318 Y69.165 E1.86473
G1 X83.595 Y68.971 E1.87089
G1 X83.881 Y68.831 E1.87672
G1 X83.982 Y68.809 E1.87861
G1 X83.982 Y67.902 E1.89518
G1 X82.918 Y67.902 E1.91463
G1 X82.918 Y65.989 E1.94960
G1 X83.630 Y65.511 E1.96527
G1 X83.588 Y65.373 E1.96791
G1 X82.918 Y65.373 E1.98016
G1 X82.918 Y61.845 E2.04462
G1 X84.233 Y61.845 E2.06865
G1 X84.082 Y61.680 E2.07273
G1 X83.974 Y61.493 E2.07668
G1 X83.905 Y61.289 E2.08061
G1 X83.869 Y60.976 E2.08637
G1 X83.863 Y60.702 E2.09137
G1 X82.918 Y60.702 E2.10864
G1 X82.918 Y59.511 E2.13041
G1 X86.109 Y59.511 E2.18872
G1 X86.105 Y60.989 E2.21573
G1 X86.063 Y61.360 E2.22255
G1 X85.924 Y61.664 E2.22865
G1 X85.750 Y61.845 E2.23326
G1 X86.109 Y61.845 E2.23982
G1 X86.097 Y65.923 E2.31433
G1 X86.024 Y66.295 E2.32125
G1 X85.784 Y66.711 E2.33002
G1 X86.109 Y66.711 E2.33595
G1 X86.109 Y69.114 E2.37986
G1 X85.662 Y69.114 E2.38803
G1 X85.896 Y69.387 E2.39460
