; generated by Slic3r 1.1.7 on 2014-12-13 at 01:39:22

; perimeters extrusion width = 0.40mm
; infill extrusion width = 0.67mm
; solid infill extrusion width = 0.67mm
; top infill extrusion width = 0.67mm

G21 ; set units to millimeters
M107
M104 S200 ; set temperature
G28; Home all axes
G29; Calibrate bed leveling (z-axis)
G91; Relative positioning
G1 X-160 Y160 Z15 F5000; Lift nozzle, return to origin
G90; Absolute positioning again
;G28 X ; Go to corner x
;G28 Y ; Go to corner y

M109 S200 ; wait for temperature to be reached
G90 ; use absolute coordinates
G92 E0
M82 ; use absolute distances for extrusion
G1 F1800.000 E-1.00000
G1 Z0.500 F7800.000
G92 E0
G1 X43.228 Y63.856 F7800.000
G1 Z0.200 F7800.000
G1 E1.00000 F1800.000
G1 X45.095 Y62.643 E1.04067 F900.000
G1 X47.510 Y62.157 E1.08568
G1 X102.490 Y62.157 E2.09024
G1 X104.680 Y62.554 E2.13091
G1 X106.592 Y63.694 E2.17158 F900.000
G1 X107.982 Y65.432 E2.21225
G1 X108.703 Y67.789 E2.25728
G1 X108.743 Y68.500 E2.27029
G1 X108.713 Y82.111 E2.51899
G1 X108.703 Y82.211 E2.52083
G1 X108.094 Y84.352 E2.56150
G1 X106.772 Y86.143 E2.60217
G1 X104.906 Y87.357 E2.64283
G1 X102.490 Y87.843 E2.68786
G1 X47.510 Y87.843 E3.69242
G1 X45.320 Y87.446 E3.73309
G1 X43.408 Y86.306 E3.77376
G1 X42.018 Y84.568 E3.81443
G1 X41.297 Y82.212 E3.85944
G1 X41.257 Y81.500 E3.87247
G1 X41.297 Y67.788 E4.12301
G1 X41.907 Y65.647 E4.16368
G1 X43.193 Y63.905 E4.20325
G1 F1800.000 E3.20325
G1 Z0.500 F7800.000
G92 E0
G1 X66.625 Y79.089 F7800.000
G1 Z0.200 F7800.000
G1 E1.00000 F1800.000
G1 X66.054 Y79.437 E1.01222 F315.000
G1 X65.553 Y79.663 E1.02227
G1 X64.972 Y79.848 E1.03341
G1 X64.373 Y79.961 E1.04454
G1 X63.765 Y80.000 E1.05568
G1 X63.156 Y79.965 E1.06682
G1 X62.557 Y79.856 E1.07795
G1 X61.975 Y79.675 E1.08908
G1 X61.419 Y79.424 E1.10022
G1 X60.899 Y79.107 E1.11136
G1 X60.420 Y78.729 E1.12249
G1 X59.991 Y78.296 E1.13363
G1 X59.652 Y77.863 E1.14368
G1 X59.334 Y77.344 E1.15482
G1 X59.081 Y76.789 E1.16595
G1 X58.898 Y76.207 E1.17709
G1 X58.787 Y75.608 E1.18823
G1 X58.750 Y75.000 E1.19936
G1 X58.787 Y74.392 E1.21049
G1 X58.898 Y73.792 E1.22163
G1 X59.081 Y73.211 E1.23277
G1 X59.334 Y72.656 E1.24390
G1 X59.652 Y72.137 E1.25504
G1 X59.991 Y71.704 E1.26509
G1 X60.420 Y71.271 E1.27623
G1 X60.899 Y70.893 E1.28736
G1 X61.419 Y70.576 E1.29850
G1 X61.975 Y70.325 E1.30964
G1 X62.557 Y70.144 E1.32077
G1 X63.156 Y70.035 E1.33190
G1 X63.765 Y70.000 E1.34304
G1 X64.314 Y70.033 E1.35309
G1 X64.972 Y70.152 E1.36531 F315.000
G1 X65.553 Y70.337 E1.37645
G1 X66.054 Y70.563 E1.38650
G1 X66.577 Y70.876 E1.39763
G1 X67.058 Y71.251 E1.40877
G1 X67.490 Y71.681 E1.41991
G1 X67.866 Y72.160 E1.43104
G1 X68.150 Y72.631 E1.44108
G1 X68.429 Y73.239 E1.45330
G1 X68.609 Y73.821 E1.46444
G1 X68.716 Y74.421 E1.47558
G1 X68.749 Y74.970 E1.48563
G1 X68.716 Y75.579 E1.49676
G1 X68.609 Y76.179 E1.50790
G1 X68.429 Y76.761 E1.51904
G1 X68.180 Y77.318 E1.53017
G1 X67.866 Y77.840 E1.54131
G1 X67.490 Y78.319 E1.55244
G1 X67.058 Y78.749 E1.56358
G1 X66.672 Y79.051 E1.57253
G1 X70.557 Y77.291 F7800.000
G1 X70.331 Y76.789 E1.58258 F315.000
G1 X70.136 Y76.149 E1.59480
G1 X70.033 Y75.549 E1.60593
G1 X70.000 Y75.000 E1.61598
G1 X70.033 Y74.451 E1.62602
G1 X70.148 Y73.792 E1.63824
G1 X70.331 Y73.211 E1.64938
G1 X70.584 Y72.656 E1.66051
G1 X70.902 Y72.137 E1.67165
G1 X71.241 Y71.704 E1.68170
G1 X71.670 Y71.271 E1.69284
G1 X72.149 Y70.893 E1.70397
G1 X72.723 Y70.551 E1.71619
G1 X73.225 Y70.325 E1.72624
G1 X73.750 Y70.162 E1.73628
G1 X74.348 Y70.045 E1.74741
G1 X75.015 Y70.000 E1.75963
G1 X75.564 Y70.033 E1.76968
G1 X76.222 Y70.152 E1.78190 F315.000
G1 X76.747 Y70.316 E1.79195
G1 X77.304 Y70.563 E1.80309
G1 X77.827 Y70.876 E1.81422
G1 X78.308 Y71.251 E1.82536
G1 X78.740 Y71.681 E1.83650
G1 X79.116 Y72.160 E1.84763
G1 X79.430 Y72.682 E1.85876
G1 X79.679 Y73.239 E1.86990
G1 X79.859 Y73.821 E1.88104
G1 X79.966 Y74.421 E1.89217
G1 X79.999 Y74.970 E1.90222
G1 X79.966 Y75.579 E1.91336
G1 X79.859 Y76.179 E1.92450
G1 X79.679 Y76.761 E1.93563
G1 X79.430 Y77.318 E1.94677
G1 X79.116 Y77.840 E1.95791
G1 X78.740 Y78.319 E1.96904
G1 X78.308 Y78.749 E1.98017
G1 X77.827 Y79.124 E1.99131
G1 X77.304 Y79.437 E2.00245
G1 X76.747 Y79.684 E2.01358
G1 X76.222 Y79.848 E2.02363
G1 X75.623 Y79.961 E2.03477
G1 X74.955 Y79.998 E2.04699
G1 X74.406 Y79.965 E2.05704
G1 X73.750 Y79.838 E2.06926
G1 X73.225 Y79.675 E2.07930
G1 X72.723 Y79.449 E2.08935
G1 X72.199 Y79.139 E2.10048
G1 X71.670 Y78.729 E2.11270
G1 X71.241 Y78.296 E2.12383
G1 X70.902 Y77.863 E2.13389
G1 X70.584 Y77.344 E2.14501
G1 F1800.000 E1.14501
G1 Z0.500 F7800.000
G92 E0
G1 X81.287 Y75.608 F7800.000
G1 Z0.200 F7800.000
G1 E1.00000 F1800.000
G1 X81.250 Y75.000 E1.01113 F315.000
G1 X81.287 Y74.392 E1.02226
G1 X81.398 Y73.792 E1.03340
G1 X81.562 Y73.267 E1.04345
G1 X81.834 Y72.656 E1.05567
G1 X82.152 Y72.137 E1.06681
G1 X82.531 Y71.659 E1.07794
G1 X82.920 Y71.271 E1.08799
G1 X83.399 Y70.893 E1.09913
G1 X83.919 Y70.576 E1.11027
G1 X84.475 Y70.325 E1.12140
G1 X85.056 Y70.144 E1.13253
G1 X85.656 Y70.035 E1.14367
G1 X86.265 Y70.000 E1.15481
G1 X86.814 Y70.033 E1.16486
G1 X87.472 Y70.152 E1.17708 F315.000
G1 X87.997 Y70.316 E1.18713
G1 X88.554 Y70.563 E1.19826
G1 X89.125 Y70.911 E1.21048
G1 X89.558 Y71.251 E1.22053
G1 X89.990 Y71.681 E1.23167
G1 X90.366 Y72.160 E1.24280
G1 X90.680 Y72.682 E1.25394
G1 X90.929 Y73.239 E1.26507
G1 X91.109 Y73.821 E1.27621
G1 X91.216 Y74.421 E1.28735
G1 X91.249 Y74.970 E1.29740
G1 X91.216 Y75.579 E1.30853
G1 X91.109 Y76.179 E1.31967
G1 X90.929 Y76.761 E1.33081
G1 X90.680 Y77.318 E1.34194
G1 X90.366 Y77.840 E1.35308
G1 X89.990 Y78.319 E1.36421
G1 X89.558 Y78.749 E1.37535
G1 X89.077 Y79.124 E1.38648
G1 X88.554 Y79.437 E1.39762
G1 X87.997 Y79.684 E1.40876
G1 X87.472 Y79.848 E1.41881
G1 X86.873 Y79.961 E1.42994
G1 X86.265 Y80.000 E1.44108
G1 X85.656 Y79.965 E1.45222
G1 X85.056 Y79.856 E1.46335
G1 X84.475 Y79.675 E1.47448
G1 X83.919 Y79.424 E1.48562
G1 X83.449 Y79.139 E1.49567
G1 X82.920 Y78.729 E1.50789
G1 X82.491 Y78.296 E1.51902
G1 X82.118 Y77.814 E1.53016
G1 X81.807 Y77.291 E1.54129
G1 X81.562 Y76.733 E1.55243
G1 X81.398 Y76.207 E1.56248
G1 X81.298 Y75.667 E1.57252
G1 F1800.000 E0.57252
G1 Z0.500 F7800.000
G92 E0
G1 X83.567 Y75.290 F7800.000
G1 Z0.200 F7800.000
G1 E1.00000 F1800.000
G1 X83.550 Y75.000 E1.00530 F450.000
G1 X83.561 Y74.755 E1.00978
G1 X83.656 Y74.250 E1.01917
G1 X83.735 Y74.018 E1.02365
G1 X83.942 Y73.602 E1.03214
G1 X84.092 Y73.377 E1.03707
G1 X84.248 Y73.189 E1.04155
G1 X84.627 Y72.842 E1.05094
G1 X84.830 Y72.704 E1.05541
G1 X85.066 Y72.574 E1.06034
G1 X85.524 Y72.400 E1.06929
G1 X85.762 Y72.345 E1.07376
G1 X86.225 Y72.301 E1.08226
G1 X86.519 Y72.314 E1.08764 F450.000
G1 X86.976 Y72.400 E1.09613
G1 X87.232 Y72.485 E1.10105
G1 X87.670 Y72.704 E1.11001
G1 X88.061 Y72.998 E1.11895
G1 X88.252 Y73.189 E1.12387
G1 X88.533 Y73.559 E1.13237
G1 X88.676 Y73.816 E1.13775
G1 X88.844 Y74.250 E1.14624
G1 X88.936 Y74.731 E1.15518
G1 X88.949 Y75.025 E1.16056
G1 X88.905 Y75.488 E1.16906
G1 X88.844 Y75.750 E1.17398
G1 X88.666 Y76.206 E1.18292
G1 X88.533 Y76.441 E1.18785
G1 X88.252 Y76.811 E1.19635
G1 X88.061 Y77.002 E1.20127
G1 X87.670 Y77.296 E1.21022
G1 X87.434 Y77.426 E1.21515
G1 X87.000 Y77.594 E1.22364
G1 X86.738 Y77.655 E1.22856
G1 X86.250 Y77.700 E1.23751
G1 X85.762 Y77.655 E1.24646
G1 X85.500 Y77.594 E1.25138
G1 X85.066 Y77.426 E1.25988
G1 X84.830 Y77.296 E1.26481
G1 X84.439 Y77.002 E1.27375
G1 X84.248 Y76.811 E1.27867
G1 X83.967 Y76.441 E1.28717
G1 X83.824 Y76.184 E1.29255
G1 X83.656 Y75.750 E1.30105
G1 X83.575 Y75.349 E1.30852
G1 F1800.000 E0.30852
G1 Z0.500 F7800.000
G92 E0
G1 X77.597 Y75.120 F7800.000
G1 Z0.200 F7800.000
G1 E1.00000 F1800.000
G1 X77.531 Y75.594 E1.00874 F450.000
G1 X77.458 Y75.846 E1.01355
G1 X77.273 Y76.261 E1.02184
G1 X77.120 Y76.505 E1.02710
G1 X76.808 Y76.868 E1.03584
G1 X76.456 Y77.154 E1.04414
G1 X76.208 Y77.301 E1.04939
G1 X75.790 Y77.477 E1.05769
G1 X75.535 Y77.544 E1.06250
G1 X75.060 Y77.599 E1.07124
G1 X74.796 Y77.591 E1.07606
G1 X74.348 Y77.517 E1.08436
G1 X74.097 Y77.438 E1.08917
G1 X73.666 Y77.231 E1.09791
G1 X73.279 Y76.949 E1.10665
G1 X73.091 Y76.765 E1.11146
G1 X72.814 Y76.405 E1.11976
G1 X72.682 Y76.177 E1.12458
G1 X72.505 Y75.732 E1.13332
G1 X72.444 Y75.476 E1.13813
G1 X72.401 Y75.024 E1.14643
G1 X72.411 Y74.761 E1.15125
G1 X72.499 Y74.291 E1.15998
G1 X72.583 Y74.041 E1.16479
G1 X72.788 Y73.636 E1.17309
G1 X72.937 Y73.418 E1.17791
G1 X73.108 Y73.218 E1.18272
G1 X73.466 Y72.901 E1.19146
G1 X73.877 Y72.655 E1.20021
G1 X74.120 Y72.554 E1.20502
G1 X74.582 Y72.434 E1.21375
G1 X75.036 Y72.401 E1.22205
G1 X75.299 Y72.417 E1.22687 F450.000
G1 X75.535 Y72.456 E1.23125
G1 X76.014 Y72.606 E1.24042
G1 X76.436 Y72.833 E1.24917
G1 X76.826 Y73.149 E1.25834
G1 X77.134 Y73.515 E1.26707
G1 X77.379 Y73.953 E1.27626
G1 X77.531 Y74.406 E1.28499
G1 X77.575 Y74.642 E1.28936
G1 X77.597 Y75.060 E1.29702
G1 F1800.000 E0.29702
G1 Z0.500 F7800.000
G92 E0
G1 X66.250 Y75.000 F7800.000
G1 Z0.200 F7800.000
G1 E1.00000 F1800.000
G1 X66.206 Y75.465 E1.00853 F450.000
G1 X66.146 Y75.714 E1.01322
G1 X65.981 Y76.126 E1.02132
G1 X65.854 Y76.350 E1.02603
G1 X65.567 Y76.717 E1.03455
G1 X65.381 Y76.895 E1.03925
G1 X65.020 Y77.152 E1.04734
G1 X64.771 Y77.281 E1.05247
G1 X64.329 Y77.432 E1.06100
G1 X63.891 Y77.495 E1.06909
G1 X63.610 Y77.495 E1.07423
G1 X63.171 Y77.432 E1.08232
G1 X62.924 Y77.360 E1.08702
G1 X62.500 Y77.165 E1.09555
G1 X62.284 Y77.025 E1.10025
G1 X61.950 Y76.734 E1.10834
G1 X61.781 Y76.540 E1.11304
G1 X61.529 Y76.147 E1.12158
G1 X61.355 Y75.714 E1.13010
G1 X61.294 Y75.465 E1.13479
G1 X61.251 Y75.024 E1.14289
G1 X61.261 Y74.766 E1.14760
G1 X61.348 Y74.308 E1.15612
G1 X61.432 Y74.065 E1.16081
G1 X61.529 Y73.853 E1.16508
G1 X61.781 Y73.460 E1.17362
G1 X61.950 Y73.266 E1.17831
G1 X62.303 Y72.961 E1.18683
G1 X62.521 Y72.824 E1.19154
G1 X62.924 Y72.640 E1.19964
G1 X63.171 Y72.568 E1.20433
G1 X63.633 Y72.503 E1.21286
G1 X64.100 Y72.525 E1.22139 F450.000
G1 X64.576 Y72.640 E1.23034
G1 X65.000 Y72.835 E1.23887
G1 X65.398 Y73.121 E1.24783
G1 X65.719 Y73.460 E1.25635
G1 X65.981 Y73.874 E1.26531
G1 X66.152 Y74.308 E1.27384
G1 X66.206 Y74.535 E1.27810
G1 X66.247 Y74.940 E1.28554
G1 F1800.000 E0.28554
G1 Z0.500 F7800.000
G92 E0
G1 X47.600 Y76.608 F7800.000
G1 Z0.200 F7800.000
G1 E1.00000 F1800.000
G1 X47.765 Y76.583 E1.00305 F315.000
G1 X47.831 Y76.789 E1.00700
G1 X48.084 Y77.344 E1.01813
G1 X48.402 Y77.863 E1.02927
G1 X48.741 Y78.296 E1.03932
G1 X49.170 Y78.729 E1.05046
G1 X49.699 Y79.139 E1.06268
G1 X50.169 Y79.424 E1.07273
G1 X50.725 Y79.675 E1.08386
G1 X51.306 Y79.856 E1.09499
G1 X51.906 Y79.965 E1.10613
G1 X52.455 Y79.998 E1.11618
G1 X53.123 Y79.961 E1.12840
G1 X53.722 Y79.848 E1.13953
G1 X54.247 Y79.684 E1.14958
G1 X54.804 Y79.437 E1.16072
G1 X55.375 Y79.089 E1.17294
G1 X55.808 Y78.749 E1.18299
G1 X56.240 Y78.319 E1.19413
G1 X56.616 Y77.840 E1.20526
G1 X56.900 Y77.369 E1.21531
G1 X57.179 Y76.761 E1.22752
G1 X57.359 Y76.179 E1.23866
G1 X57.466 Y75.579 E1.24980
G1 X57.499 Y75.030 E1.25985
G1 X57.458 Y74.362 E1.27207
G1 X57.359 Y73.821 E1.28212
G1 X57.179 Y73.239 E1.29326
G1 X56.900 Y72.631 E1.30547
G1 X56.616 Y72.160 E1.31552
G1 X56.240 Y71.681 E1.32665
G1 X55.808 Y71.251 E1.33779
G1 X55.375 Y70.911 E1.34784
G1 X54.804 Y70.563 E1.36006
G1 X54.247 Y70.316 E1.37119
G1 X53.722 Y70.152 E1.38124
G1 X53.123 Y70.039 E1.39238
G1 X52.455 Y70.002 E1.40460
G1 X51.906 Y70.035 E1.41465
G1 X51.306 Y70.144 E1.42579
G1 X50.725 Y70.325 E1.43692
G1 X50.169 Y70.576 E1.44805
G1 X49.699 Y70.861 E1.45810
G1 X49.170 Y71.270 E1.47032
G1 X48.741 Y71.704 E1.48146
G1 X48.402 Y72.137 E1.49151
G1 X48.084 Y72.656 E1.50265
G1 X47.831 Y73.211 E1.51378
G1 X47.765 Y73.417 E1.51773
G1 X47.600 Y73.392 E1.52078
G1 X47.600 Y68.500 E1.61015
G1 X102.400 Y68.500 E2.61142
G1 X102.400 Y73.391 E2.70079
G1 X102.235 Y73.417 E2.70384
G1 X102.179 Y73.239 E2.70725
G1 X101.930 Y72.682 E2.71838
G1 X101.616 Y72.160 E2.72952
G1 X101.240 Y71.681 E2.74065
G1 X100.808 Y71.251 E2.75179
G1 X100.327 Y70.876 E2.76292
G1 X99.804 Y70.563 E2.77406
G1 X99.247 Y70.316 E2.78520
G1 X98.722 Y70.152 E2.79525
G1 X98.064 Y70.033 E2.80747
G1 X97.515 Y70.000 E2.81752
G1 X96.906 Y70.035 E2.82866
G1 X96.250 Y70.162 E2.84087
G1 X95.725 Y70.325 E2.85091
G1 X95.169 Y70.576 E2.86205
G1 X94.649 Y70.893 E2.87319
G1 X94.216 Y71.232 E2.88324
G1 X93.741 Y71.704 E2.89546
G1 X93.402 Y72.137 E2.90551
G1 X93.084 Y72.656 E2.91664
G1 X92.831 Y73.211 E2.92778
G1 X92.636 Y73.851 E2.94000
G1 X92.537 Y74.392 E2.95005
G1 X92.500 Y75.000 E2.96118
G1 X92.537 Y75.608 E2.97231
G1 X92.636 Y76.149 E2.98236
G1 X92.831 Y76.789 E2.99458
G1 X93.084 Y77.344 E3.00572
G1 X93.402 Y77.863 E3.01686
G1 X93.741 Y78.296 E3.02691
G1 X94.216 Y78.768 E3.03912
G1 X94.649 Y79.107 E3.04918
G1 X95.169 Y79.424 E3.06031
G1 X95.725 Y79.675 E3.07145
G1 X96.250 Y79.838 E3.08149
G1 X96.906 Y79.965 E3.09371
G1 X97.515 Y80.000 E3.10485
G1 X98.064 Y79.967 E3.11490
G1 X98.722 Y79.848 E3.12712
G1 X99.247 Y79.684 E3.13717
G1 X99.804 Y79.437 E3.14830
G1 X100.327 Y79.124 E3.15944
G1 X100.808 Y78.749 E3.17058
G1 X101.240 Y78.319 E3.18171
G1 X101.616 Y77.840 E3.19284
G1 X101.930 Y77.318 E3.20398
G1 X102.179 Y76.761 E3.21512
G1 X102.235 Y76.583 E3.21852
G1 X102.400 Y76.609 E3.22157
G1 X102.400 Y81.500 E3.31095
G1 X47.600 Y81.500 E4.31221
G1 X47.600 Y76.668 E4.40049
G1 F1800.000 E3.40049
G1 Z0.500 F7800.000
G92 E0
G1 X94.700 Y75.000 F7800.000
G1 Z0.200 F7800.000
G1 E1.00000 F1800.000
G1 X94.745 Y74.501 E1.00915 F315.000
G1 X94.886 Y73.996 E1.01874
G1 X94.987 Y73.766 E1.02332
G1 X95.121 Y73.525 E1.02836
G1 X95.404 Y73.143 E1.03705
G1 X95.579 Y72.964 E1.04162
G1 X95.993 Y72.640 E1.05122
G1 X96.437 Y72.410 E1.06037
G1 X96.940 Y72.257 E1.06997
G1 X97.187 Y72.218 E1.07454
G1 X97.463 Y72.201 E1.07959
G1 X97.937 Y72.234 E1.08827 F315.000
G1 X98.422 Y72.357 E1.09741
G1 X98.677 Y72.460 E1.10244
G1 X99.111 Y72.710 E1.11160
G1 X99.493 Y73.034 E1.12074
G1 X99.677 Y73.239 E1.12577
G1 X99.942 Y73.633 E1.13446
G1 X100.066 Y73.880 E1.13950
G1 X100.224 Y74.354 E1.14864
G1 X100.275 Y74.625 E1.15367
G1 X100.297 Y75.126 E1.16283
G1 X100.271 Y75.400 E1.16786
G1 X100.156 Y75.886 E1.17700
G1 X99.967 Y76.323 E1.18568
G1 X99.811 Y76.580 E1.19118
G1 X99.510 Y76.949 E1.19987
G1 X99.309 Y77.137 E1.20490
G1 X98.900 Y77.425 E1.21405
G1 X98.446 Y77.635 E1.22319
G1 X98.182 Y77.715 E1.22822
G1 X97.688 Y77.794 E1.23737
G1 X97.187 Y77.782 E1.24652
G1 X96.697 Y77.682 E1.25566
G1 X96.437 Y77.590 E1.26069
G1 X96.210 Y77.485 E1.26527
G1 X95.788 Y77.215 E1.27442
G1 X95.579 Y77.036 E1.27945
G1 X95.247 Y76.662 E1.28859
G1 X94.987 Y76.234 E1.29775
G1 X94.878 Y75.981 E1.30278
G1 X94.745 Y75.499 E1.31192
G1 X94.705 Y75.060 E1.31997
G1 F1800.000 E0.31997
G1 Z0.500 F7800.000
G92 E0
G1 X54.897 Y75.000 F7800.000
G1 Z0.200 F7800.000
G1 E1.00000 F1800.000
G1 X54.874 Y75.351 E1.00643 F315.000
G1 X54.765 Y75.793 E1.01474
G1 X54.670 Y76.024 E1.01930
G1 X54.452 Y76.395 E1.02718
G1 X54.280 Y76.608 E1.03217
G1 X53.964 Y76.901 E1.04005
G1 X53.759 Y77.043 E1.04462
G1 X53.351 Y77.244 E1.05292
G1 X52.913 Y77.364 E1.06122
G1 X52.665 Y77.394 E1.06578
G1 X52.234 Y77.384 E1.07366
G1 X51.986 Y77.344 E1.07824
G1 X51.746 Y77.278 E1.08280
G1 X51.330 Y77.095 E1.09110
G1 X50.956 Y76.837 E1.09941
G1 X50.773 Y76.666 E1.10397
G1 X50.503 Y76.330 E1.11185
G1 X50.375 Y76.115 E1.11642
G1 X50.203 Y75.695 E1.12472
G1 X50.143 Y75.452 E1.12929
G1 X50.101 Y75.019 E1.13724
G1 X50.114 Y74.750 E1.14216
G1 X50.203 Y74.305 E1.15045
G1 X50.365 Y73.905 E1.15833
G1 X50.503 Y73.670 E1.16332
G1 X50.789 Y73.317 E1.17162
G1 X51.118 Y73.039 E1.17950
G1 X51.330 Y72.905 E1.18407
G1 X51.554 Y72.795 E1.18864
G1 X51.986 Y72.656 E1.19693
G1 X52.234 Y72.616 E1.20151
G1 X52.665 Y72.606 E1.20939
G1 X53.135 Y72.686 E1.21810 F315.000
G1 X53.560 Y72.847 E1.22640
G1 X53.964 Y73.099 E1.23511
G1 X54.296 Y73.409 E1.24341
G1 X54.564 Y73.776 E1.25171
G1 X54.757 Y74.186 E1.26000
G1 X54.874 Y74.649 E1.26872
G1 X54.897 Y74.940 E1.27406
G1 F1800.000 E0.27406
G1 Z0.500 F7800.000
G92 E0
G1 X102.332 Y73.503 F7800.000
G1 Z0.200 F7800.000
G1 E1.00000 F1800.000
G1 X102.429 Y74.368 E1.01592 F315.000
