; generated by Slic3r 1.1.7 on 2014-12-13 at 19:47:54

; perimeters extrusion width = 0.40mm
; infill extrusion width = 0.67mm
; solid infill extrusion width = 0.67mm
; top infill extrusion width = 0.67mm

G21 ; set units to millimeters
M107
M104 S200 ; set temperature
G28; Home all axes
G29; Calibrate bed leveling (z-axis)
G91; Relative positioning
G1 X-160 Y160 Z15 F5000; Lift nozzle, return to origin
G90; Absolute positioning again
;G28 X ; Go to corner x
;G28 Y ; Go to corner y

M109 S200 ; wait for temperature to be reached
G90 ; use absolute coordinates
G92 E0
M82 ; use absolute distances for extrusion
G1 F1800.000 E-1.00000
G1 Z0.500 F7800.000
G92 E0
G1 X35.336 Y57.908 F7800.000
G1 Z0.200 F7800.000
G1 E1.00000 F1800.000
G1 X38.304 Y57.157 E1.05594 F900.000
G1 X67.075 Y57.157 E1.58162
G1 X69.265 Y57.554 E1.62229 F900.000
G1 X71.177 Y58.694 E1.66296
G1 X72.019 Y59.588 E1.68539
G1 X72.236 Y59.877 E1.69200
G1 X72.578 Y60.413 E1.70362
G1 X73.098 Y61.455 E1.72490
G1 X73.212 Y61.748 E1.73064
G1 X73.468 Y62.586 E1.74666
G1 X73.633 Y63.436 E1.76247
G1 X73.704 Y64.500 E1.78196
G1 X73.686 Y85.976 E2.17435
G1 X73.526 Y87.160 E2.19619
G1 X73.193 Y88.300 E2.21788
G1 X72.710 Y89.356 E2.23909
G1 X72.240 Y90.117 E2.25544
G1 X72.019 Y90.412 E2.26219
G1 X70.367 Y91.904 E2.30286
G1 X68.297 Y92.722 E2.34353
G1 X67.075 Y92.843 E2.36596
G1 X38.304 Y92.843 E2.89164
G1 X36.114 Y92.446 E2.93231
G1 X34.202 Y91.306 E2.97298
G1 X32.812 Y89.568 E3.01365
G1 X32.061 Y86.600 E3.06958
G1 X32.061 Y63.400 E3.49348
G1 X32.458 Y61.210 E3.53415
G1 X33.598 Y59.298 E3.57482
G1 X35.289 Y57.945 E3.61439
G1 F1800.000 E2.61439
G1 Z0.500 F7800.000
G92 E0
G1 X64.162 Y79.434 F7800.000
G1 Z0.200 F7800.000
G1 E1.00000 F1800.000
G1 X64.906 Y79.434 E1.01358 F450.000
G1 X64.906 Y80.543 E1.03386
G1 X60.045 Y80.543 E1.12267
G1 X60.045 Y80.250 E1.12804
G1 X59.663 Y80.474 E1.13613
G1 X59.345 Y80.564 E1.14216
G1 X59.029 Y80.587 E1.14796
G1 X58.575 Y80.539 E1.15631
G1 X58.335 Y80.441 E1.16104
G1 X58.099 Y80.301 E1.16605
G1 X58.099 Y80.543 E1.17047
G1 X55.422 Y80.543 E1.21938
G1 X55.422 Y79.434 E1.23965
G1 X56.164 Y79.434 E1.25321
G1 X56.164 Y77.352 E1.29124
G1 X57.356 Y77.352 E1.31301
G1 X57.356 Y79.434 E1.35105
G1 X57.721 Y79.434 E1.35772
G1 X57.683 Y79.158 E1.36280
G1 X57.925 Y79.148 E1.36723
G1 X57.804 Y79.002 E1.37069
G1 X57.688 Y78.716 E1.37633
G1 X57.657 Y78.418 E1.38180
G1 X57.700 Y78.116 E1.38738
G1 X57.832 Y77.832 E1.39310
G1 X58.048 Y77.588 E1.39906
G1 X58.326 Y77.423 E1.40495
G1 X58.671 Y77.330 E1.41149
G1 X59.013 Y77.306 E1.41776
G1 X59.479 Y77.360 E1.42632
G1 X59.723 Y77.462 E1.43117
G1 X59.997 Y77.628 E1.43701
G1 X59.997 Y77.352 E1.44205
G1 X62.588 Y77.352 E1.48940
G1 X62.588 Y79.434 E1.52743
G1 X62.971 Y79.434 E1.53441
G1 X62.971 Y77.352 E1.57245
G1 X64.162 Y77.352 E1.59422
G1 X64.162 Y79.374 E1.63116
G1 X63.919 Y79.677 F7800.000
G1 X64.663 Y79.677 E1.64474 F315.000
G1 X64.663 Y80.300 E1.65614
G1 X60.288 Y80.300 E1.73608
G1 X60.288 Y79.677 E1.74747
G1 X61.640 Y79.677 E1.77217
G1 X61.640 Y79.321 E1.77867
G1 X60.382 Y79.321 E1.80165
G1 X60.382 Y78.699 E1.81302
G1 X61.640 Y78.699 E1.83600
G1 X61.640 Y78.217 E1.84480
G1 X60.156 Y78.217 E1.87191
G1 X60.240 Y78.204 E1.87347
G1 X60.240 Y77.595 E1.88459
G1 X62.346 Y77.595 E1.92306
G1 X62.346 Y79.677 E1.96109
G1 X63.214 Y79.677 E1.97695
G1 X63.214 Y77.595 E2.01498
G1 X63.919 Y77.595 E2.02788
G1 X63.919 Y79.617 E2.06481
G1 F1800.000 E1.06481
G1 Z0.500 F7800.000
G92 E0
G1 X59.236 Y78.230 F7800.000
G1 Z0.200 F7800.000
G1 E1.00000 F1800.000
G1 X59.167 Y78.200 E1.00137 F315.000
G1 X58.999 Y78.178 E1.00447
G1 X58.830 Y78.196 E1.00757
G1 X58.760 Y78.223 E1.00894
G1 X58.693 Y78.261 E1.01035
G1 X58.626 Y78.342 E1.01228
G1 X58.609 Y78.423 E1.01379
G1 X58.620 Y78.494 E1.01510
G1 X58.775 Y78.588 E1.01841
G1 X59.500 Y78.796 E1.03219
G1 X59.782 Y78.961 E1.03816
G1 X59.894 Y79.088 E1.04126
G1 X59.981 Y79.224 E1.04421
G1 X60.028 Y79.379 E1.04717
G1 X60.050 Y79.545 E1.05022
G1 X60.018 Y79.761 E1.05420
G1 X59.924 Y79.958 E1.05820
G1 X59.767 Y80.131 E1.06247
G1 X59.567 Y80.249 E1.06671
G1 X59.303 Y80.323 E1.07172
G1 X59.033 Y80.344 E1.07667
G1 X58.635 Y80.301 E1.08398
G1 X58.443 Y80.223 E1.08777
G1 X58.260 Y80.114 E1.09166
G1 X58.140 Y79.977 E1.09499
G1 X58.047 Y79.829 E1.09817
G1 X58.022 Y79.746 E1.09977
G1 X57.856 Y79.770 E1.10284
G1 X57.856 Y80.300 E1.11253
G1 X55.665 Y80.300 E1.15257
G1 X55.665 Y79.677 E1.16396
G1 X56.407 Y79.677 E1.17752
G1 X56.407 Y77.595 E1.21555
G1 X57.113 Y77.595 E1.22845
G1 X57.113 Y79.677 E1.26648
G1 X58.000 Y79.677 E1.28268
G1 X57.960 Y79.389 E1.28798
G1 X58.423 Y79.369 E1.29646
G1 X58.449 Y79.214 E1.29933
G1 X58.331 Y79.167 E1.30165
G1 X58.155 Y79.044 E1.30558
G1 X58.015 Y78.876 E1.30958
G1 X57.926 Y78.656 E1.31391
G1 X57.901 Y78.423 E1.31819
G1 X57.936 Y78.186 E1.32257
G1 X58.037 Y77.966 E1.32699
G1 X58.204 Y77.777 E1.33160
G1 X58.421 Y77.649 E1.33620
G1 X58.711 Y77.571 E1.34170
G1 X59.008 Y77.550 E1.34712
G1 X59.417 Y77.597 E1.35465
G1 X59.613 Y77.680 E1.35853
G1 X59.801 Y77.793 E1.36254
G1 X59.935 Y77.950 E1.36631
G1 X60.039 Y78.117 E1.36992
G1 X60.087 Y78.228 E1.37212
G1 X60.158 Y78.599 E1.37902
G1 X59.530 Y78.660 E1.39056
G1 X59.506 Y78.771 E1.39263
G1 X59.396 Y78.402 E1.39966
G1 X59.287 Y78.262 E1.40290
G1 F1800.000 E0.40290
G1 Z0.500 F7800.000
G92 E0
G1 X59.907 Y83.466 F7800.000
G1 Z0.200 F7800.000
G1 E1.00000 F1800.000
G1 X60.317 Y82.322 E1.02221 F450.000
G1 X61.340 Y82.322 E1.04090
G1 X61.716 Y83.372 E1.06128
G1 X61.863 Y83.362 E1.06397
G1 X61.877 Y83.294 E1.06525
G1 X62.018 Y83.004 E1.07112
G1 X62.211 Y82.726 E1.07732
G1 X62.469 Y82.526 E1.08328
G1 X62.742 Y82.378 E1.08896
G1 X63.043 Y82.305 E1.09461
G1 X63.344 Y82.278 E1.10014
G1 X63.646 Y82.305 E1.10568
G1 X63.948 Y82.376 E1.11135
G1 X64.223 Y82.524 E1.11705
G1 X64.483 Y82.723 E1.12304
G1 X64.677 Y82.999 E1.12920
G1 X64.818 Y83.285 E1.13503
G1 X64.884 Y83.596 E1.14083
G1 X64.907 Y83.902 E1.14644
G1 X64.878 Y84.290 E1.15355
G1 X64.767 Y84.677 E1.16091
G1 X64.632 Y84.920 E1.16599
G1 X64.462 Y85.129 E1.17091
G1 X64.262 Y85.300 E1.17572
G1 X64.024 Y85.432 E1.18070
G1 X63.689 Y85.530 E1.18707
G1 X63.350 Y85.557 E1.19329
G1 X63.049 Y85.530 E1.19881
G1 X62.747 Y85.457 E1.20447
G1 X62.392 Y85.264 E1.21186
G1 X62.481 Y85.513 E1.21668
G1 X61.201 Y85.513 E1.24008
G1 X60.888 Y84.599 E1.25774
G1 X60.748 Y84.599 E1.26029
G1 X60.446 Y85.513 E1.27787
G1 X55.668 Y85.501 E1.36517
G1 X55.297 Y85.428 E1.37208
G1 X54.883 Y85.190 E1.38082
G1 X54.883 Y85.513 E1.38673
G1 X53.691 Y85.513 E1.40850
G1 X53.691 Y84.527 E1.42652
G1 X53.386 Y84.527 E1.43210
G1 X53.386 Y85.513 E1.45011
G1 X52.194 Y85.513 E1.47189
G1 X52.194 Y84.238 E1.49519
G1 X52.035 Y84.208 E1.49813
G1 X51.527 Y85.513 E1.52373
G1 X50.526 Y85.513 E1.54202
G1 X49.982 Y84.154 E1.56877
G1 X49.824 Y84.185 E1.57170
G1 X49.824 Y85.513 E1.59597
G1 X48.797 Y85.513 E1.61474
G1 X48.448 Y84.944 E1.62693
G1 X48.306 Y84.984 E1.62962
G1 X48.306 Y85.513 E1.63929
G1 X47.151 Y85.513 E1.66041
G1 X47.151 Y85.055 E1.66878
G1 X47.018 Y85.011 E1.67134
G1 X46.920 Y85.141 E1.67432
G1 X46.559 Y85.397 E1.68241
G1 X46.180 Y85.524 E1.68971
G1 X45.799 Y85.557 E1.69670
G1 X45.330 Y85.509 E1.70530
G1 X44.879 Y85.306 E1.71435
G1 X44.700 Y85.136 E1.71885
G1 X44.561 Y84.961 E1.72295
G1 X44.465 Y84.759 E1.72703
G1 X44.291 Y84.211 E1.73754
G1 X44.360 Y84.198 E1.73882
G1 X44.360 Y82.836 E1.76371
G1 X44.745 Y82.555 E1.77242
G1 X45.043 Y82.417 E1.77841
G1 X45.399 Y82.314 E1.78518
G1 X45.776 Y82.277 E1.79211
G1 X46.209 Y82.324 E1.80007
G1 X46.631 Y82.485 E1.80832
G1 X46.970 Y82.752 E1.81621
G1 X47.013 Y82.815 E1.81760
G1 X47.151 Y82.773 E1.82023
G1 X47.151 Y82.322 E1.82847
G1 X48.192 Y82.322 E1.84750
G1 X48.527 Y82.863 E1.85913
G1 X48.668 Y82.823 E1.86182
G1 X48.668 Y82.322 E1.87098
G1 X50.540 Y82.322 E1.90518
G1 X50.759 Y82.891 E1.91632
G1 X51.285 Y82.891 E1.92593
G1 X51.492 Y82.322 E1.93699
G1 X53.386 Y82.322 E1.97160
G1 X53.386 Y83.417 E1.99161
G1 X53.691 Y83.417 E1.99719
G1 X53.691 Y82.322 E2.01721
G1 X55.603 Y82.322 E2.05214
G1 X56.081 Y83.034 E2.06781
G1 X56.219 Y82.993 E2.07045
G1 X56.219 Y82.322 E2.08270
G1 X59.746 Y82.322 E2.14716
G1 X59.746 Y83.438 E2.16756
G1 X59.848 Y83.456 E2.16945
G1 F1800.000 E1.16945
G1 Z0.500 F7800.000
G92 E0
G1 X62.053 Y83.640 F7800.000
G1 Z0.200 F7800.000
G1 E1.00000 F1800.000
G1 X62.108 Y83.373 E1.00498 F315.000
G1 X62.228 Y83.128 E1.00997
G1 X62.389 Y82.895 E1.01514
G1 X62.602 Y82.730 E1.02006
G1 X62.830 Y82.606 E1.02480
G1 X63.139 Y82.540 E1.03057
G1 X63.344 Y82.522 E1.03434 F315.000
G1 X63.608 Y82.545 E1.03917
G1 X63.861 Y82.605 E1.04393
G1 X64.091 Y82.729 E1.04869
G1 X64.306 Y82.893 E1.05364
G1 X64.467 Y83.123 E1.05877
G1 X64.586 Y83.365 E1.06371
G1 X64.643 Y83.630 E1.06865
G1 X64.663 Y83.902 E1.07364
G1 X64.638 Y84.247 E1.07996
G1 X64.541 Y84.583 E1.08635
G1 X64.430 Y84.783 E1.09053
G1 X64.287 Y84.958 E1.09466
G1 X64.122 Y85.100 E1.09863
G1 X63.930 Y85.207 E1.10265
G1 X63.645 Y85.289 E1.10808
G1 X63.351 Y85.313 E1.11346
G1 X63.088 Y85.289 E1.11828
G1 X62.835 Y85.228 E1.12304
G1 X62.606 Y85.104 E1.12780
G1 X62.392 Y84.939 E1.13274
G1 X62.229 Y84.706 E1.13794
G1 X62.109 Y84.459 E1.14295
G1 X62.053 Y84.190 E1.14797
G1 X62.032 Y83.914 E1.15303
G1 X62.048 Y83.700 E1.15696
G1 X60.884 Y83.837 F7800.000
G1 X60.744 Y83.838 E1.15951 F315.000
G1 X60.270 Y85.270 E1.18708
G1 X57.446 Y85.270 E1.23869
G1 X57.446 Y84.646 E1.25009
G1 X58.798 Y84.646 E1.27479
G1 X58.798 Y84.291 E1.28128
G1 X57.540 Y84.291 E1.30426
G1 X57.540 Y83.669 E1.31563
G1 X58.798 Y83.669 E1.33861
G1 X58.798 Y83.187 E1.34742
G1 X57.398 Y83.187 E1.37299
G1 X57.398 Y82.565 E1.38436
G1 X59.503 Y82.565 E1.42283
G1 X59.503 Y84.837 E1.46435
G1 X59.665 Y84.865 E1.46733
G1 X60.488 Y82.565 E1.51198
G1 X61.169 Y82.565 E1.52442
G1 X62.136 Y85.270 E1.57691
G1 X61.374 Y85.270 E1.59083
G1 X60.904 Y83.894 E1.61742
G1 F1800.000 E0.61742
G1 Z0.500 F7800.000
G92 E0
G1 X56.461 Y83.610 F7800.000
G1 Z0.200 F7800.000
G1 E1.00000 F1800.000
G1 X56.461 Y82.565 E1.01910 F315.000
G1 X57.167 Y82.565 E1.03200
G1 X57.167 Y85.270 E1.08143
G1 X55.696 Y85.259 E1.10831
G1 X55.383 Y85.198 E1.11414
G1 X55.189 Y85.085 E1.11824
G1 X55.042 Y84.917 E1.12233
G1 X54.947 Y84.700 E1.12665
G1 X54.918 Y84.470 E1.13089
G1 X54.930 Y84.325 E1.13355
G1 X54.962 Y84.185 E1.13616
G1 X55.110 Y83.934 E1.14150
G1 X55.235 Y83.832 E1.14446
G1 X55.438 Y83.710 E1.14878
G1 X55.336 Y83.630 E1.15115
G1 X55.037 Y83.209 E1.16057
G1 X54.780 Y82.798 E1.16943
G1 X54.640 Y82.839 E1.17210
G1 X54.640 Y85.270 E1.21653
G1 X53.934 Y85.270 E1.22943
G1 X53.934 Y84.284 E1.24744
G1 X53.143 Y84.284 E1.26190
G1 X53.143 Y85.270 E1.27992
G1 X52.437 Y85.270 E1.29281
G1 X52.437 Y82.945 E1.33530
G1 X52.278 Y82.915 E1.33825
G1 X51.361 Y85.270 E1.38443
G1 X50.690 Y85.270 E1.39669
G1 X49.739 Y82.894 E1.44345
G1 X49.581 Y82.925 E1.44638
G1 X49.581 Y85.270 E1.48924
G1 X48.933 Y85.270 E1.50108
G1 X48.205 Y84.083 E1.52653
G1 X48.064 Y84.123 E1.52922
G1 X48.064 Y85.270 E1.55019
G1 X47.394 Y85.270 E1.56243
G1 X47.394 Y82.565 E1.61186
G1 X48.057 Y82.565 E1.62398
G1 X48.770 Y83.718 E1.64876
G1 X48.911 Y83.678 E1.65144
G1 X48.911 Y82.565 E1.67178
G1 X50.374 Y82.565 E1.69850
G1 X50.592 Y83.134 E1.70964
G1 X51.455 Y83.134 E1.72540
G1 X51.662 Y82.565 E1.73647
G1 X53.143 Y82.565 E1.76352
G1 X53.143 Y83.660 E1.78354
G1 X53.934 Y83.660 E1.79800
G1 X53.934 Y82.565 E1.81801
G1 X55.473 Y82.565 E1.84614
G1 X56.127 Y83.511 E1.86714
G1 X56.234 Y83.585 E1.86953
G1 X56.402 Y83.604 E1.87261
G1 F1800.000 E0.87261
G1 Z0.500 F7800.000
G92 E0
G1 X45.217 Y84.284 F7800.000
G1 Z0.200 F7800.000
G1 E1.00000 F1800.000
G1 X45.201 Y84.108 E1.00324 F315.000
G1 X44.603 Y84.108 E1.01416
G1 X44.603 Y82.959 E1.03515
G1 X44.869 Y82.766 E1.04116
G1 X45.128 Y82.645 E1.04639
G1 X45.444 Y82.553 E1.05241
G1 X45.775 Y82.522 E1.05847
G1 X46.152 Y82.562 E1.06539
G1 X46.509 Y82.699 E1.07240
G1 X46.790 Y82.919 E1.07892
G1 X46.989 Y83.214 E1.08541
G1 X47.108 Y83.562 E1.09214
G1 X47.146 Y83.926 E1.09883
G1 X47.106 Y84.307 E1.10583
G1 X46.970 Y84.670 E1.11291
G1 X46.748 Y84.965 E1.11964
G1 X46.447 Y85.178 E1.12639
G1 X46.130 Y85.285 E1.13251
G1 X45.801 Y85.313 E1.13854
G1 X45.394 Y85.271 E1.14601
G1 X45.016 Y85.101 E1.15358
G1 X44.880 Y84.972 E1.15702
G1 X44.768 Y84.832 E1.16029
G1 X44.692 Y84.670 E1.16356
G1 X44.606 Y84.399 E1.16876
G1 X45.158 Y84.296 E1.17903
G1 F1800.000 E0.17903
G1 Z0.500 F7800.000
G92 E0
G1 X63.028 Y84.181 F7800.000
G1 Z0.200 F7800.000
G1 E1.00000 F1800.000
G1 X63.001 Y83.926 E1.00467 F450.000
G1 X63.029 Y83.666 E1.00945
G1 X63.115 Y83.496 E1.01294
G1 X63.160 Y83.457 E1.01403
G1 X63.212 Y83.425 E1.01514
G1 X63.346 Y83.400 E1.01763
G1 X63.481 Y83.426 E1.02014
G1 X63.581 Y83.499 E1.02241
G1 X63.668 Y83.666 E1.02585
G1 X63.697 Y83.920 E1.03052
G1 X63.669 Y84.176 E1.03522
G1 X63.586 Y84.341 E1.03859
G1 X63.488 Y84.411 E1.04080
G1 X63.346 Y84.436 E1.04343
G1 X63.266 Y84.427 E1.04489
G1 X63.205 Y84.411 E1.04604
G1 X63.109 Y84.343 E1.04820
G1 X63.050 Y84.236 E1.05043
G1 X63.222 Y84.667 F7800.000
G1 X63.110 Y84.637 E1.05254 F450.000
G1 X62.922 Y84.503 E1.05678
G1 X62.790 Y84.241 E1.06214
G1 X62.756 Y83.926 E1.06792
G1 X62.791 Y83.605 E1.07382
G1 X62.927 Y83.338 E1.07930
G1 X63.114 Y83.200 E1.08354
G1 X63.346 Y83.155 E1.08786
G1 X63.580 Y83.201 E1.09221
G1 X63.768 Y83.340 E1.09649
G1 X63.905 Y83.603 E1.10191
G1 X63.941 Y83.920 E1.10773
G1 X63.907 Y84.236 E1.11355
G1 X63.773 Y84.500 E1.11896
G1 X63.583 Y84.637 E1.12323
G1 X63.470 Y84.667 E1.12536
G1 X63.282 Y84.673 E1.12881
G1 F1800.000 E0.12881
G1 Z0.500 F7800.000
G92 E0
G1 X59.485 Y79.581 F7800.000
G1 Z0.200 F7800.000
G1 E1.00000 F1800.000
G1 X59.194 Y79.708 E1.00580 F450.000
G1 X59.039 Y79.724 E1.00864
G1 X58.835 Y79.688 E1.01243
G1 X58.782 Y79.660 E1.01352
G1 X58.716 Y79.573 E1.01553
G1 X58.632 Y79.284 E1.02102
G1 X59.131 Y79.416 E1.03045
G1 X59.430 Y79.555 E1.03647
G1 F1800.000 E0.03647
G1 Z0.500 F7800.000
G92 E0
G1 X56.461 Y84.211 F7800.000
G1 Z0.200 F7800.000
G1 E1.00000 F1800.000
G1 X56.461 Y84.646 E1.00796 F450.000
G1 X55.814 Y84.638 E1.01980
G1 X55.709 Y84.596 E1.02185
G1 X55.651 Y84.516 E1.02367
G1 X55.648 Y84.364 E1.02644
G1 X55.675 Y84.304 E1.02764
G1 X55.760 Y84.240 E1.02958
G1 X56.401 Y84.211 E1.04132
G1 F1800.000 E0.04132
G1 Z0.500 F7800.000
G92 E0
G1 X51.227 Y83.756 F7800.000
G1 Z0.200 F7800.000
G1 E1.00000 F1800.000
G1 X51.030 Y84.296 E1.01050 F450.000
G1 X50.830 Y83.756 E1.02102
G1 X51.167 Y83.756 E1.02718
G1 F1800.000 E0.02718
G1 Z0.500 F7800.000
G92 E0
G1 X45.893 Y83.486 F7800.000
G1 Z0.200 F7800.000
G1 E1.00000 F1800.000
G1 X45.314 Y83.486 E1.01059 F450.000
G1 X45.314 Y83.327 E1.01349
G1 X45.527 Y83.210 E1.01793
G1 X45.664 Y83.169 E1.02054
G1 X45.806 Y83.155 E1.02316
G1 X46.052 Y83.201 E1.02773
G1 X46.249 Y83.343 E1.03217
G1 X46.388 Y83.618 E1.03779
G1 X46.424 Y83.946 E1.04383
G1 X46.388 Y84.252 E1.04945
G1 X46.254 Y84.502 E1.05465
G1 X46.051 Y84.638 E1.05910
G1 X45.803 Y84.680 E1.06370
G1 X45.639 Y84.659 E1.06673
G1 X45.496 Y84.591 E1.06962
G1 X45.396 Y84.488 E1.07224
G1 X45.222 Y84.108 E1.07988
G1 X45.893 Y84.108 E1.09214
G1 X45.893 Y83.546 E1.10241
G1 F1800.000 E0.10241
G1 Z0.500 F7800.000
G92 E0
G1 X38.647 Y86.257 F7800.000
G1 Z0.200 F7800.000
G1 E1.00000 F1800.000
G1 X38.647 Y63.743 E1.41136 F450.000
G1 X66.896 Y63.743 E1.92751
G1 X66.975 Y63.882 E1.93043
G1 X67.055 Y64.085 E1.93442
G1 X67.102 Y64.290 E1.93826
G1 X67.119 Y64.513 E1.94235
G1 X67.119 Y85.484 E2.32552
G1 X67.101 Y85.711 E2.32968
G1 X67.055 Y85.915 E2.33350
G1 X66.975 Y86.118 E2.33748
G1 X66.896 Y86.257 E2.34041
G1 X38.707 Y86.257 E2.85546
G1 X38.404 Y86.500 F7800.000
G1 X38.404 Y63.500 E3.27570 F315.000
G1 X67.026 Y63.500 E3.79866
G1 X67.195 Y63.777 E3.80458
G1 X67.287 Y64.013 E3.80922
G1 X67.343 Y64.254 E3.81373
G1 X67.362 Y64.504 E3.81831
G1 X67.362 Y85.493 E4.20182
G1 X67.342 Y85.748 E4.20648
G1 X67.287 Y85.987 E4.21096
G1 X67.195 Y86.223 E4.21560
G1 X67.026 Y86.500 E4.22152
G1 X38.464 Y86.500 E4.74339
G1 X38.843 Y86.101 F7800.000
G1 X38.803 Y86.061 E4.74442 F900.000
G1 X38.803 Y85.715 E4.75074
G1 X39.189 Y86.101 E4.76071
G1 X39.534 Y86.101 E4.76702
G1 X38.803 Y85.369 E4.78592
G1 X38.803 Y85.024 E4.79224
