; generated by Slic3r 1.1.7 on 2014-11-29 at 18:24:07

; perimeters extrusion width = 0.40mm
; infill extrusion width = 0.42mm
; solid infill extrusion width = 0.42mm
; top infill extrusion width = 0.42mm

G21 ; set units to millimeters
M107
M104 S215 ; set temperature
G28 ; home all axes
G1 Z5 F5000 ; lift nozzle

M109 S215 ; wait for temperature to be reached
G90 ; use absolute coordinates
G92 E0
M82 ; use absolute distances for extrusion
G1 F1800.000 E-1.00000
G92 E0
G1 Z0.400 F7800.000
G1 X44.583 Y56.720 F7800.000
G1 E1.00000 F1800.000
G1 X46.743 Y55.905 E1.27422 F1080.000
G1 X48.000 Y55.786 E1.42419
G1 X102.000 Y55.786 E7.83751
G1 X104.275 Y56.183 E8.11174
G1 X106.280 Y57.327 E8.38596 F1080.000
G1 X107.780 Y59.083 E8.66019
G1 X108.595 Y61.243 E8.93441
G1 X108.714 Y62.500 E9.08438
G1 X108.714 Y87.500 E12.05351
G1 X108.317 Y89.775 E12.32773
G1 X107.173 Y91.780 E12.60196
G1 X105.417 Y93.280 E12.87618
G1 X103.257 Y94.095 E13.15040
G1 X102.000 Y94.214 E13.30037
G1 X48.000 Y94.214 E19.71369
G1 X45.725 Y93.817 E19.98792
G1 X43.720 Y92.673 E20.26214
G1 X42.220 Y90.917 E20.53637
G1 X41.405 Y88.757 E20.81059
G1 X41.286 Y87.500 E20.96056
G1 X41.286 Y62.500 E23.92969
G1 X41.683 Y60.225 E24.20391
G1 X42.827 Y58.220 E24.47814
G1 X44.537 Y56.759 E24.74523
G1 F1800.000 E23.74523
G92 E0
G1 X79.600 Y77.100 F7800.000
G1 E1.00000 F1800.000
G1 X79.600 Y87.100 E2.18765 F378.000
G1 X78.400 Y87.100 E2.33017
G1 X78.400 Y76.400 E3.60096
G1 X82.600 Y76.400 E4.09977
G1 X82.600 Y77.100 E4.18291
G1 X79.660 Y77.100 E4.53208
G1 X79.200 Y77.100 F7800.000
G1 F1800.000 E3.53208
G92 E0
G1 X79.600 Y72.900 F7800.000
G1 E1.00000 F1800.000
G1 X82.600 Y72.900 E1.35630 F378.000
G1 X82.600 Y73.600 E1.43943
G1 X78.400 Y73.600 E1.93824
G1 X78.400 Y62.900 E3.20903
G1 X79.600 Y62.900 E3.35155
G1 X79.600 Y72.840 E4.53208
G1 X79.600 Y73.300 F7800.000
G1 X80.000 Y63.000 F7800.000
G1 X86.000 Y63.000 E5.24467 F378.000
G1 X86.414 Y63.086 E5.29490
G1 X86.500 Y63.500 E5.34514
G1 X86.500 Y86.500 E8.07674
G1 X86.414 Y86.914 E8.12698
G1 X86.000 Y87.000 E8.17722
G1 X80.000 Y87.000 E8.88981
G1 X79.000 Y86.743 F7800.000
G1 X79.000 Y76.757 E9.58015 F360.000
G1 F1800.000 E8.58015
G92 E0
G1 X79.000 Y73.243 F7800.000
G1 E1.00000 F1800.000
G1 X79.000 Y63.257 E1.69035 F360.000
G1 F1800.000 E0.69035
G92 E0
G1 X94.600 Y77.100 F7800.000
G1 E1.00000 F1800.000
G1 X94.600 Y87.100 E2.18765 F378.000
G1 X93.400 Y87.100 E2.33017
G1 X93.400 Y76.400 E3.60096
G1 X97.600 Y76.400 E4.09977
G1 X97.600 Y77.100 E4.18291
G1 X94.660 Y77.100 E4.53208
G1 X94.200 Y77.100 F7800.000
G1 F1800.000 E3.53208
G92 E0
G1 X94.600 Y72.900 F7800.000
G1 E1.00000 F1800.000
G1 X97.600 Y72.900 E1.35630 F378.000
G1 X97.600 Y73.600 E1.43943
G1 X93.400 Y73.600 E1.93824
G1 X93.400 Y62.900 E3.20903
G1 X94.600 Y62.900 E3.35155
G1 X94.600 Y72.840 E4.53208
G1 X94.600 Y73.300 F7800.000
G1 X95.000 Y63.000 F7800.000
G1 X101.000 Y63.000 E5.24467 F378.000
G1 X101.414 Y63.086 E5.29490
G1 X101.500 Y63.500 E5.34514
G1 X101.500 Y86.500 E8.07674
G1 X101.414 Y86.914 E8.12698
G1 X101.000 Y87.000 E8.17722
G1 X95.000 Y87.000 E8.88981
G1 X94.000 Y86.743 F7800.000
G1 X94.000 Y76.757 E9.58015 F360.000
G1 F1800.000 E8.58015
G92 E0
G1 X94.000 Y73.243 F7800.000
G1 E1.00000 F1800.000
G1 X94.000 Y63.257 E1.69035 F360.000
G1 F1800.000 E0.69035
G92 E0
G1 X64.600 Y77.100 F7800.000
G1 E1.00000 F1800.000
G1 X64.600 Y87.100 E2.18765 F378.000
G1 X63.400 Y87.100 E2.33017
G1 X63.400 Y76.400 E3.60096
G1 X67.600 Y76.400 E4.09977
G1 X67.600 Y77.100 E4.18291
G1 X64.660 Y77.100 E4.53208
G1 X64.200 Y77.100 F7800.000
G1 F1800.000 E3.53208
G92 E0
G1 X64.600 Y72.900 F7800.000
G1 E1.00000 F1800.000
G1 X67.600 Y72.900 E1.35630 F378.000
G1 X67.600 Y73.600 E1.43943
G1 X63.400 Y73.600 E1.93824
G1 X63.400 Y62.900 E3.20903
G1 X64.600 Y62.900 E3.35155
G1 X64.600 Y72.840 E4.53208
G1 X64.600 Y73.300 F7800.000
G1 X65.000 Y63.000 F7800.000
G1 X71.000 Y63.000 E5.24467 F378.000
G1 X71.414 Y63.086 E5.29490
G1 X71.500 Y63.500 E5.34514
G1 X71.500 Y86.500 E8.07674
G1 X71.414 Y86.914 E8.12698
G1 X71.000 Y87.000 E8.17722
G1 X65.000 Y87.000 E8.88981
G1 X64.000 Y86.743 F7800.000
G1 X64.000 Y76.757 E9.58015 F360.000
G1 F1800.000 E8.58015
G92 E0
G1 X64.000 Y73.243 F7800.000
G1 E1.00000 F1800.000
G1 X64.000 Y63.257 E1.69035 F360.000
G1 F1800.000 E0.69035
G92 E0
G1 X49.600 Y77.100 F7800.000
G1 E1.00000 F1800.000
G1 X49.600 Y87.100 E2.18765 F378.000
G1 X48.400 Y87.100 E2.33017
G1 X48.400 Y76.400 E3.60096
G1 X52.600 Y76.400 E4.09977
G1 X52.600 Y77.100 E4.18291
G1 X49.660 Y77.100 E4.53208
G1 X49.200 Y77.100 F7800.000
G1 F1800.000 E3.53208
G92 E0
G1 X49.600 Y72.900 F7800.000
G1 E1.00000 F1800.000
G1 X52.600 Y72.900 E1.35630 F378.000
G1 X52.600 Y73.600 E1.43943
G1 X48.400 Y73.600 E1.93824
G1 X48.400 Y62.900 E3.20903
G1 X49.600 Y62.900 E3.35155
G1 X49.600 Y72.840 E4.53208
G1 X49.600 Y73.300 F7800.000
G1 X50.000 Y63.000 F7800.000
G1 X56.000 Y63.000 E5.24467 F378.000
G1 X56.414 Y63.086 E5.29490
G1 X56.500 Y63.500 E5.34514
G1 X56.500 Y86.500 E8.07674
G1 X56.414 Y86.914 E8.12698
G1 X56.000 Y87.000 E8.17722
G1 X50.000 Y87.000 E8.88981
G1 X49.000 Y86.743 F7800.000
G1 X49.000 Y76.757 E9.58015 F360.000
G1 F1800.000 E8.58015
G92 E0
G1 X49.000 Y73.243 F7800.000
G1 E1.00000 F1800.000
G1 X49.000 Y63.257 E1.69035 F360.000
M106 S212
M104 S210 ; set temperature
G1 F1800.000 E0.69035
G92 E0
G1 Z0.700 F7800.000
G1 X82.800 Y72.700 F7800.000
G1 E1.00000 F1800.000
G1 X79.800 Y72.700 E1.14967 F1260.000
G1 X79.800 Y63.300 E1.61864
G1 X86.200 Y63.300 E1.93794
G1 X86.200 Y86.700 E3.10537
G1 X79.800 Y86.700 E3.42466
G1 X79.800 Y77.300 E3.89363
G1 X82.800 Y77.300 E4.04330
G1 X82.800 Y72.760 E4.26980
G1 X82.454 Y72.900 F7800.000
G1 F1800.000 E3.26980
G92 E0
G1 X79.400 Y76.600 F7800.000
G1 E1.00000 F1800.000
G1 X79.400 Y86.900 E1.51387 F1800.000
G1 X78.600 Y86.900 E1.55378
G1 X78.600 Y76.600 E2.06765
G1 X79.340 Y76.600 E2.10457
G1 F1800.000 E1.10457
G92 E0
G1 X79.400 Y73.400 F7800.000
G1 E1.00000 F1800.000
G1 X78.600 Y73.400 E1.03991 F1800.000
G1 X78.600 Y63.100 E1.55378
G1 X79.400 Y63.100 E1.59369
G1 X79.400 Y73.340 E2.10457
G1 X82.200 Y73.800 F7800.000
G1 X78.200 Y73.800 E2.30413 F1260.000
G1 X78.200 Y62.700 E2.85791
G1 X86.800 Y62.700 E3.28697
G1 X86.800 Y87.300 E4.51427
G1 X78.200 Y87.300 E4.94332
G1 X78.200 Y76.200 E5.49710
G1 X82.200 Y76.200 E5.69666
G1 X82.200 Y73.860 E5.81341
G1 X82.200 Y73.400 F7800.000
G1 X82.600 Y76.750 F7800.000
G1 X79.600 Y76.750 E5.97014 F1200.000
G1 F1800.000 E4.97014
G92 E0
G1 X79.600 Y73.250 F7800.000
G1 E1.00000 F1800.000
G1 X82.600 Y73.250 E1.15673 F1200.000
G1 X79.000 Y73.200 F7800.000
G1 X79.000 Y63.300 E1.67396 F1200.000
G1 F1800.000 E0.67396
G92 E0
G1 X79.000 Y76.800 F7800.000
G1 E1.00000 F1800.000
G1 X79.000 Y86.700 E1.51722 F1200.000
G1 F1800.000 E0.51722
G92 E0
G1 X97.800 Y72.700 F7800.000
G1 E1.00000 F1800.000
G1 X94.800 Y72.700 E1.14967 F1260.000
G1 X94.800 Y63.300 E1.61864
G1 X101.200 Y63.300 E1.93794
G1 X101.200 Y86.700 E3.10537
G1 X94.800 Y86.700 E3.42466
G1 X94.800 Y77.300 E3.89363
G1 X97.800 Y77.300 E4.04330
G1 X97.800 Y72.760 E4.26980
G1 X97.454 Y72.900 F7800.000
G1 F1800.000 E3.26980
G92 E0
G1 X94.400 Y76.600 F7800.000
G1 E1.00000 F1800.000
G1 X94.400 Y86.900 E1.51387 F1800.000
G1 X93.600 Y86.900 E1.55378
G1 X93.600 Y76.600 E2.06765
G1 X94.340 Y76.600 E2.10457
G1 F1800.000 E1.10457
G92 E0
G1 X94.400 Y73.400 F7800.000
G1 E1.00000 F1800.000
G1 X93.600 Y73.400 E1.03991 F1800.000
G1 X93.600 Y63.100 E1.55378
G1 X94.400 Y63.100 E1.59369
G1 X94.400 Y73.340 E2.10457
G1 X97.200 Y73.800 F7800.000
G1 X93.200 Y73.800 E2.30413 F1260.000
G1 X93.200 Y62.700 E2.85791
G1 X101.800 Y62.700 E3.28697
G1 X101.800 Y87.300 E4.51427
G1 X93.200 Y87.300 E4.94332
G1 X93.200 Y76.200 E5.49710
G1 X97.200 Y76.200 E5.69666
G1 X97.200 Y73.860 E5.81341
G1 X97.200 Y73.400 F7800.000
G1 X97.600 Y76.750 F7800.000
G1 X94.600 Y76.750 E5.97014 F1200.000
G1 F1800.000 E4.97014
G92 E0
G1 X94.600 Y73.250 F7800.000
G1 E1.00000 F1800.000
G1 X97.600 Y73.250 E1.15673 F1200.000
G1 X94.000 Y73.200 F7800.000
G1 X94.000 Y63.300 E1.67396 F1200.000
G1 F1800.000 E0.67396
G92 E0
G1 X94.000 Y76.800 F7800.000
G1 E1.00000 F1800.000
G1 X94.000 Y86.700 E1.51722 F1200.000
G1 F1800.000 E0.51722
G92 E0
G1 X67.800 Y72.700 F7800.000
G1 E1.00000 F1800.000
G1 X64.800 Y72.700 E1.14967 F1260.000
G1 X64.800 Y63.300 E1.61864
G1 X71.200 Y63.300 E1.93794
G1 X71.200 Y86.700 E3.10537
G1 X64.800 Y86.700 E3.42466
G1 X64.800 Y77.300 E3.89363
G1 X67.800 Y77.300 E4.04330
G1 X67.800 Y72.760 E4.26980
G1 X67.454 Y72.900 F7800.000
G1 F1800.000 E3.26980
G92 E0
G1 X64.400 Y76.600 F7800.000
G1 E1.00000 F1800.000
G1 X64.400 Y86.900 E1.51387 F1800.000
G1 X63.600 Y86.900 E1.55378
G1 X63.600 Y76.600 E2.06765
G1 X64.340 Y76.600 E2.10457
G1 F1800.000 E1.10457
G92 E0
G1 X64.400 Y73.400 F7800.000
G1 E1.00000 F1800.000
G1 X63.600 Y73.400 E1.03991 F1800.000
G1 X63.600 Y63.100 E1.55378
G1 X64.400 Y63.100 E1.59369
G1 X64.400 Y73.340 E2.10457
G1 X67.200 Y73.800 F7800.000
G1 X63.200 Y73.800 E2.30413 F1260.000
G1 X63.200 Y62.700 E2.85791
G1 X71.800 Y62.700 E3.28697
G1 X71.800 Y87.300 E4.51427
G1 X63.200 Y87.300 E4.94332
G1 X63.200 Y76.200 E5.49710
G1 X67.200 Y76.200 E5.69666
G1 X67.200 Y73.860 E5.81341
G1 X67.200 Y73.400 F7800.000
G1 X67.600 Y76.750 F7800.000
G1 X64.600 Y76.750 E5.97014 F1200.000
G1 F1800.000 E4.97014
G92 E0
G1 X64.600 Y73.250 F7800.000
G1 E1.00000 F1800.000
G1 X67.600 Y73.250 E1.15673 F1200.000
G1 X64.000 Y73.200 F7800.000
G1 X64.000 Y63.300 E1.67396 F1200.000
G1 F1800.000 E0.67396
G92 E0
G1 X64.000 Y76.800 F7800.000
G1 E1.00000 F1800.000
G1 X64.000 Y86.700 E1.51722 F1200.000
G1 F1800.000 E0.51722
G92 E0
G1 X52.800 Y72.700 F7800.000
G1 E1.00000 F1800.000
G1 X49.800 Y72.700 E1.14967 F1260.000
G1 X49.800 Y63.300 E1.61864
G1 X56.200 Y63.300 E1.93794
G1 X56.200 Y86.700 E3.10537
G1 X49.800 Y86.700 E3.42466
G1 X49.800 Y77.300 E3.89363
G1 X52.800 Y77.300 E4.04330
G1 X52.800 Y72.760 E4.26980
G1 X52.454 Y72.900 F7800.000
G1 F1800.000 E3.26980
G92 E0
G1 X49.400 Y76.600 F7800.000
G1 E1.00000 F1800.000
G1 X49.400 Y86.900 E1.51387 F1800.000
G1 X48.600 Y86.900 E1.55378
G1 X48.600 Y76.600 E2.06765
G1 X49.340 Y76.600 E2.10457
G1 F1800.000 E1.10457
G92 E0
G1 X49.400 Y73.400 F7800.000
G1 E1.00000 F1800.000
G1 X48.600 Y73.400 E1.03991 F1800.000
G1 X48.600 Y63.100 E1.55378
G1 X49.400 Y63.100 E1.59369
G1 X49.400 Y73.340 E2.10457
G1 X52.200 Y73.800 F7800.000
G1 X48.200 Y73.800 E2.30413 F1260.000
G1 X48.200 Y62.700 E2.85791
G1 X56.800 Y62.700 E3.28697
G1 X56.800 Y87.300 E4.51427
G1 X48.200 Y87.300 E4.94332
G1 X48.200 Y76.200 E5.49710
G1 X52.200 Y76.200 E5.69666
G1 X52.200 Y73.860 E5.81341
G1 X52.200 Y73.400 F7800.000
G1 X52.600 Y76.750 F7800.000
G1 X49.600 Y76.750 E5.97014 F1200.000
G1 F1800.000 E4.97014
G92 E0
G1 X49.600 Y73.250 F7800.000
G1 E1.00000 F1800.000
G1 X52.600 Y73.250 E1.15673 F1200.000
G1 X49.000 Y73.200 F7800.000
G1 X49.000 Y63.300 E1.67396 F1200.000
G1 F1800.000 E0.67396
G92 E0
G1 X49.000 Y76.800 F7800.000
G1 E1.00000 F1800.000
G1 X49.000 Y86.700 E1.51722 F1200.000
G1 F1800.000 E0.51722
G92 E0
G1 Z1.000 F7800.000
G1 X82.800 Y72.700 F7800.000
G1 E1.00000 F1800.000
G1 X79.800 Y72.700 E1.14967 F1260.000
G1 X79.800 Y63.300 E1.61864
G1 X86.200 Y63.300 E1.93794
G1 X86.200 Y86.700 E3.10537
G1 X79.800 Y86.700 E3.42466
G1 X79.800 Y77.300 E3.89363
G1 X82.800 Y77.300 E4.04330
G1 X82.800 Y72.760 E4.26980
G1 X82.454 Y72.900 F7800.000
G1 F1800.000 E3.26980
G92 E0
G1 X79.400 Y76.600 F7800.000
G1 E1.00000 F1800.000
G1 X79.400 Y86.900 E1.51387 F1800.000
G1 X78.600 Y86.900 E1.55378
G1 X78.600 Y76.600 E2.06765
G1 X79.340 Y76.600 E2.10457
G1 F1800.000 E1.10457
G92 E0
G1 X79.400 Y73.400 F7800.000
G1 E1.00000 F1800.000
G1 X78.600 Y73.400 E1.03991 F1800.000
G1 X78.600 Y63.100 E1.55378
G1 X79.400 Y63.100 E1.59369
G1 X79.400 Y73.340 E2.10457
G1 X82.200 Y73.800 F7800.000
G1 X78.200 Y73.800 E2.30413 F1260.000
G1 X78.200 Y62.700 E2.85791
G1 X86.800 Y62.700 E3.28697
G1 X86.800 Y87.300 E4.51427
G1 X78.200 Y87.300 E4.94332
G1 X78.200 Y76.200 E5.49710
G1 X82.200 Y76.200 E5.69666
G1 X82.200 Y73.860 E5.81341
G1 X82.200 Y73.400 F7800.000
G1 X82.600 Y76.750 F7800.000
G1 X79.600 Y76.750 E5.97014 F1200.000
G1 F1800.000 E4.97014
G92 E0
G1 X79.600 Y73.250 F7800.000
G1 E1.00000 F1800.000
G1 X82.600 Y73.250 E1.15673 F1200.000
G1 X79.000 Y73.200 F7800.000
G1 X79.000 Y63.300 E1.67396 F1200.000
G1 F1800.000 E0.67396
G92 E0
G1 X79.000 Y76.800 F7800.000
G1 E1.00000 F1800.000
G1 X79.000 Y86.700 E1.51722 F1200.000
G1 F1800.000 E0.51722
G92 E0
G1 X97.800 Y72.700 F7800.000
G1 E1.00000 F1800.000
G1 X94.800 Y72.700 E1.14967 F1260.000
G1 X94.800 Y63.300 E1.61864
G1 X101.200 Y63.300 E1.93794
G1 X101.200 Y86.700 E3.10537
G1 X94.800 Y86.700 E3.42466
G1 X94.800 Y77.300 E3.89363
G1 X97.800 Y77.300 E4.04330
G1 X97.800 Y72.760 E4.26980
G1 X97.454 Y72.900 F7800.000
G1 F1800.000 E3.26980
G92 E0
G1 X94.400 Y76.600 F7800.000
G1 E1.00000 F1800.000
G1 X94.400 Y86.900 E1.51387 F1800.000
G1 X93.600 Y86.900 E1.55378
G1 X93.600 Y76.600 E2.06765
G1 X94.340 Y76.600 E2.10457
G1 F1800.000 E1.10457
G92 E0
G1 X94.400 Y73.400 F7800.000
G1 E1.00000 F1800.000
G1 X93.600 Y73.400 E1.03991 F1800.000
G1 X93.600 Y63.100 E1.55378
G1 X94.400 Y63.100 E1.59369
G1 X94.400 Y73.340 E2.10457
G1 X97.200 Y73.800 F7800.000
G1 X93.200 Y73.800 E2.30413 F1260.000
G1 X93.200 Y62.700 E2.85791
G1 X101.800 Y62.700 E3.28697
G1 X101.800 Y87.300 E4.51427
G1 X93.200 Y87.300 E4.94332
G1 X93.200 Y76.200 E5.49710
G1 X97.200 Y76.200 E5.69666
G1 X97.200 Y73.860 E5.81341
G1 X97.200 Y73.400 F7800.000
G1 X97.600 Y76.750 F7800.000
G1 X94.600 Y76.750 E5.97014 F1200.000
G1 F1800.000 E4.97014
G92 E0
G1 X94.600 Y73.250 F7800.000
G1 E1.00000 F1800.000
G1 X97.600 Y73.250 E1.15673 F1200.000
G1 X94.000 Y73.200 F7800.000
G1 X94.000 Y63.300 E1.67396 F1200.000
G1 F1800.000 E0.67396
G92 E0
G1 X94.000 Y76.800 F7800.000
G1 E1.00000 F1800.000
G1 X94.000 Y86.700 E1.51722 F1200.000
G1 F1800.000 E0.51722
G92 E0
G1 X67.800 Y72.700 F7800.000
G1 E1.00000 F1800.000
G1 X64.800 Y72.700 E1.14967 F1260.000
G1 X64.800 Y63.300 E1.61864
G1 X71.200 Y63.300 E1.93794
G1 X71.200 Y86.700 E3.10537
G1 X64.800 Y86.700 E3.42466
G1 X64.800 Y77.300 E3.89363
G1 X67.800 Y77.300 E4.04330
G1 X67.800 Y72.760 E4.26980
G1 X67.454 Y72.900 F7800.000
G1 F1800.000 E3.26980
G92 E0
G1 X64.400 Y76.600 F7800.000
G1 E1.00000 F1800.000
G1 X64.400 Y86.900 E1.51387 F1800.000
G1 X63.600 Y86.900 E1.55378
G1 X63.600 Y76.600 E2.06765
G1 X64.340 Y76.600 E2.10457
G1 F1800.000 E1.10457
G92 E0
G1 X64.400 Y73.400 F7800.000
G1 E1.00000 F1800.000
G1 X63.600 Y73.400 E1.03991 F1800.000
G1 X63.600 Y63.100 E1.55378
G1 X64.400 Y63.100 E1.59369
G1 X64.400 Y73.340 E2.10457
G1 X67.200 Y73.800 F7800.000
G1 X63.200 Y73.800 E2.30413 F1260.000
G1 X63.200 Y62.700 E2.85791
G1 X71.800 Y62.700 E3.28697
G1 X71.800 Y87.300 E4.51427
G1 X63.200 Y87.300 E4.94332
G1 X63.200 Y76.200 E5.49710
G1 X67.200 Y76.200 E5.69666
G1 X67.200 Y73.860 E5.81341
G1 X67.200 Y73.400 F7800.000
G1 X67.600 Y76.750 F7800.000
G1 X64.600 Y76.750 E5.97014 F1200.000
G1 F1800.000 E4.97014
G92 E0
G1 X64.600 Y73.250 F7800.000
G1 E1.00000 F1800.000
G1 X67.600 Y73.250 E1.15673 F1200.000
G1 X64.000 Y73.200 F7800.000
G1 X64.000 Y63.300 E1.67396 F1200.000
G1 F1800.000 E0.67396
G92 E0
G1 X64.000 Y76.800 F7800.000
G1 E1.00000 F1800.000
G1 X64.000 Y86.700 E1.51722 F1200.000
G1 F1800.000 E0.51722
G92 E0
G1 X52.800 Y72.700 F7800.000
G1 E1.00000 F1800.000
G1 X49.800 Y72.700 E1.14967 F1260.000
G1 X49.800 Y63.300 E1.61864
G1 X56.200 Y63.300 E1.93794
G1 X56.200 Y86.700 E3.10537
G1 X49.800 Y86.700 E3.42466
G1 X49.800 Y77.300 E3.89363
G1 X52.800 Y77.300 E4.04330
G1 X52.800 Y72.760 E4.26980
G1 X52.454 Y72.900 F7800.000
G1 F1800.000 E3.26980
G92 E0
G1 X49.400 Y76.600 F7800.000
G1 E1.00000 F1800.000
G1 X49.400 Y86.900 E1.51387 F1800.000
G1 X48.600 Y86.900 E1.55378
G1 X48.600 Y76.600 E2.06765
G1 X49.340 Y76.600 E2.10457
G1 F1800.000 E1.10457
G92 E0
G1 X49.400 Y73.400 F7800.000
G1 E1.00000 F1800.000
G1 X48.600 Y73.400 E1.03991 F1800.000
G1 X48.600 Y63.100 E1.55378
G1 X49.400 Y63.100 E1.59369
G1 X49.400 Y73.340 E2.10457
G1 X52.200 Y73.800 F7800.000
G1 X48.200 Y73.800 E2.30413 F1260.000
