; generated by Slic3r 1.1.7 on 2014-12-04 at 22:50:48

; perimeters extrusion width = 0.40mm
; infill extrusion width = 0.67mm
; solid infill extrusion width = 0.67mm
; top infill extrusion width = 0.67mm

G21 ; set units to millimeters
M107
M104 S215 ; set temperature
G28 ; home all axes
G29; calibrate bed leveling
G1 Z5 F5000 ; lift nozzle
G28 X ; Go to corner x
G28 Y ; Go to corner y

M109 S215 ; wait for temperature to be reached
G90 ; use absolute coordinates
G92 E0
M82 ; use absolute distances for extrusion
G1 Z0.300 F7800.000
G1 F1800.000 E-1.00000
G1 Z0.600 F7800.000
G92 E0
G1 X64.530 Y59.011 F7800.000
G1 Z0.300 F7800.000
G1 E1.00000 F1800.000
G1 X66.528 Y57.861 E1.10033 F1080.000
G1 X68.854 Y57.458 E1.20308
G1 X81.344 Y57.529 E1.74678
G1 X83.612 Y57.938 E1.84711 F1080.000
G1 X85.607 Y59.094 E1.94743
G1 X87.119 Y60.906 E2.05019
G1 X93.303 Y71.759 E2.59389
G1 X94.082 Y73.928 E2.69422
G1 X94.079 Y76.233 E2.79454
G1 X93.265 Y78.449 E2.89730
G1 X86.959 Y89.230 E3.44100
G1 X85.470 Y90.989 E3.54133
G1 X83.472 Y92.139 E3.64165
G1 X81.146 Y92.542 E3.74441
G1 X68.656 Y92.471 E4.28811
G1 X66.388 Y92.062 E4.38844
G1 X64.393 Y90.906 E4.48876
G1 X62.881 Y89.094 E4.59152
G1 X56.697 Y78.241 E5.13522
G1 X55.918 Y76.072 E5.23555
G1 X55.921 Y73.767 E5.33587
G1 X56.735 Y71.551 E5.43863
G1 X63.041 Y60.770 E5.98233
G1 X64.492 Y59.056 E6.08004
G1 X64.758 Y59.284 F7800.000
G1 X64.797 Y59.238 E6.08267 F1080.000
G1 X66.758 Y58.146 E6.18036
G1 X68.852 Y57.803 E6.27275
G1 X81.342 Y57.874 E6.81645
G1 X83.549 Y58.283 E6.91413 F1080.000
G1 X85.475 Y59.435 E7.01181
G1 X86.819 Y61.077 E7.10421
G1 X93.003 Y71.929 E7.64791
G1 X93.752 Y74.045 E7.74559
G1 X93.717 Y76.289 E7.84327
G1 X92.967 Y78.274 E7.93567
G1 X86.661 Y89.056 E8.47937
G1 X85.203 Y90.762 E8.57705
G1 X83.242 Y91.854 E8.67473
G1 X81.148 Y92.197 E8.76712
G1 X68.658 Y92.126 E9.31082
G1 X66.451 Y91.717 E9.40851
G1 X64.525 Y90.565 E9.50619
G1 X63.181 Y88.923 E9.59858
G1 X56.997 Y78.071 E10.14228
G1 X56.248 Y75.955 E10.23997
G1 X56.283 Y73.711 E10.33765
G1 X57.033 Y71.726 E10.43004
G1 X63.339 Y60.944 E10.97374
G1 X64.719 Y59.329 E11.06619
G1 F1800.000 E10.06619
G1 Z0.600 F7800.000
G92 E0
G1 X68.895 Y64.341 F7800.000
G1 Z0.300 F7800.000
G1 E1.00000 F1800.000
G1 X69.046 Y64.383 E1.00684 F378.000
G1 X81.170 Y64.383 E1.53459 F378.000
G1 X84.244 Y69.708 E1.80219
G1 X84.277 Y69.835 E1.80790
G1 X87.283 Y75.042 E2.06966
G1 X87.171 Y75.152 E2.07649
G1 X81.105 Y85.659 E2.60459
G1 X80.954 Y85.617 E2.61143
G1 X68.830 Y85.617 E3.13918
G1 X65.756 Y80.292 E3.40678
G1 X65.723 Y80.165 E3.41249
G1 X62.717 Y74.958 E3.67425
G1 X62.829 Y74.848 E3.68109
G1 X68.865 Y64.393 E4.20657
G1 F1800.000 E3.20657
G1 Z0.600 F7800.000
G92 E0
G1 X63.009 Y74.997 F7800.000
G1 Z0.300 F7800.000
G1 E1.00000 F1800.000
G1 X73.398 Y85.386 E1.63957 F1080.000
G1 X73.887 Y85.386 E1.66087
G1 X63.188 Y74.687 E2.31953
G1 X63.367 Y74.377 E2.33512
G1 X74.377 Y85.386 E3.01288
G1 X74.866 Y85.386 E3.03418
G1 X63.546 Y74.066 E3.73104
G1 X63.725 Y73.756 E3.74663
G1 X75.355 Y85.386 E4.46259
G1 X75.845 Y85.386 E4.48389
G1 X63.904 Y73.446 E5.21894
G1 X64.083 Y73.136 E5.23453
G1 X76.334 Y85.386 E5.98868
G1 X76.823 Y85.386 E6.00998
G1 X64.262 Y72.825 E6.78322
G1 X64.441 Y72.515 E6.79882
G1 X77.313 Y85.386 E7.59116
G1 X77.802 Y85.386 E7.61246
G1 X64.621 Y72.205 E8.42390
G1 X64.800 Y71.895 E8.43949
G1 X78.291 Y85.386 E9.27003
G1 X78.781 Y85.386 E9.29132
G1 X64.979 Y71.585 E10.14096
G1 X65.158 Y71.274 E10.15655
G1 X79.270 Y85.386 E11.02528
G1 X79.759 Y85.386 E11.04658
G1 X65.337 Y70.964 E11.93440
G1 X65.516 Y70.654 E11.95000
G1 X80.249 Y85.386 E12.85692
G1 X80.738 Y85.386 E12.87822
G1 X65.695 Y70.344 E13.80424
G1 X65.874 Y70.033 E13.81983
G1 X81.081 Y85.240 E14.75595
G1 X81.260 Y84.930 E14.77154
G1 X66.053 Y69.723 E15.70766
G1 X66.232 Y69.413 E15.72325
G1 X81.439 Y84.620 E16.65937
G1 X81.618 Y84.310 E16.67496
G1 X66.412 Y69.103 E17.61108
G1 X66.591 Y68.793 E17.62667
G1 X81.797 Y83.999 E18.56279
G1 X81.977 Y83.689 E18.57839
G1 X66.770 Y68.482 E19.51450
G1 X66.949 Y68.172 E19.53010
G1 X82.156 Y83.379 E20.46621
G1 X82.335 Y83.069 E20.48181
G1 X67.128 Y67.862 E21.41792
G1 X67.307 Y67.552 E21.43352
G1 X82.514 Y82.758 E22.36964
G1 X82.693 Y82.448 E22.38523
G1 X67.486 Y67.242 E23.32135
G1 X67.665 Y66.931 E23.33694
G1 X82.872 Y82.138 E24.27306
G1 X83.051 Y81.828 E24.28865
G1 X67.844 Y66.621 E25.22477
G1 X68.024 Y66.311 E25.24036
G1 X83.230 Y81.518 E26.17648
G1 X83.409 Y81.207 E26.19207
G1 X68.203 Y66.001 E27.12819
G1 X68.382 Y65.690 E27.14378
G1 X83.588 Y80.897 E28.07990
G1 X83.768 Y80.587 E28.09549
G1 X68.561 Y65.380 E29.03161
G1 X68.740 Y65.070 E29.04720
G1 X83.947 Y80.277 E29.98332
G1 X84.126 Y79.967 E29.99891
G1 X68.919 Y64.760 E30.93503
G1 X69.262 Y64.614 E30.95127
G1 X84.305 Y79.656 E31.87729
G1 X84.484 Y79.346 E31.89288
G1 X69.751 Y64.614 E32.79980
G1 X70.241 Y64.614 E32.82110
G1 X84.663 Y79.036 E33.70893
G1 X84.842 Y78.726 E33.72452
G1 X70.730 Y64.614 E34.59325
G1 X71.219 Y64.614 E34.61455
G1 X85.021 Y78.415 E35.46418
G1 X85.200 Y78.105 E35.47977
G1 X71.709 Y64.614 E36.31031
G1 X72.198 Y64.614 E36.33161
G1 X85.379 Y77.795 E37.14305
G1 X85.559 Y77.485 E37.15864
G1 X72.687 Y64.614 E37.95098
G1 X73.177 Y64.614 E37.97228
G1 X85.738 Y77.175 E38.74553
G1 X85.917 Y76.864 E38.76112
G1 X73.666 Y64.614 E39.51527
G1 X74.155 Y64.614 E39.53657
G1 X86.096 Y76.554 E40.27162
G1 X86.275 Y76.244 E40.28721
G1 X74.645 Y64.614 E41.00317
G1 X75.134 Y64.614 E41.02447
G1 X86.454 Y75.934 E41.72132
G1 X86.633 Y75.623 E41.73692
G1 X75.623 Y64.614 E42.41468
G1 X76.113 Y64.614 E42.43598
G1 X86.812 Y75.313 E43.09464
G1 X86.991 Y75.003 E43.11023
G1 X76.602 Y64.614 E43.74980
G1 X77.091 Y64.614 E43.77110
G1 X86.331 Y73.854 E44.33991
G1 X85.663 Y72.696 F7800.000
G1 X77.581 Y64.614 E44.83744 F1080.000
G1 X78.070 Y64.614 E44.85874
G1 X84.994 Y71.538 E45.28501
G1 X84.326 Y70.380 F7800.000
G1 X78.559 Y64.614 E45.64000 F1080.000
G1 X79.049 Y64.614 E45.66130
G1 X83.754 Y69.319 E45.95098
G1 X83.086 Y68.161 F7800.000
G1 X79.538 Y64.614 E46.16938 F1080.000
G1 X80.027 Y64.614 E46.19068
G1 X82.417 Y67.004 E46.33782
G1 X81.749 Y65.846 F7800.000
G1 X80.517 Y64.614 E46.41368 F1080.000
G1 X81.081 Y64.688 E46.43845
G1 X81.006 Y64.614 E46.44304
G1 F1800.000 E45.44304
G1 Z0.600 F7800.000
G92 E0
G1 X63.669 Y76.146 F7800.000
G1 Z0.300 F7800.000
G1 E1.00000 F1800.000
G1 X72.909 Y85.386 E1.56881 F1080.000
G1 X72.419 Y85.386 E1.59011
G1 X64.337 Y77.304 E2.08764
G1 X65.006 Y78.462 F7800.000
G1 X71.930 Y85.386 E2.51391 F1080.000
G1 X71.441 Y85.386 E2.53521
G1 X65.674 Y79.620 E2.89020
G1 X66.246 Y80.681 F7800.000
G1 X70.951 Y85.386 E3.17988 F1080.000
G1 X70.462 Y85.386 E3.20118
G1 X66.914 Y81.839 E3.41958
G1 X67.583 Y82.996 F7800.000
G1 X69.973 Y85.386 E3.56672 F1080.000
G1 X69.483 Y85.386 E3.58802
G1 X68.251 Y84.154 E3.66389
G1 X68.919 Y85.312 F7800.000
G1 X68.994 Y85.386 E3.66848 F1080.000
M106 S255
M104 S210 ; set temperature
G1 Z0.500 F7800.000
G1 X68.994 Y85.508 F7800.000
G1 X68.755 Y85.508 E3.67653 F600.000
G1 X68.700 Y85.293 E3.68401
G1 X65.750 Y80.184 E3.88251
G1 X65.663 Y79.845 E3.89428
G1 X62.777 Y74.846 E4.08848
G1 X63.186 Y74.446 E4.10773
G1 X69.022 Y64.337 E4.50042
G1 X69.573 Y64.492 E4.51968
G1 X81.245 Y64.492 E4.91237 F600.000
G1 X81.300 Y64.707 E4.91985
G1 X84.250 Y69.816 E5.11834
G1 X84.337 Y70.155 E5.13012
G1 X87.223 Y75.154 E5.32432
G1 X86.814 Y75.554 E5.34357
G1 X80.978 Y85.663 E5.73626
G1 X80.427 Y85.508 E5.75551
G1 X69.054 Y85.508 E6.13814
G1 F1800.000 E5.13814
G1 Z0.800 F7800.000
G92 E0
G1 X80.870 Y85.208 F7800.000
G1 Z0.500 F7800.000
G1 E1.00000 F1800.000
G1 X80.799 Y85.279 E1.00530 F1609.319
G1 X79.997 Y85.187 E1.04793
G1 X82.090 Y83.095 E1.20432
G1 F1800.000 E0.20432
G1 Z0.800 F7800.000
G92 E0
G1 X83.310 Y80.981 F7800.000
G1 Z0.500 F7800.000
G1 E1.00000 F1800.000
G1 X79.104 Y85.187 E1.31433 F1609.319
G1 X78.211 Y85.187 E1.36153
G1 X84.530 Y78.868 E1.83381
G1 F1800.000 E0.83381
G1 Z0.800 F7800.000
G92 E0
G1 X85.750 Y76.755 F7800.000
G1 Z0.500 F7800.000
G1 E1.00000 F1800.000
G1 X77.318 Y85.187 E1.63022 F1609.319
G1 X76.424 Y85.187 E1.67742
G1 X86.708 Y74.904 E2.44596
G1 X86.381 Y74.338 E2.48051
G1 X75.531 Y85.187 E3.29137
G1 X74.638 Y85.187 E3.33858
G1 X86.054 Y73.771 E4.19176
G1 X85.727 Y73.205 E4.22631
G1 X73.745 Y85.187 E5.12182
G1 X72.852 Y85.187 E5.16902
G1 X85.400 Y72.639 E6.10684
G1 X85.073 Y72.073 E6.14140
G1 X71.958 Y85.187 E7.12154
G1 X71.065 Y85.187 E7.16874
G1 X84.746 Y71.506 E8.19121
G1 X84.419 Y70.940 E8.22576
G1 X70.172 Y85.187 E9.29055
G1 X69.279 Y85.187 E9.33775
G1 X84.092 Y70.374 E10.44486
G1 X83.834 Y69.738 E10.48110
G1 X68.781 Y84.792 E11.60613
G1 X68.454 Y84.225 E11.64068
G1 X83.507 Y69.172 E12.76571
G1 X83.180 Y68.606 E12.80027
G1 X68.127 Y83.659 E13.92530
G1 X67.800 Y83.093 E13.95986
G1 X82.854 Y68.040 E15.08489
G1 X82.527 Y67.473 E15.11944
G1 X67.473 Y82.527 E16.24447
G1 X67.146 Y81.960 E16.27903
G1 X82.200 Y66.907 E17.40406
G1 X81.873 Y66.341 E17.43862
G1 X66.820 Y81.394 E18.56365
G1 X66.493 Y80.828 E18.59820
G1 X81.546 Y65.775 E19.72323
G1 X81.219 Y65.208 E19.75779
G1 X66.166 Y80.262 E20.88282
G1 X65.908 Y79.626 E20.91906
G1 X80.721 Y64.813 E22.02616
G1 X79.828 Y64.813 E22.07337
G1 X65.581 Y79.060 E23.13815
G1 X65.254 Y78.494 E23.17271
G1 X78.935 Y64.813 E24.19517
G1 X78.042 Y64.813 E24.24238
G1 X64.927 Y77.927 E25.22252
G1 X64.600 Y77.361 E25.25707
G1 X77.148 Y64.813 E26.19490
G1 X76.255 Y64.813 E26.24210
G1 X64.273 Y76.795 E27.13760
G1 X63.946 Y76.229 E27.17216
G1 X75.362 Y64.813 E28.02534
G1 X74.469 Y64.813 E28.07254
G1 X63.619 Y75.662 E28.88340
G1 X63.292 Y75.096 E28.91796
G1 X73.576 Y64.813 E29.68650
G1 X72.682 Y64.813 E29.73370
G1 X64.250 Y73.245 E30.36392
G1 F1800.000 E29.36392
G1 Z0.800 F7800.000
G92 E0
G1 X65.470 Y71.132 F7800.000
G1 Z0.500 F7800.000
G1 E1.00000 F1800.000
G1 X71.789 Y64.813 E1.47227 F1609.319
G1 X70.896 Y64.813 E1.51948
G1 X66.690 Y69.019 E1.83381
G1 F1800.000 E0.83381
G1 Z0.800 F7800.000
G92 E0
G1 X67.910 Y66.905 F7800.000
G1 Z0.500 F7800.000
G1 E1.00000 F1800.000
G1 X70.003 Y64.813 E1.15639 F1609.319
G1 X69.201 Y64.721 E1.19902
G1 X69.130 Y64.792 E1.20431
G1 Z0.5 F7800.000
G1 Z0.501 X69.110 Y64.301 E1.21827 F600.000
G1 Z0.504 X69.998 Y64.550 E1.24930
G1 Z0.534 X81.320 Y64.550 E1.63022 F600.000
G1 Z0.536 X81.419 Y64.935 E1.64358
G1 Z0.551 X84.281 Y69.893 E1.83619
G1 Z0.553 X84.412 Y70.401 E1.85385
G1 Z0.568 X87.210 Y75.249 E2.04216
G1 Z0.570 X86.551 Y75.893 E2.07319
G1 Z0.601 X80.890 Y85.699 E2.45411
G1 Z0.604 X80.002 Y85.450 E2.48514
G1 Z0.634 X68.680 Y85.450 E2.86606
G1 Z0.636 X68.581 Y85.065 E2.87942
G1 Z0.651 X65.719 Y80.107 E3.07203
G1 Z0.653 X65.588 Y79.599 E3.08969
G1 Z0.668 X62.790 Y74.751 E3.27800
G1 Z0.670 X63.449 Y74.107 E3.30903
G1 Z0.700 X68.903 Y64.661 E3.67599
G1 Z0.7 F7800.000
G1 Z0.701 X69.198 Y64.265 E3.69248 F600.000
G1 Z0.705 X70.424 Y64.608 E3.73528
G1 Z0.735 X81.396 Y64.608 E4.10443 F600.000
G1 Z0.736 X81.538 Y65.163 E4.12368
G1 Z0.751 X84.313 Y69.969 E4.31040
G1 Z0.753 X84.486 Y70.647 E4.33395
G1 Z0.768 X87.197 Y75.343 E4.51637
G1 Z0.771 X86.288 Y76.232 E4.55917
G1 Z0.801 X80.802 Y85.735 E4.92832
G1 Z0.805 X79.576 Y85.392 E4.97112
G1 Z0.835 X68.604 Y85.392 E5.34027
G1 Z0.836 X68.462 Y84.837 E5.35952
G1 Z0.851 X65.687 Y80.031 E5.54624
G1 Z0.853 X65.514 Y79.353 E5.56979
G1 Z0.868 X62.803 Y74.657 E5.75221
G1 Z0.871 X63.712 Y73.768 E5.79501
G1 Z0.900 X68.953 Y64.690 E6.14767
G1 Z0.9 F7800.000
G1 Z0.902 X69.287 Y64.229 E6.16669 F600.000
G1 Z0.906 X70.849 Y64.667 E6.22127
G1 Z0.935 X81.471 Y64.667 E6.57863 F600.000
G1 Z0.937 X81.656 Y65.391 E6.60377
G1 Z0.952 X84.344 Y70.046 E6.78461
G1 Z0.954 X84.561 Y70.893 E6.81405
G1 Z0.968 X87.184 Y75.437 E6.99058
G1 Z0.973 X86.024 Y76.572 E7.04516
G1 Z1.002 X80.713 Y85.771 E7.40253
G1 Z1.006 X79.151 Y85.333 E7.45710
G1 Z1.035 X68.529 Y85.333 E7.81447
G1 Z1.037 X68.344 Y84.609 E7.83961
G1 Z1.052 X65.656 Y79.955 E8.02045
G1 Z1.054 X65.439 Y79.107 E8.04988
G1 Z1.068 X62.816 Y74.563 E8.22642
G1 Z1.073 X63.976 Y73.428 E8.28100
G1 Z1.100 X69.004 Y64.719 E8.61934
G1 Z1.1 F7800.000
G1 Z1.102 X69.375 Y64.193 E8.64090 F600.000
G1 Z1.107 X71.274 Y64.725 E8.70725
G1 Z1.135 X81.546 Y64.725 E9.05284 F600.000
G1 Z1.138 X81.775 Y65.619 E9.08387
G1 Z1.152 X84.375 Y70.122 E9.25882
G1 Z1.155 X84.635 Y71.139 E9.29414
G1 Z1.168 X87.171 Y75.532 E9.46479
G1 Z1.174 X85.761 Y76.911 E9.53114
G1 Z1.202 X80.625 Y85.807 E9.87674
G1 Z1.207 X78.726 Y85.275 E9.94309
G1 Z1.235 X68.454 Y85.275 E10.28868
G1 Z1.238 X68.225 Y84.381 E10.31971
G1 Z1.252 X65.625 Y79.878 E10.49465
G1 Z1.255 X65.365 Y78.861 E10.52998
G1 Z1.268 X62.829 Y74.468 E10.70063
G1 Z1.274 X64.239 Y73.089 E10.76698
G1 Z1.300 X69.055 Y64.748 E11.09102
G1 Z1.3 F7800.000
G1 Z1.302 X69.463 Y64.157 E11.11511 F600.000
G1 Z1.308 X71.699 Y64.784 E11.19323
G1 Z1.335 X81.621 Y64.784 E11.52705 F600.000
G1 Z1.338 X81.894 Y65.847 E11.56397
G1 Z1.352 X84.406 Y70.198 E11.73302
G1 Z1.355 X84.710 Y71.385 E11.77424
G1 Z1.369 X87.158 Y75.626 E11.93900
G1 Z1.375 X85.498 Y77.250 E12.01713
G1 Z1.402 X80.537 Y85.843 E12.35094
G1 Z1.408 X78.301 Y85.216 E12.42907
G1 Z1.435 X68.379 Y85.216 E12.76289
G1 Z1.438 X68.106 Y84.153 E12.79980
G1 Z1.452 X65.594 Y79.802 E12.96886
G1 Z1.455 X65.290 Y78.615 E13.01008
G1 Z1.469 X62.842 Y74.374 E13.17484
G1 Z1.475 X64.502 Y72.750 E13.25296
G1 Z1.500 X69.105 Y64.777 E13.56270
G1 Z1.5 F7800.000
G1 Z1.502 X69.551 Y64.121 E13.58931 F600.000
G1 Z1.509 X72.124 Y64.842 E13.67922
G1 Z1.535 X81.697 Y64.842 E14.00126 F600.000
G1 Z1.539 X82.012 Y66.074 E14.04406
G1 Z1.552 X84.437 Y70.275 E14.20723
G1 Z1.556 X84.784 Y71.631 E14.25433
G1 Z1.569 X87.145 Y75.721 E14.41321
G1 Z1.576 X85.235 Y77.589 E14.50311
G1 Z1.602 X80.449 Y85.879 E14.82515
G1 Z1.609 X77.876 Y85.158 E14.91505
G1 Z1.635 X68.303 Y85.158 E15.23710
G1 Z1.639 X67.988 Y83.926 E15.27990
G1 Z1.652 X65.563 Y79.725 E15.44307
G1 Z1.656 X65.216 Y78.369 E15.49017
G1 Z1.669 X62.855 Y74.279 E15.64904
G1 Z1.676 X64.765 Y72.411 E15.73895
G1 Z1.700 X69.156 Y64.807 E16.03438
G1 Z1.7 F7800.000
G1 Z1.702 X69.639 Y64.086 E16.06352 F600.000
G1 Z1.711 X72.550 Y64.900 E16.16520
G1 Z1.736 X81.772 Y64.900 E16.47547 F600.000
G1 Z1.740 X82.131 Y66.302 E16.52416
G1 Z1.752 X84.468 Y70.351 E16.68144
G1 Z1.757 X84.859 Y71.877 E16.73443
G1 Z1.769 X87.133 Y75.815 E16.88741
G1 Z1.777 X84.972 Y77.928 E16.98909
G1 Z1.802 X80.361 Y85.915 E17.29936
G1 Z1.811 X77.450 Y85.100 E17.40104
G1 Z1.836 X68.228 Y85.100 E17.71131
G1 Z1.840 X67.869 Y83.698 E17.76000
G1 Z1.852 X65.532 Y79.649 E17.91728
G1 Z1.857 X65.141 Y78.123 E17.97027
G1 Z1.869 X62.867 Y74.185 E18.12325
G1 Z1.877 X65.028 Y72.072 E18.22493
G1 Z1.900 X69.206 Y64.836 E18.50605
G1 Z1.9 F7800.000
G1 Z1.903 X69.728 Y64.050 E18.53773 F600.000
G1 Z1.912 X72.975 Y64.959 E18.65118
G1 Z1.936 X81.847 Y64.959 E18.94968 F600.000
G1 Z1.940 X82.249 Y66.530 E19.00425
G1 Z1.953 X84.499 Y70.427 E19.15565
G1 Z1.957 X84.933 Y72.123 E19.21453
G1 Z1.969 X87.120 Y75.909 E19.36162
G1 Z1.978 X84.708 Y78.267 E19.47508
G1 Z2.003 X80.272 Y85.950 E19.77357
G1 Z2.012 X77.025 Y85.041 E19.88702
G1 Z2.036 X68.153 Y85.041 E20.18551
G1 Z2.040 X67.751 Y83.470 E20.24009
G1 Z2.053 X65.501 Y79.573 E20.39149
G1 Z2.057 X65.067 Y77.877 E20.45036
G1 Z2.069 X62.880 Y74.091 E20.59746
G1 Z2.078 X65.292 Y71.733 E20.71091
G1 Z2.100 X69.257 Y64.865 E20.97773
G1 Z2.1 F7800.000
G1 Z2.103 X69.816 Y64.014 E21.01194 F600.000
G1 Z2.113 X73.400 Y65.017 E21.13717
G1 Z2.136 X81.922 Y65.017 E21.42388 F600.000
G1 Z2.141 X82.368 Y66.758 E21.48435
G1 Z2.153 X84.531 Y70.504 E21.62986
G1 Z2.158 X85.008 Y72.369 E21.69462
G1 Z2.169 X87.107 Y76.004 E21.83583
G1 Z2.180 X84.445 Y78.606 E21.96106
G1 Z2.203 X80.184 Y85.986 E22.24778
G1 Z2.213 X76.600 Y84.983 E22.37300
G1 Z2.236 X68.078 Y84.983 E22.65972
G1 Z2.241 X67.632 Y83.242 E22.72019
G1 Z2.253 X65.469 Y79.496 E22.86570
G1 Z2.258 X64.992 Y77.631 E22.93046
G1 Z2.269 X62.893 Y73.996 E23.07167
G1 Z2.280 X65.555 Y71.394 E23.19690
G1 Z2.300 X69.307 Y64.894 E23.44940
G1 Z2.3 F7800.000
G1 Z2.303 X69.904 Y63.978 E23.48615 F600.000
G1 Z2.314 X73.825 Y65.076 E23.62315
G1 Z2.336 X81.998 Y65.076 E23.89809 F600.000
G1 Z2.342 X82.487 Y66.986 E23.96444
