; generated by Slic3r 1.1.7 on 2014-12-14 at 11:17:46

; perimeters extrusion width = 0.40mm
; infill extrusion width = 0.42mm
; solid infill extrusion width = 0.42mm
; top infill extrusion width = 0.42mm

G21 ; set units to millimeters
M107
M104 S200 ; set temperature
G28; Home all axes
G29; Calibrate bed leveling (z-axis)
G91; Relative positioning
G1 X-160 Y160 Z15 F5000; Lift nozzle, return to origin
G90; Absolute positioning again
;G28 X ; Go to corner x
;G28 Y ; Go to corner y

M109 S200 ; wait for temperature to be reached
G90 ; use absolute coordinates
G92 E0
M82 ; use absolute distances for extrusion
G1 F1800.000 E-1.00000
G1 Z0.600 F7800.000
G92 E0
G1 X47.901 Y33.783 F7800.000
G1 Z0.300 F7800.000
G1 E1.00000 F1800.000
G1 X50.344 Y37.174 E1.15159 F720.000
G1 X51.775 Y39.110 E1.23889
G1 X54.681 Y42.944 E1.41338
G1 X56.159 Y44.844 E1.50067
G1 X57.652 Y46.730 E1.58792
G1 X60.685 Y50.466 E1.76245
G1 X63.775 Y54.147 E1.93674
G1 X65.349 Y55.975 E2.02422
G1 X66.933 Y57.785 E2.11147
G1 X70.148 Y61.365 E2.28599
G1 X72.059 Y63.436 E2.38817
G1 X75.080 Y66.635 E2.54777
G1 X78.439 Y70.079 E2.72223
G1 X80.141 Y71.780 E2.80949
G1 X81.857 Y73.468 E2.89680
G1 X85.328 Y76.798 E3.07126
G1 X88.855 Y80.071 E3.24578
G1 X92.436 Y83.286 E3.42030
G1 X96.074 Y86.444 E3.59503
G1 X99.756 Y89.535 E3.76937
G1 X103.492 Y92.567 E3.94389
G1 X107.278 Y95.537 E4.11839
G1 X111.112 Y98.444 E4.29291
G1 X113.047 Y99.873 E4.38016
G1 X116.435 Y102.314 E4.53159
G1 X116.649 Y102.309 E4.53934
G1 X117.232 Y101.912 E4.56495
G1 X117.606 Y101.706 E4.58043
G1 X118.144 Y101.464 E4.60182
G1 X118.546 Y101.321 E4.61727
G1 X119.117 Y101.168 E4.63873
G1 X119.535 Y101.092 E4.65415
G1 X120.124 Y101.032 E4.67562
G1 X120.549 Y101.024 E4.69101
G1 X121.135 Y101.060 E4.71231
G1 X121.558 Y101.120 E4.72780
G1 X122.132 Y101.249 E4.74914
G1 X122.540 Y101.376 E4.76465
G1 X123.085 Y101.595 E4.78595
G1 X123.468 Y101.787 E4.80148
G1 X123.972 Y102.092 E4.82286
G1 X124.319 Y102.341 E4.83835
G1 X124.843 Y102.798 E4.86356
G1 X138.531 Y116.488 E5.56568
G1 X138.978 Y116.998 E5.59028
G1 X139.223 Y117.335 E5.60538
G1 X139.523 Y117.826 E5.62625
G1 X139.712 Y118.196 E5.64132
G1 X139.931 Y118.724 E5.66205
G1 X140.060 Y119.121 E5.67720
G1 X140.193 Y119.678 E5.69795
G1 X140.259 Y120.091 E5.71311
G1 X140.304 Y120.662 E5.73389
G1 X140.304 Y121.079 E5.74905
G1 X140.259 Y121.651 E5.76983
G1 X140.194 Y122.063 E5.78498
G1 X140.061 Y122.619 E5.80568
G1 X139.931 Y123.017 E5.82088
G1 X139.713 Y123.546 E5.84164
G1 X139.523 Y123.919 E5.85681
G1 X139.225 Y124.405 E5.87749
G1 X138.979 Y124.744 E5.89270
G1 X138.532 Y125.255 E5.91730
G1 X128.477 Y135.310 E6.43304
G1 X127.909 Y135.801 E6.46027
G1 X127.528 Y136.067 E6.47711
G1 X126.978 Y136.385 E6.50018
G1 X126.557 Y136.582 E6.51703
G1 X125.960 Y136.799 E6.54007
G1 X125.511 Y136.920 E6.55693
G1 X124.883 Y137.031 E6.58006
G1 X124.518 Y137.063 E6.59333
G1 X124.441 Y137.090 E6.59629
G1 X122.915 Y138.119 E6.66306
G1 X122.574 Y138.314 E6.67730
G1 X118.438 Y140.288 E6.84352
G1 X115.115 Y139.717 E6.96577
G1 X97.781 Y122.384 E7.85483
G1 X97.355 Y121.899 E7.87826
G1 X97.109 Y121.561 E7.89342
G1 X96.731 Y120.912 E7.92064
G1 X96.659 Y120.840 E7.92434
G1 X96.011 Y120.462 E7.95155
G1 X95.671 Y120.216 E7.96678
G1 X95.187 Y119.791 E7.99013
G1 X30.428 Y55.036 E11.31155
G1 X30.003 Y54.552 E11.33493
G1 X29.757 Y54.213 E11.35012
G1 X29.378 Y53.564 E11.37735
G1 X29.307 Y53.492 E11.38104
G1 X28.656 Y53.113 E11.40834
G1 X28.318 Y52.867 E11.42352
G1 X27.834 Y52.443 E11.44684
G1 X10.183 Y34.790 E12.35224
G1 X9.491 Y31.853 E12.46166
G1 X11.088 Y27.083 E12.64409
G1 X11.613 Y26.168 E12.68236
G1 X13.493 Y24.023 E12.78579
G1 X13.829 Y23.249 E12.81643
G1 X14.146 Y22.700 E12.83942
G1 X14.413 Y22.318 E12.85629
G1 X14.905 Y21.747 E12.88363
G1 X25.137 Y11.526 E13.40819
G1 X25.534 Y11.192 E13.42699
G1 X25.915 Y10.925 E13.44384
G1 X26.468 Y10.606 E13.46701
G1 X26.888 Y10.410 E13.48380
G1 X27.485 Y10.192 E13.50687
G1 X27.934 Y10.072 E13.52371
G1 X28.558 Y9.962 E13.54669
G1 X29.021 Y9.921 E13.56358
G1 X29.659 Y9.921 E13.58670
G1 X30.122 Y9.961 E13.60355
G1 X30.749 Y10.071 E13.62663
G1 X31.197 Y10.191 E13.64346
G1 X31.795 Y10.409 E13.66653
G1 X32.216 Y10.605 E13.68337
G1 X32.768 Y10.924 E13.70651
G1 X33.148 Y11.190 E13.72332
G1 X33.547 Y11.525 E13.74223
G1 X47.416 Y25.376 E14.45310
G1 X47.873 Y25.900 E14.47833
G1 X48.122 Y26.247 E14.49382
G1 X48.428 Y26.751 E14.51521
G1 X48.618 Y27.133 E14.53068
G1 X48.838 Y27.680 E14.55206
G1 X48.965 Y28.087 E14.56752
G1 X49.094 Y28.661 E14.58886
G1 X49.154 Y29.084 E14.60436
G1 X49.190 Y29.674 E14.62578
G1 X49.181 Y30.099 E14.64123
G1 X49.122 Y30.683 E14.66249
G1 X49.045 Y31.104 E14.67803
G1 X48.892 Y31.677 E14.69953
G1 X48.749 Y32.077 E14.71494
G1 X48.507 Y32.615 E14.73635
G1 X48.301 Y32.988 E14.75178
G1 X47.905 Y33.570 E14.77730
G1 X47.902 Y33.723 E14.78288
G1 X47.499 Y33.774 F7800.000
G1 X50.085 Y37.364 E14.94334 F720.000
G1 X51.517 Y39.303 E15.03074
G1 X54.427 Y43.140 E15.20541
G1 X55.906 Y45.042 E15.29280
G1 X57.401 Y46.931 E15.38015
G1 X60.437 Y50.671 E15.55487
G1 X63.531 Y54.356 E15.72937
G1 X65.106 Y56.186 E15.81694
G1 X66.692 Y57.998 E15.90428
G1 X69.911 Y61.582 E16.07899
G1 X71.824 Y63.656 E16.18132
G1 X74.847 Y66.857 E16.34101
G1 X76.523 Y68.589 E16.42841
G1 X79.914 Y72.008 E16.60307
G1 X81.633 Y73.698 E16.69048
G1 X85.108 Y77.032 E16.86514
G1 X88.640 Y80.309 E17.03989
G1 X92.224 Y83.527 E17.21460
G1 X95.865 Y86.688 E17.38947
G1 X99.551 Y89.782 E17.56401
G1 X103.291 Y92.818 E17.73868
G1 X107.082 Y95.791 E17.91343
G1 X110.920 Y98.701 E18.08813
G1 X112.858 Y100.132 E18.17548
G1 X116.444 Y102.715 E18.33577
G1 X116.658 Y102.710 E18.34353
G1 X116.929 Y102.498 E18.35600
G1 X117.399 Y102.187 E18.37645
G1 X117.750 Y101.994 E18.39100
G1 X118.264 Y101.763 E18.41144
G1 X118.641 Y101.628 E18.42596
G1 X119.188 Y101.482 E18.44647
G1 X119.581 Y101.410 E18.46096
G1 X120.143 Y101.354 E18.48147
G1 X120.542 Y101.346 E18.49593
G1 X121.103 Y101.380 E18.51630
G1 X121.500 Y101.436 E18.53085
G1 X122.049 Y101.560 E18.55125
G1 X122.432 Y101.679 E18.56582
G1 X122.953 Y101.889 E18.58618
G1 X123.313 Y102.068 E18.60077
G1 X123.795 Y102.360 E18.62121
G1 X124.121 Y102.595 E18.63576
G1 X124.620 Y103.030 E18.65979
G1 X138.433 Y116.854 E19.36855
G1 X138.725 Y117.197 E19.38491
G1 X138.955 Y117.514 E19.39909
G1 X139.243 Y117.983 E19.41903
G1 X139.420 Y118.331 E19.43320
G1 X139.629 Y118.836 E19.45302
G1 X139.750 Y119.209 E19.46725
G1 X139.878 Y119.740 E19.48708
G1 X139.940 Y120.128 E19.50133
G1 X139.983 Y120.674 E19.52119
G1 X139.983 Y121.067 E19.53543
G1 X139.940 Y121.613 E19.55530
G1 X139.878 Y122.001 E19.56953
G1 X139.751 Y122.531 E19.58932
G1 X139.630 Y122.906 E19.60360
G1 X139.420 Y123.411 E19.62344
G1 X139.242 Y123.761 E19.63769
G1 X138.957 Y124.226 E19.65747
G1 X138.726 Y124.545 E19.67175
G1 X138.300 Y125.032 E19.69521
G1 X128.255 Y135.078 E20.21046
G1 X127.713 Y135.546 E20.23643
G1 X127.355 Y135.796 E20.25225
G1 X126.829 Y136.100 E20.27430
G1 X126.433 Y136.285 E20.29013
G1 X125.863 Y136.493 E20.31216
G1 X125.441 Y136.606 E20.32799
G1 X124.840 Y136.712 E20.35011
G1 X124.407 Y136.750 E20.36587
G1 X124.330 Y136.777 E20.36884
G1 X122.745 Y137.846 E20.43819
G1 X122.425 Y138.029 E20.45157
G1 X118.391 Y139.954 E20.61365
G1 X115.270 Y139.418 E20.72849
G1 X98.012 Y122.162 E21.61362
G1 X97.607 Y121.700 E21.63591
G1 X97.377 Y121.382 E21.65014
G1 X97.107 Y120.941 E21.66888
G1 X96.970 Y120.673 E21.67980
G1 X96.898 Y120.601 E21.68349
G1 X96.629 Y120.464 E21.69445
G1 X96.189 Y120.195 E21.71314
G1 X95.870 Y119.963 E21.72744
G1 X95.410 Y119.559 E21.74966
G1 X30.660 Y54.814 E25.07062
G1 X30.255 Y54.353 E25.09286
G1 X30.024 Y54.034 E25.10713
G1 X29.755 Y53.594 E25.12583
G1 X29.617 Y53.325 E25.13679
G1 X29.546 Y53.253 E25.14048
G1 X29.275 Y53.116 E25.15148
G1 X28.835 Y52.846 E25.17020
G1 X28.517 Y52.615 E25.18446
G1 X28.057 Y52.211 E25.20664
G1 X10.475 Y34.627 E26.10851
G1 X9.825 Y31.869 E26.21130
G1 X11.382 Y27.216 E26.38924
G1 X11.876 Y26.356 E26.42519
G1 X13.774 Y24.190 E26.52965
G1 X13.931 Y23.791 E26.54521
G1 X14.115 Y23.397 E26.56096
G1 X14.417 Y22.872 E26.58294
G1 X14.668 Y22.514 E26.59879
G1 X15.137 Y21.970 E26.62486
G1 X25.349 Y11.767 E27.14840
G1 X25.730 Y11.447 E27.16644
G1 X26.088 Y11.197 E27.18227
G1 X26.617 Y10.891 E27.20441
G1 X27.011 Y10.707 E27.22019
G1 X27.582 Y10.499 E27.24225
G1 X28.004 Y10.386 E27.25807
G1 X28.600 Y10.281 E27.28003
G1 X29.036 Y10.242 E27.29590
G1 X29.645 Y10.242 E27.31800
G1 X30.080 Y10.280 E27.33384
G1 X30.679 Y10.386 E27.35589
G1 X31.100 Y10.498 E27.37171
G1 X31.672 Y10.706 E27.39376
G1 X32.067 Y10.890 E27.40958
G1 X32.595 Y11.195 E27.43171
G1 X32.952 Y11.445 E27.44749
G1 X33.335 Y11.767 E27.46564
G1 X47.184 Y25.599 E28.17551
G1 X47.620 Y26.099 E28.19957
G1 X47.854 Y26.424 E28.21412
G1 X48.146 Y26.906 E28.23457
G1 X48.325 Y27.265 E28.24910
G1 X48.535 Y27.788 E28.26953
G1 X48.654 Y28.170 E28.28406
G1 X48.778 Y28.719 E28.30446
G1 X48.834 Y29.116 E28.31902
G1 X48.868 Y29.680 E28.33950
G1 X48.860 Y30.080 E28.35401
G1 X48.804 Y30.638 E28.37434
G1 X48.731 Y31.034 E28.38894
G1 X48.585 Y31.581 E28.40948
G1 X48.451 Y31.957 E28.42396
G1 X48.219 Y32.471 E28.44443
G1 X48.026 Y32.821 E28.45892
G1 X47.715 Y33.291 E28.47936
G1 X47.504 Y33.560 E28.49176
G1 X47.501 Y33.714 E28.49734
G1 X47.090 Y33.754 F7800.000
G1 X49.826 Y37.554 E28.66715 F720.000
G1 X51.259 Y39.495 E28.75465
G1 X54.172 Y43.337 E28.92952
G1 X55.653 Y45.241 E29.01700
G1 X57.149 Y47.131 E29.10445
G1 X60.188 Y50.875 E29.27931
G1 X63.286 Y54.565 E29.45406
G1 X64.863 Y56.396 E29.54172
G1 X66.452 Y58.210 E29.62916
G1 X69.673 Y61.799 E29.80406
G1 X71.589 Y63.875 E29.90653
G1 X74.615 Y67.079 E30.06637
G1 X76.293 Y68.813 E30.15387
G1 X79.689 Y72.237 E30.32877
G1 X81.408 Y73.928 E30.41622
G1 X84.888 Y77.266 E30.59112
G1 X88.423 Y80.547 E30.76602
G1 X92.011 Y83.768 E30.94088
G1 X95.656 Y86.933 E31.11598
G1 X99.347 Y90.030 E31.29072
G1 X103.090 Y93.069 E31.46558
G1 X106.885 Y96.046 E31.64052
G1 X110.728 Y98.959 E31.81543
G1 X112.668 Y100.392 E31.90287
G1 X116.464 Y103.124 E32.07251
G1 X116.692 Y103.110 E32.08079
G1 X117.117 Y102.759 E32.10078
G1 X117.565 Y102.463 E32.12028
G1 X117.894 Y102.282 E32.13389
G1 X118.384 Y102.061 E32.15339
G1 X118.737 Y101.935 E32.16697
G1 X119.258 Y101.796 E32.18653
G1 X119.626 Y101.729 E32.20009
G1 X120.163 Y101.675 E32.21966
G1 X120.535 Y101.667 E32.23318
G1 X121.070 Y101.700 E32.25261
G1 X121.442 Y101.753 E32.26622
G1 X121.965 Y101.870 E32.28568
G1 X122.324 Y101.982 E32.29931
G1 X122.821 Y102.182 E32.31873
G1 X123.158 Y102.350 E32.33238
G1 X123.618 Y102.628 E32.35188
G1 X123.922 Y102.848 E32.36549
G1 X124.397 Y103.262 E32.38835
G1 X138.192 Y117.068 E33.09618
G1 X138.473 Y117.396 E33.11186
G1 X138.688 Y117.692 E33.12512
G1 X138.962 Y118.140 E33.14415
G1 X139.128 Y118.465 E33.15740
G1 X139.327 Y118.947 E33.17631
G1 X139.441 Y119.296 E33.18962
G1 X139.562 Y119.803 E33.20854
G1 X139.620 Y120.166 E33.22187
G1 X139.661 Y120.687 E33.24082
G1 X139.661 Y121.054 E33.25414
G1 X139.620 Y121.575 E33.27309
G1 X139.563 Y121.938 E33.28640
G1 X139.441 Y122.444 E33.30529
G1 X139.328 Y122.794 E33.31864
G1 X139.128 Y123.277 E33.33757
G1 X138.961 Y123.604 E33.35090
G1 X138.690 Y124.048 E33.36977
G1 X138.473 Y124.346 E33.38313
G1 X138.068 Y124.809 E33.40544
G1 X128.033 Y134.846 E33.92021
G1 X127.517 Y135.290 E33.94491
G1 X127.182 Y135.525 E33.95971
G1 X126.680 Y135.815 E33.98075
G1 X126.310 Y135.987 E33.99555
G1 X125.766 Y136.186 E34.01657
G1 X125.371 Y136.292 E34.03138
G1 X124.798 Y136.393 E34.05248
G1 X124.323 Y136.428 E34.06978
G1 X124.231 Y136.456 E34.07326
G1 X122.575 Y137.573 E34.14569
G1 X122.275 Y137.744 E34.15821
G1 X118.345 Y139.620 E34.31615
G1 X115.426 Y139.118 E34.42359
G1 X98.244 Y121.939 E35.30479
G1 X97.860 Y121.500 E35.32592
G1 X97.644 Y121.203 E35.33924
G1 X97.388 Y120.784 E35.35706
G1 X97.209 Y120.434 E35.37131
G1 X97.137 Y120.362 E35.37501
G1 X96.786 Y120.183 E35.38929
G1 X96.368 Y119.927 E35.40707
G1 X96.070 Y119.710 E35.42045
G1 X95.633 Y119.328 E35.44152
G1 X30.891 Y54.591 E38.76203
G1 X30.508 Y54.153 E38.78312
G1 X30.292 Y53.856 E38.79647
G1 X30.035 Y53.437 E38.81427
G1 X29.856 Y53.086 E38.82855
G1 X29.785 Y53.015 E38.83224
G1 X29.433 Y52.835 E38.84656
G1 X29.014 Y52.578 E38.86438
G1 X28.717 Y52.362 E38.87771
G1 X28.280 Y51.980 E38.89876
G1 X10.767 Y34.465 E39.79707
G1 X10.159 Y31.884 E39.89323
G1 X11.677 Y27.348 E40.06670
G1 X12.139 Y26.544 E40.10034
G1 X14.056 Y24.357 E40.20582
G1 X14.228 Y23.914 E40.22305
G1 X14.400 Y23.546 E40.23779
G1 X14.689 Y23.045 E40.25875
G1 X14.923 Y22.710 E40.27359
G1 X15.369 Y22.192 E40.29837
G1 X25.561 Y12.009 E40.82089
G1 X25.926 Y11.702 E40.83818
G1 X26.261 Y11.468 E40.85299
G1 X26.765 Y11.177 E40.87412
G1 X27.134 Y11.005 E40.88888
G1 X27.679 Y10.806 E40.90991
G1 X28.073 Y10.700 E40.92472
G1 X28.642 Y10.600 E40.94567
G1 X29.050 Y10.564 E40.96051
G1 X29.631 Y10.564 E40.98160
G1 X30.038 Y10.599 E40.99641
G1 X30.610 Y10.700 E41.01745
G1 X31.004 Y10.805 E41.03225
G1 X31.549 Y11.003 E41.05328
G1 X31.919 Y11.176 E41.06808
G1 X32.423 Y11.467 E41.08919
G1 X32.756 Y11.700 E41.10396
G1 X33.123 Y12.008 E41.12135
G1 X46.952 Y25.821 E41.83022
G1 X47.366 Y26.297 E41.85310
G1 X47.586 Y26.601 E41.86671
G1 X47.864 Y27.062 E41.88621
G1 X48.031 Y27.397 E41.89981
G1 X48.232 Y27.896 E41.91930
G1 X48.343 Y28.253 E41.93289
G1 X48.461 Y28.777 E41.95235
G1 X48.514 Y29.149 E41.96597
G1 X48.547 Y29.686 E41.98551
G1 X48.539 Y30.060 E41.99908
G1 X48.485 Y30.592 E42.01847
G1 X48.418 Y30.963 E42.03213
G1 X48.278 Y31.485 E42.05173
G1 X48.152 Y31.836 E42.06527
G1 X47.931 Y32.327 E42.08479
G1 X47.751 Y32.655 E42.09835
G1 X47.454 Y33.103 E42.11785
G1 X47.104 Y33.527 E42.13776
G1 X47.094 Y33.694 E42.14387
G1 X46.677 Y33.726 F7800.000
G1 X48.149 Y35.792 E42.23586 F720.000
G1 X51.001 Y39.686 E42.41091
G1 X53.918 Y43.533 E42.58602
G1 X55.399 Y45.438 E42.67355
G1 X56.898 Y47.332 E42.76114
G1 X59.941 Y51.080 E42.93625
G1 X63.042 Y54.774 E43.11115
G1 X64.621 Y56.607 E43.19889
G1 X66.211 Y58.423 E43.28643
G1 X69.436 Y62.016 E43.46153
G1 X71.368 Y64.109 E43.56483
G1 X74.383 Y67.302 E43.72413
G1 X76.063 Y69.038 E43.81172
G1 X79.462 Y72.464 E43.98676
G1 X81.184 Y74.158 E44.07437
G1 X84.667 Y77.500 E44.24946
G1 X88.205 Y80.783 E44.42450
G1 X91.799 Y84.009 E44.59965
G1 X95.448 Y87.177 E44.77489
G1 X97.287 Y88.734 E44.86228
G1 X101.009 Y91.807 E45.03734
G1 X104.782 Y94.818 E45.21242
G1 X108.607 Y97.767 E45.38758
G1 X112.478 Y100.651 E45.56266
G1 X116.492 Y103.538 E45.74199
G1 X116.718 Y103.523 E45.75021
G1 X117.030 Y103.236 E45.76558
G1 X117.305 Y103.020 E45.77825
G1 X117.732 Y102.738 E45.79681
G1 X118.038 Y102.570 E45.80948
G1 X118.504 Y102.360 E45.82803
G1 X118.833 Y102.243 E45.84068
G1 X119.329 Y102.110 E45.85930
G1 X119.671 Y102.047 E45.87191
G1 X120.182 Y101.996 E45.89054
G1 X120.529 Y101.989 E45.90313
G1 X121.038 Y102.020 E45.92162
G1 X121.384 Y102.069 E45.93430
G1 X121.882 Y102.181 E45.95282
G1 X122.216 Y102.285 E45.96550
G1 X122.689 Y102.476 E45.98399
G1 X123.002 Y102.632 E45.99670
G1 X123.440 Y102.897 E46.01525
G1 X123.724 Y103.101 E46.02793
G1 X124.175 Y103.494 E46.04961
G1 X137.952 Y117.281 E46.75652
G1 X138.220 Y117.596 E46.77151
G1 X138.420 Y117.871 E46.78386
G1 X138.681 Y118.297 E46.80197
G1 X138.835 Y118.600 E46.81430
G1 X139.025 Y119.058 E46.83230
G1 X139.131 Y119.383 E46.84469
G1 X139.247 Y119.866 E46.86270
G1 X139.301 Y120.204 E46.87511
G1 X139.340 Y120.700 E46.89314
G1 X139.340 Y121.042 E46.90554
G1 X139.301 Y121.538 E46.92359
G1 X139.247 Y121.875 E46.93598
G1 X139.132 Y122.357 E46.95395
G1 X139.026 Y122.683 E46.96639
G1 X138.836 Y123.142 E46.98441
G1 X138.681 Y123.447 E46.99682
G1 X138.422 Y123.869 E47.01477
G1 X138.221 Y124.147 E47.02721
G1 X137.953 Y124.460 E47.04215
G1 X127.810 Y134.614 E47.56266
G1 X127.321 Y135.035 E47.58609
G1 X127.009 Y135.253 E47.59987
G1 X126.531 Y135.529 E47.61989
G1 X126.187 Y135.690 E47.63368
G1 X125.669 Y135.879 E47.65368
G1 X125.302 Y135.978 E47.66747
G1 X124.756 Y136.074 E47.68755
G1 X124.224 Y136.107 E47.70688
G1 X124.133 Y136.135 E47.71036
G1 X122.405 Y137.300 E47.78592
G1 X122.126 Y137.459 E47.79757
