; generated by Slic3r 1.1.7 on 2014-12-12 at 17:45:30

; perimeters extrusion width = 0.40mm
; infill extrusion width = 0.42mm
; solid infill extrusion width = 0.42mm
; top infill extrusion width = 0.42mm

G21 ; set units to millimeters
M107
M104 S215 ; set temperature
G28 ; home all axes
G29; calibrate bed leveling
G1 Z5 F5000 ; lift nozzle
G28 X ; Go to corner x
G28 Y ; Go to corner y

M109 S215 ; wait for temperature to be reached
G90 ; use absolute coordinates
G92 E0
M82 ; use absolute distances for extrusion
G1 F1800.000 E-1.00000
G1 Z0.600 F7800.000
G92 E0
G1 X53.746 Y63.507 F7800.000
G1 Z0.300 F7800.000
G1 E1.00000 F1800.000
G1 X54.100 Y63.209 E1.01879 F1080.000
G1 X55.072 Y62.528 E1.06691
G1 X55.474 Y62.297 E1.08569
G1 X56.549 Y61.795 E1.13381
G1 X56.984 Y61.637 E1.15260
G1 X57.334 Y61.543 E1.16729
G1 X58.130 Y61.330 E1.20072
G1 X58.586 Y61.249 E1.21951
G1 X59.884 Y61.146 E1.27231
G1 X71.734 Y61.146 E1.75291
G1 X74.930 Y64.337 E1.93607
G1 X75.205 Y64.331 E1.94719
G1 X78.131 Y61.146 E2.12261
G1 X80.774 Y61.146 E2.22978
G1 X90.116 Y61.146 E2.60866 F1080.000
G1 X91.414 Y61.249 E2.66146
G1 X91.870 Y61.330 E2.68025
G1 X93.016 Y61.637 E2.72837
G1 X93.451 Y61.795 E2.74715
G1 X94.526 Y62.297 E2.79527
G1 X94.928 Y62.528 E2.81406
G1 X95.900 Y63.209 E2.86218
G1 X96.254 Y63.507 E2.88097
G1 X97.093 Y64.346 E2.92909
G1 X97.391 Y64.700 E2.94787
G1 X98.072 Y65.672 E2.99599
G1 X98.303 Y66.074 E3.01478
G1 X98.805 Y67.149 E3.06290
G1 X98.963 Y67.584 E3.08169
G1 X99.270 Y68.730 E3.12981
G1 X99.351 Y69.186 E3.14859
G1 X99.454 Y70.484 E3.20140
G1 X99.454 Y80.716 E3.61635
G1 X99.351 Y82.014 E3.66915
G1 X99.270 Y82.470 E3.68794
G1 X98.915 Y83.748 E3.74173
G1 X98.918 Y83.868 E3.74662
G1 X99.258 Y84.690 E3.78268
G1 X96.254 Y87.693 E3.95496
G1 X95.900 Y87.991 E3.97374
G1 X94.928 Y88.672 E4.02187
G1 X94.526 Y88.903 E4.04065
G1 X93.451 Y89.405 E4.08877
G1 X93.016 Y89.563 E4.10756
G1 X91.870 Y89.870 E4.15568
G1 X91.414 Y89.951 E4.17446
G1 X90.116 Y90.054 E4.22727
G1 X59.884 Y90.054 E5.45335
G1 X58.586 Y89.951 E5.50615
G1 X58.130 Y89.870 E5.52494
G1 X56.984 Y89.563 E5.57306
G1 X56.549 Y89.405 E5.59184
G1 X56.221 Y89.252 E5.60654
G1 X55.473 Y88.903 E5.63997
G1 X55.072 Y88.672 E5.65875
G1 X54.100 Y87.991 E5.70687
G1 X53.746 Y87.693 E5.72566
G1 X53.489 Y87.437 E5.74035
G1 X52.907 Y86.854 E5.77378
G1 X52.609 Y86.500 E5.79257
G1 X51.928 Y85.528 E5.84069
G1 X51.697 Y85.127 E5.85947
G1 X51.544 Y84.798 E5.87416
G1 X51.195 Y84.051 E5.90759
G1 X51.037 Y83.616 E5.92638
G1 X50.730 Y82.470 E5.97450
G1 X50.649 Y82.014 E5.99329
G1 X50.556 Y80.947 E6.03671
G1 X50.546 Y70.484 E6.46104
G1 X50.649 Y69.186 E6.51385
G1 X50.730 Y68.730 E6.53263
G1 X51.037 Y67.584 E6.58075
G1 X51.195 Y67.149 E6.59954
G1 X51.697 Y66.074 E6.64766
G1 X51.928 Y65.672 E6.66644
G1 X52.609 Y64.700 E6.71457
G1 X52.907 Y64.346 E6.73335
G1 X53.703 Y63.549 E6.77904
G1 F1800.000 E5.77904
G1 Z0.600 F7800.000
G92 E0
G1 X62.492 Y72.904 F7800.000
G1 Z0.300 F7800.000
G1 E1.00000 F1800.000
G1 X71.710 Y72.904 E1.37383 F1080.000
G1 X74.883 Y69.763 E1.55492
G1 X75.149 Y69.764 E1.56572 F1080.000
G1 X78.261 Y72.904 E1.74500
G1 X87.508 Y72.904 E2.12001
G1 X87.696 Y73.092 E2.13081
G1 X87.696 Y78.108 E2.33421
G1 X87.508 Y78.296 E2.34501
G1 X62.492 Y78.296 E3.35954
G1 X62.304 Y78.108 E3.37034
G1 X62.304 Y73.092 E3.57374
G1 X62.450 Y72.947 E3.58210
G1 X62.450 Y72.583 F7800.000
G1 X62.171 Y72.583 E3.59342 F1080.000
G1 X61.983 Y72.771 E3.60422
G1 X61.983 Y78.429 E3.83370
G1 X62.171 Y78.617 E3.84450
G1 X87.829 Y78.617 E4.88510
G1 X88.017 Y78.429 E4.89590
G1 X88.017 Y72.771 E5.12537
G1 X87.829 Y72.583 E5.13617
G1 X78.395 Y72.583 E5.51878
G1 X75.471 Y69.632 E5.68726
G1 X75.496 Y66.879 E5.79893
G1 X75.312 Y64.689 E5.88803
G1 X78.273 Y61.467 E6.06550
G1 X80.705 Y61.467 E6.16417
G1 X90.109 Y61.467 E6.54553 F1080.000
G1 X91.372 Y61.568 E6.59692
G1 X91.800 Y61.644 E6.61456
G1 X92.919 Y61.944 E6.66155
G1 X93.328 Y62.093 E6.67919
G1 X94.378 Y62.582 E6.72618
G1 X94.755 Y62.800 E6.74382
G1 X95.704 Y63.464 E6.79081
G1 X96.037 Y63.744 E6.80845
G1 X96.856 Y64.563 E6.85544
G1 X97.136 Y64.896 E6.87308
G1 X97.800 Y65.845 E6.92007
G1 X98.018 Y66.222 E6.93771
G1 X98.507 Y67.272 E6.98470
G1 X98.656 Y67.681 E7.00234
G1 X98.956 Y68.800 E7.04933
G1 X99.032 Y69.228 E7.06697
G1 X99.123 Y70.274 E7.10954
G1 X99.133 Y80.709 E7.53274
G1 X99.032 Y81.972 E7.58412
G1 X98.956 Y82.400 E7.60176
G1 X98.656 Y83.519 E7.64875
G1 X98.570 Y83.755 E7.65894
G1 X98.573 Y83.876 E7.66383
G1 X98.879 Y84.614 E7.69625
G1 X96.037 Y87.456 E7.85924
G1 X95.704 Y87.736 E7.87689
G1 X94.755 Y88.400 E7.92388
G1 X94.378 Y88.618 E7.94152
G1 X93.328 Y89.107 E7.98850
G1 X92.919 Y89.256 E8.00615
G1 X91.800 Y89.556 E8.05314
G1 X91.372 Y89.632 E8.07078
G1 X90.109 Y89.733 E8.12216
G1 X59.891 Y89.733 E9.34768
G1 X58.628 Y89.632 E9.39906
G1 X58.200 Y89.556 E9.41670
G1 X57.081 Y89.256 E9.46369
G1 X56.672 Y89.107 E9.48133
G1 X55.622 Y88.618 E9.52832
G1 X55.245 Y88.400 E9.54597
G1 X54.296 Y87.736 E9.59295
G1 X53.963 Y87.456 E9.61059
G1 X53.144 Y86.637 E9.65758
G1 X52.864 Y86.304 E9.67523
G1 X52.200 Y85.355 E9.72221
G1 X51.982 Y84.978 E9.73985
G1 X51.493 Y83.928 E9.78684
G1 X51.344 Y83.519 E9.80448
G1 X51.044 Y82.400 E9.85147
G1 X50.968 Y81.972 E9.86911
G1 X50.867 Y80.709 E9.92050
G1 X50.867 Y70.491 E10.33488
G1 X50.968 Y69.228 E10.38626
G1 X51.044 Y68.800 E10.40391
G1 X51.344 Y67.681 E10.45089
G1 X51.493 Y67.272 E10.46854
G1 X51.982 Y66.222 E10.51552
G1 X52.200 Y65.845 E10.53317
G1 X52.399 Y65.560 E10.54729
G1 X52.864 Y64.896 E10.58015
G1 X53.144 Y64.563 E10.59780
G1 X53.963 Y63.744 E10.64478
G1 X54.296 Y63.464 E10.66243
G1 X55.245 Y62.800 E10.70941
G1 X55.622 Y62.582 E10.72706
G1 X56.672 Y62.093 E10.77404
G1 X57.081 Y61.944 E10.79169
G1 X58.200 Y61.644 E10.83867
G1 X58.628 Y61.568 E10.85632
G1 X59.891 Y61.467 E10.90770
G1 X71.601 Y61.467 E11.38262
G1 X74.519 Y64.380 E11.54982
G1 X74.523 Y66.801 E11.64801
G1 X74.490 Y69.699 E11.76556
G1 X71.578 Y72.583 E11.93177
G1 X62.510 Y72.583 E12.29953
G1 X62.510 Y72.261 F7800.000
G1 X61.849 Y72.261 E12.32632 F1080.000
G1 X61.661 Y72.449 E12.33712
G1 X61.661 Y78.751 E12.59267
G1 X61.849 Y78.939 E12.60347
G1 X88.151 Y78.939 E13.67014
G1 X88.339 Y78.751 E13.68094
G1 X88.339 Y72.449 E13.93649
G1 X88.151 Y72.261 E13.94729
G1 X78.529 Y72.261 E14.33751
G1 X75.794 Y69.501 E14.49512
G1 X75.817 Y66.867 E14.60196
G1 X75.644 Y64.803 E14.68594
G1 X78.414 Y61.789 E14.85196
G1 X80.774 Y61.789 E14.94768
G1 X90.102 Y61.789 E15.32599 F1080.000
G1 X91.330 Y61.887 E15.37595
G1 X91.731 Y61.958 E15.39246
G1 X92.822 Y62.251 E15.43830
G1 X93.205 Y62.390 E15.45481
G1 X94.229 Y62.868 E15.50065
G1 X94.582 Y63.071 E15.51716
G1 X95.508 Y63.719 E15.56300
G1 X95.820 Y63.981 E15.57951
G1 X96.619 Y64.780 E15.62536
G1 X96.881 Y65.092 E15.64186
G1 X97.529 Y66.018 E15.68771
G1 X97.732 Y66.371 E15.70422
G1 X98.210 Y67.395 E15.75006
G1 X98.349 Y67.778 E15.76657
G1 X98.642 Y68.870 E15.81242
G1 X98.713 Y69.270 E15.82892
G1 X98.811 Y70.498 E15.87888
G1 X98.802 Y80.905 E16.30094
G1 X98.713 Y81.930 E16.34266
G1 X98.642 Y82.330 E16.35916
G1 X98.349 Y83.422 E16.40501
G1 X98.226 Y83.763 E16.41970
G1 X98.228 Y83.883 E16.42459
G1 X98.500 Y84.539 E16.45337
G1 X95.820 Y87.219 E16.60709
G1 X95.508 Y87.481 E16.62359
G1 X95.234 Y87.672 E16.63715
G1 X94.582 Y88.129 E16.66944
G1 X94.229 Y88.332 E16.68595
G1 X93.205 Y88.810 E16.73179
G1 X92.822 Y88.949 E16.74830
G1 X91.730 Y89.242 E16.79415
G1 X91.330 Y89.313 E16.81065
G1 X90.102 Y89.411 E16.86061
G1 X59.898 Y89.411 E18.08556
G1 X58.670 Y89.313 E18.13552
G1 X58.270 Y89.242 E18.15202
G1 X57.178 Y88.949 E18.19787
G1 X56.795 Y88.810 E18.21438
G1 X55.771 Y88.332 E18.26022
G1 X55.418 Y88.129 E18.27673
G1 X54.492 Y87.481 E18.32257
G1 X54.180 Y87.219 E18.33908
G1 X53.381 Y86.420 E18.38493
G1 X53.119 Y86.108 E18.40144
G1 X52.471 Y85.182 E18.44728
G1 X52.268 Y84.829 E18.46379
G1 X51.790 Y83.805 E18.50963
G1 X51.651 Y83.422 E18.52614
G1 X51.358 Y82.330 E18.57199
G1 X51.287 Y81.930 E18.58850
G1 X51.189 Y80.702 E18.63846
G1 X51.189 Y70.498 E19.05227
G1 X51.287 Y69.270 E19.10223
G1 X51.358 Y68.870 E19.11874
G1 X51.651 Y67.778 E19.16458
G1 X51.790 Y67.395 E19.18109
G1 X52.268 Y66.371 E19.22694
G1 X52.471 Y66.018 E19.24344
G1 X52.663 Y65.744 E19.25700
G1 X53.119 Y65.092 E19.28929
G1 X53.381 Y64.780 E19.30580
G1 X54.180 Y63.981 E19.35164
G1 X54.492 Y63.719 E19.36815
G1 X55.418 Y63.071 E19.41400
G1 X55.771 Y62.868 E19.43050
G1 X56.795 Y62.390 E19.47635
G1 X57.178 Y62.251 E19.49285
G1 X58.270 Y61.958 E19.53870
G1 X58.670 Y61.887 E19.55521
G1 X59.898 Y61.789 E19.60517
G1 X71.468 Y61.789 E20.07441
G1 X74.198 Y64.514 E20.23083
G1 X74.202 Y66.800 E20.32356
G1 X74.170 Y69.564 E20.43565
G1 X71.446 Y72.261 E20.59114
G1 X62.570 Y72.261 E20.95111
G1 X62.570 Y71.940 F7800.000
G1 X61.528 Y71.940 E20.99336 F1080.000
G1 X61.340 Y72.128 E21.00417
G1 X61.340 Y79.072 E21.28579
G1 X61.528 Y79.260 E21.29659
G1 X88.472 Y79.260 E22.38934
G1 X88.660 Y79.072 E22.40014
G1 X88.660 Y72.128 E22.68176
G1 X88.472 Y71.940 E22.69256
G1 X78.663 Y71.940 E23.09038
G1 X76.116 Y69.370 E23.23712
G1 X76.139 Y66.854 E23.33913
G1 X75.976 Y64.917 E23.41800
G1 X78.555 Y62.110 E23.57257
G1 X80.705 Y62.110 E23.65979
G1 X90.095 Y62.110 E24.04059 F1080.000
G1 X91.288 Y62.206 E24.08913
G1 X91.661 Y62.272 E24.10450
G1 X92.726 Y62.557 E24.14920
G1 X93.082 Y62.687 E24.16457
G1 X94.081 Y63.153 E24.20928
G1 X94.409 Y63.342 E24.22465
G1 X95.312 Y63.975 E24.26935
G1 X95.602 Y64.218 E24.28472
G1 X96.382 Y64.998 E24.32943
G1 X96.625 Y65.288 E24.34480
G1 X97.258 Y66.191 E24.38951
G1 X97.447 Y66.519 E24.40488
G1 X97.913 Y67.518 E24.44958
G1 X98.043 Y67.874 E24.46495
G1 X98.328 Y68.939 E24.50966
G1 X98.394 Y69.312 E24.52503
G1 X98.490 Y70.505 E24.57357
G1 X98.490 Y80.695 E24.98681
G1 X98.394 Y81.888 E25.03535
G1 X98.328 Y82.261 E25.05072
G1 X98.043 Y83.326 E25.09543
G1 X97.883 Y83.747 E25.11370
G1 X97.880 Y83.882 E25.11918
G1 X98.120 Y84.463 E25.14471
G1 X95.602 Y86.982 E25.28914
G1 X95.312 Y87.225 E25.30451
G1 X95.050 Y87.409 E25.31750
G1 X94.409 Y87.858 E25.34922
G1 X94.081 Y88.047 E25.36459
G1 X93.082 Y88.513 E25.40929
G1 X92.726 Y88.643 E25.42466
G1 X91.661 Y88.928 E25.46937
G1 X91.288 Y88.994 E25.48474
G1 X90.095 Y89.090 E25.53328
G1 X59.905 Y89.090 E26.75765
G1 X58.712 Y88.994 E26.80619
G1 X58.339 Y88.928 E26.82156
G1 X57.274 Y88.643 E26.86627
G1 X56.918 Y88.513 E26.88163
G1 X55.919 Y88.047 E26.92634
G1 X55.591 Y87.858 E26.94171
G1 X54.688 Y87.225 E26.98642
G1 X54.398 Y86.982 E27.00179
G1 X53.618 Y86.202 E27.04650
G1 X53.375 Y85.912 E27.06187
G1 X52.742 Y85.009 E27.10657
G1 X52.553 Y84.681 E27.12194
G1 X52.087 Y83.682 E27.16665
G1 X51.957 Y83.326 E27.18202
G1 X51.672 Y82.261 E27.22672
G1 X51.606 Y81.888 E27.24209
G1 X51.510 Y80.695 E27.29063
G1 X51.510 Y70.505 E27.70388
G1 X51.606 Y69.312 E27.75241
G1 X51.672 Y68.939 E27.76778
G1 X51.957 Y67.874 E27.81249
G1 X52.087 Y67.518 E27.82786
G1 X52.553 Y66.519 E27.87257
G1 X52.742 Y66.191 E27.88793
G1 X52.926 Y65.929 E27.90092
G1 X53.375 Y65.288 E27.93264
G1 X53.618 Y64.998 E27.94801
G1 X54.398 Y64.218 E27.99272
G1 X54.688 Y63.975 E28.00809
G1 X55.591 Y63.342 E28.05279
G1 X55.919 Y63.153 E28.06816
G1 X56.918 Y62.687 E28.11287
G1 X57.274 Y62.557 E28.12824
G1 X58.339 Y62.272 E28.17295
G1 X58.712 Y62.206 E28.18832
G1 X59.905 Y62.110 E28.23685
G1 X71.335 Y62.110 E28.70042
G1 X73.877 Y64.647 E28.84605
G1 X73.880 Y66.799 E28.93333
G1 X73.850 Y69.428 E29.03996
G1 X71.313 Y71.940 E29.18473
G1 X62.630 Y71.940 E29.53690
G1 X62.630 Y71.618 F7800.000
G1 X61.207 Y71.618 E29.59463 F1080.000
G1 X61.018 Y71.807 E29.60543
G1 X61.018 Y79.393 E29.91312
G1 X61.207 Y79.582 E29.92392
G1 X88.793 Y79.582 E31.04275
G1 X88.982 Y79.393 E31.05355
G1 X88.982 Y71.807 E31.36125
G1 X88.793 Y71.618 E31.37205
G1 X78.797 Y71.618 E31.77747
G1 X76.439 Y69.239 E31.91334
G1 X76.461 Y66.842 E32.01053
G1 X76.308 Y65.030 E32.08428
G1 X78.696 Y62.432 E32.22740
G1 X80.774 Y62.432 E32.31167
G1 X90.088 Y62.432 E32.68941 F1080.000
G1 X91.246 Y62.525 E32.73652
G1 X91.591 Y62.586 E32.75075
G1 X92.629 Y62.864 E32.79432
G1 X92.959 Y62.984 E32.80855
G1 X93.932 Y63.438 E32.85212
G1 X94.236 Y63.614 E32.86635
G1 X95.116 Y64.230 E32.90992
G1 X95.385 Y64.456 E32.92415
G1 X96.144 Y65.215 E32.96772
G1 X96.370 Y65.484 E32.98195
G1 X96.986 Y66.364 E33.02552
G1 X97.162 Y66.668 E33.03975
G1 X97.616 Y67.641 E33.08332
G1 X97.736 Y67.971 E33.09755
G1 X98.014 Y69.009 E33.14112
G1 X98.075 Y69.354 E33.15535
G1 X98.168 Y70.512 E33.20246
G1 X98.168 Y80.688 E33.61514
G1 X98.075 Y81.846 E33.66225
G1 X98.014 Y82.191 E33.67648
G1 X97.736 Y83.229 E33.72005
G1 X97.531 Y83.739 E33.74234
G1 X97.529 Y83.874 E33.74783
G1 X97.741 Y84.388 E33.77038
G1 X95.385 Y86.744 E33.90553
G1 X95.116 Y86.970 E33.91976
G1 X94.865 Y87.146 E33.93218
G1 X94.236 Y87.586 E33.96333
G1 X93.932 Y87.762 E33.97756
G1 X92.959 Y88.216 E34.02113
G1 X92.629 Y88.336 E34.03536
G1 X91.591 Y88.614 E34.07893
G1 X91.246 Y88.675 E34.09316
G1 X90.088 Y88.768 E34.14028
G1 X59.912 Y88.768 E35.36408
G1 X58.754 Y88.675 E35.41120
G1 X58.409 Y88.614 E35.42543
G1 X57.371 Y88.336 E35.46900
G1 X57.041 Y88.216 E35.48323
G1 X56.068 Y87.762 E35.52680
G1 X55.764 Y87.586 E35.54103
G1 X54.884 Y86.970 E35.58460
G1 X54.615 Y86.744 E35.59883
G1 X53.856 Y85.985 E35.64240
G1 X53.630 Y85.716 E35.65663
G1 X53.014 Y84.836 E35.70019
G1 X52.838 Y84.532 E35.71442
G1 X52.384 Y83.559 E35.75799
G1 X52.264 Y83.229 E35.77223
G1 X51.986 Y82.191 E35.81579
G1 X51.925 Y81.846 E35.83002
G1 X51.832 Y80.688 E35.87714
G1 X51.832 Y70.512 E36.28982
G1 X51.925 Y69.354 E36.33693
G1 X51.986 Y69.009 E36.35116
G1 X52.264 Y67.971 E36.39473
G1 X52.384 Y67.641 E36.40896
G1 X52.838 Y66.668 E36.45253
G1 X53.014 Y66.364 E36.46676
G1 X53.189 Y66.113 E36.47918
G1 X53.630 Y65.484 E36.51033
G1 X53.856 Y65.215 E36.52456
G1 X54.615 Y64.456 E36.56813
G1 X54.884 Y64.230 E36.58236
G1 X55.764 Y63.614 E36.62593
G1 X56.068 Y63.438 E36.64016
G1 X57.041 Y62.984 E36.68373
G1 X57.371 Y62.864 E36.69796
G1 X58.409 Y62.586 E36.74153
G1 X58.754 Y62.525 E36.75576
G1 X59.912 Y62.432 E36.80287
G1 X71.202 Y62.432 E37.26076
G1 X73.555 Y64.781 E37.39560
G1 X73.559 Y66.799 E37.47743
G1 X73.530 Y69.293 E37.57861
G1 X71.181 Y71.618 E37.71265
G1 X62.690 Y71.618 E38.05702
G1 X62.690 Y71.297 F7800.000
G1 X60.885 Y71.297 E38.13022 F1080.000
G1 X60.697 Y71.485 E38.14102
G1 X60.697 Y79.715 E38.47480
G1 X60.885 Y79.903 E38.48560
G1 X89.115 Y79.903 E39.63050
G1 X89.303 Y79.715 E39.64130
G1 X89.303 Y71.485 E39.97507
G1 X89.115 Y71.297 E39.98587
G1 X78.931 Y71.297 E40.39889
G1 X76.762 Y69.107 E40.52389
G1 X76.782 Y66.830 E40.61626
G1 X76.640 Y65.144 E40.68489
G1 X78.837 Y62.753 E40.81656
G1 X80.705 Y62.753 E40.89233
G1 X90.081 Y62.753 E41.27256 F1080.000
G1 X91.204 Y62.844 E41.31825
G1 X91.522 Y62.900 E41.33134
G1 X92.532 Y63.171 E41.37377
G1 X92.835 Y63.282 E41.38687
G1 X93.784 Y63.724 E41.42930
G1 X94.063 Y63.885 E41.44239
G1 X94.920 Y64.485 E41.48482
G1 X95.167 Y64.693 E41.49791
G1 X95.907 Y65.433 E41.54034
G1 X96.115 Y65.680 E41.55343
G1 X96.715 Y66.537 E41.59586
G1 X96.876 Y66.816 E41.60896
G1 X97.318 Y67.765 E41.65139
G1 X97.429 Y68.068 E41.66448
G1 X97.700 Y69.078 E41.70691
G1 X97.756 Y69.396 E41.72000
G1 X97.840 Y70.358 E41.75916
G1 X97.847 Y80.681 E42.17780
G1 X97.756 Y81.804 E42.22349
G1 X97.700 Y82.122 E42.23658
G1 X97.429 Y83.132 E42.27902
G1 X97.318 Y83.435 E42.29211
G1 X97.180 Y83.731 E42.30535
G1 X97.177 Y83.867 E42.31084
G1 X97.362 Y84.313 E42.33041
G1 X95.167 Y86.507 E42.45629
G1 X94.920 Y86.715 E42.46938
G1 X94.681 Y86.882 E42.48123
G1 X94.063 Y87.315 E42.51181
G1 X93.784 Y87.476 E42.52491
G1 X92.835 Y87.918 E42.56733
G1 X92.532 Y88.029 E42.58043
G1 X91.522 Y88.300 E42.62286
G1 X91.204 Y88.356 E42.63595
G1 X90.081 Y88.447 E42.68164
G1 X59.919 Y88.447 E43.90488
G1 X58.796 Y88.356 E43.95057
G1 X58.478 Y88.300 E43.96366
G1 X57.468 Y88.029 E44.00609
G1 X57.165 Y87.918 E44.01919
G1 X56.216 Y87.476 E44.06162
G1 X55.937 Y87.315 E44.07471
G1 X55.080 Y86.715 E44.11714
G1 X54.833 Y86.507 E44.13023
G1 X54.093 Y85.767 E44.17266
G1 X53.885 Y85.520 E44.18576
G1 X53.285 Y84.663 E44.22818
G1 X53.124 Y84.384 E44.24128
G1 X52.682 Y83.435 E44.28371
