; generated by Slic3r 1.1.7 on 2014-12-05 at 15:45:16

; perimeters extrusion width = 0.40mm
; infill extrusion width = 0.67mm
; solid infill extrusion width = 0.67mm
; top infill extrusion width = 0.67mm

G21 ; set units to millimeters
M107
M104 S215 ; set temperature
G28 ; home all axes
G29; calibrate bed leveling
G1 Z5 F5000 ; lift nozzle
G28 X ; Go to corner x
G28 Y ; Go to corner y

M109 S215 ; wait for temperature to be reached
G90 ; use absolute coordinates
G92 E0
M82 ; use absolute distances for extrusion
G1 F1800.000 E-1.00000
G1 Z0.600 F7800.000
G92 E0
G1 X52.602 Y62.690 F7800.000
G1 Z0.300 F7800.000
G1 E1.00000 F1800.000
G1 X53.495 Y61.941 E1.05076 F1080.000
G1 X54.088 Y61.526 E1.08225
G1 X55.098 Y60.943 E1.13301
G1 X55.753 Y60.637 E1.16450
G1 X56.975 Y60.204 E1.22094
G1 X57.548 Y60.051 E1.24673
G1 X58.696 Y59.848 E1.29750
G1 X60.000 Y59.760 E1.35437
G1 X80.705 Y59.760 E2.25566
G1 X90.583 Y59.785 E2.68563
G1 X91.304 Y59.848 E2.71712 F1080.000
G1 X92.452 Y60.051 E2.76788
G1 X93.151 Y60.238 E2.79937
G1 X94.247 Y60.637 E2.85013
G1 X94.902 Y60.943 E2.88162
G1 X95.912 Y61.526 E2.93238
G1 X96.505 Y61.941 E2.96387
G1 X97.398 Y62.690 E3.01463
G1 X97.910 Y63.202 E3.04612
G1 X98.659 Y64.095 E3.09688
G1 X99.074 Y64.688 E3.12837
G1 X99.657 Y65.698 E3.17913
G1 X99.963 Y66.353 E3.21062
G1 X100.362 Y67.449 E3.26138
G1 X100.549 Y68.148 E3.29287
G1 X100.752 Y69.296 E3.34363
G1 X100.840 Y70.600 E3.40051
G1 X100.815 Y81.183 E3.86118
G1 X100.752 Y81.904 E3.89268
G1 X100.549 Y83.052 E3.94343
G1 X100.362 Y83.751 E3.97492
G1 X99.963 Y84.847 E4.02568
G1 X99.657 Y85.502 E4.05717
G1 X99.074 Y86.512 E4.10794
G1 X98.659 Y87.105 E4.13943
G1 X97.910 Y87.998 E4.19019
G1 X97.398 Y88.510 E4.22167
G1 X96.505 Y89.259 E4.27243
G1 X95.912 Y89.674 E4.30393
G1 X94.902 Y90.257 E4.35469
G1 X94.247 Y90.563 E4.38617
G1 X93.151 Y90.962 E4.43694
G1 X92.452 Y91.149 E4.46843
G1 X91.173 Y91.363 E4.52486
G1 X90.000 Y91.440 E4.57605
G1 X59.417 Y91.415 E5.90730
G1 X58.696 Y91.352 E5.93879
G1 X57.548 Y91.149 E5.98955
G1 X56.849 Y90.962 E6.02104
G1 X55.753 Y90.563 E6.07180
G1 X55.098 Y90.257 E6.10329
G1 X54.088 Y89.674 E6.15405
G1 X53.495 Y89.259 E6.18554
G1 X52.602 Y88.510 E6.23630
G1 X52.090 Y87.998 E6.26780
G1 X51.341 Y87.105 E6.31855
G1 X50.926 Y86.512 E6.35004
G1 X50.343 Y85.502 E6.40080
G1 X50.037 Y84.847 E6.43229
G1 X49.638 Y83.751 E6.48306
G1 X49.451 Y83.052 E6.51455
G1 X49.248 Y81.904 E6.56531
G1 X49.160 Y80.600 E6.62219
G1 X49.185 Y70.017 E7.08286
G1 X49.248 Y69.296 E7.11435
G1 X49.451 Y68.148 E7.16511
G1 X49.638 Y67.449 E7.19660
G1 X50.037 Y66.353 E7.24736
G1 X50.343 Y65.698 E7.27885
G1 X50.926 Y64.688 E7.32961
G1 X51.341 Y64.095 E7.36110
G1 X52.090 Y63.202 E7.41186
G1 X52.559 Y62.733 E7.44073
G1 X52.813 Y63.015 F7800.000
G1 X53.693 Y62.223 E7.49225 F1080.000
G1 X55.243 Y61.255 E7.57181
G1 X56.938 Y60.571 E7.65137
G1 X58.726 Y60.192 E7.73093
G1 X60.000 Y60.105 E7.78650
G1 X80.705 Y60.105 E8.68779
G1 X90.553 Y60.129 E9.11645
G1 X92.363 Y60.384 E9.19601 F1080.000
G1 X94.101 Y60.950 E9.27557
G1 X95.714 Y61.808 E9.35513
G1 X97.154 Y62.934 E9.43469
G1 X98.377 Y64.293 E9.51425
G1 X99.345 Y65.843 E9.59381
G1 X99.400 Y65.962 E9.59950
G1 X100.029 Y67.538 E9.67338
G1 X100.408 Y69.326 E9.75293
G1 X100.495 Y70.600 E9.80851
G1 X100.471 Y81.153 E10.26787
G1 X100.216 Y82.963 E10.34743
G1 X99.650 Y84.701 E10.42699
G1 X98.792 Y86.314 E10.50655
G1 X98.717 Y86.421 E10.51224
G1 X97.666 Y87.754 E10.58612
G1 X96.307 Y88.977 E10.66567
G1 X94.757 Y89.945 E10.74524
G1 X93.062 Y90.629 E10.82480
G1 X91.274 Y91.008 E10.90436
G1 X91.143 Y91.019 E10.91005
G1 X90.000 Y91.095 E10.95993
G1 X59.447 Y91.071 E12.28987
G1 X57.637 Y90.816 E12.36943
G1 X55.899 Y90.250 E12.44899
G1 X54.286 Y89.392 E12.52855
G1 X52.846 Y88.266 E12.60811
G1 X52.753 Y88.173 E12.61381
G1 X51.623 Y86.907 E12.68768
G1 X50.655 Y85.357 E12.76724
G1 X49.971 Y83.662 E12.84680
G1 X49.592 Y81.874 E12.92636
G1 X49.505 Y80.600 E12.98193
G1 X49.529 Y70.047 E13.44130
G1 X49.784 Y68.237 E13.52086
G1 X50.350 Y66.499 E13.60042
G1 X51.208 Y64.886 E13.67997
G1 X52.334 Y63.446 E13.75953
G1 X52.769 Y63.055 E13.78497
G1 F1800.000 E12.78497
G1 Z0.600 F7800.000
G92 E0
G1 X57.350 Y67.637 F7800.000
G1 Z0.300 F7800.000
G1 E1.00000 F1800.000
G1 X57.439 Y67.548 E1.00546 F378.000
G1 X58.008 Y67.149 E1.03569
G1 X58.637 Y66.856 E1.06593
G1 X59.308 Y66.676 E1.09616
G1 X60.007 Y66.615 E1.12670
G1 X69.375 Y66.615 E1.53448
G1 X69.365 Y67.435 E1.57018
G1 X59.993 Y67.435 E1.97815
G1 X59.450 Y67.482 E2.00185
G1 X58.917 Y67.625 E2.02587
G1 X58.417 Y67.858 E2.04989
G1 X57.965 Y68.175 E2.07391
G1 X57.575 Y68.565 E2.09793
G1 X57.258 Y69.017 E2.12195
G1 X57.025 Y69.517 E2.14597
G1 X56.882 Y70.050 E2.16999
G1 X56.835 Y70.593 E2.19369
G1 X56.835 Y80.607 E2.62961
G1 X56.882 Y81.150 E2.65332
G1 X57.025 Y81.683 E2.67734
G1 X57.258 Y82.183 E2.70136
G1 X57.575 Y82.635 E2.72538
G1 X57.965 Y83.025 E2.74940
G1 X58.417 Y83.342 E2.77342
G1 X58.917 Y83.575 E2.79744
G1 X59.450 Y83.718 E2.82146
G1 X59.993 Y83.765 E2.84516
G1 X90.007 Y83.765 E4.15166
G1 X90.550 Y83.718 E4.17537
G1 X91.083 Y83.575 E4.19939
G1 X91.583 Y83.342 E4.22341
G1 X92.035 Y83.025 E4.24743
G1 X92.425 Y82.635 E4.27145
G1 X92.742 Y82.183 E4.29547
G1 X92.975 Y81.683 E4.31948
G1 X93.118 Y81.150 E4.34350
G1 X93.165 Y80.607 E4.36721
G1 X93.165 Y70.593 E4.80313
G1 X93.118 Y70.050 E4.82683
G1 X92.975 Y69.517 E4.85085
G1 X92.742 Y69.017 E4.87487
G1 X92.425 Y68.565 E4.89889
G1 X92.035 Y68.175 E4.92291
G1 X91.583 Y67.858 E4.94693
G1 X91.083 Y67.625 E4.97095
G1 X90.550 Y67.482 E4.99497
G1 X90.007 Y67.435 E5.01867
G1 X80.639 Y67.435 E5.42648
G1 X80.646 Y66.615 E5.46217
G1 X80.966 Y66.615 E5.47608
G1 X89.993 Y66.615 E5.86903 F378.000
G1 X90.692 Y66.676 E5.89957
G1 X91.363 Y66.856 E5.92980
G1 X91.992 Y67.149 E5.96004
G1 X92.561 Y67.548 E5.99027
G1 X93.052 Y68.039 E6.02050
G1 X93.451 Y68.608 E6.05073
G1 X93.744 Y69.237 E6.08096
G1 X93.924 Y69.908 E6.11120
G1 X93.985 Y70.607 E6.14174
G1 X93.985 Y80.593 E6.57641
G1 X93.924 Y81.292 E6.60695
G1 X93.744 Y81.963 E6.63719
G1 X93.451 Y82.592 E6.66742
G1 X93.052 Y83.161 E6.69765
G1 X92.561 Y83.652 E6.72788
G1 X91.992 Y84.051 E6.75811
G1 X91.363 Y84.344 E6.78835
G1 X90.692 Y84.524 E6.81858
G1 X89.993 Y84.585 E6.84912
G1 X60.007 Y84.585 E8.15437
G1 X59.308 Y84.524 E8.18492
G1 X58.637 Y84.344 E8.21515
G1 X58.008 Y84.051 E8.24538
G1 X57.439 Y83.652 E8.27561
G1 X57.357 Y83.570 E8.28067
G1 X56.948 Y83.161 E8.30584
G1 X56.549 Y82.592 E8.33608
G1 X56.256 Y81.963 E8.36631
G1 X56.076 Y81.292 E8.39654
G1 X56.015 Y80.593 E8.42709
G1 X56.015 Y70.607 E8.86175
G1 X56.076 Y69.908 E8.89230
G1 X56.256 Y69.237 E8.92253
G1 X56.549 Y68.608 E8.95276
G1 X56.948 Y68.039 E8.98299
G1 X57.308 Y67.679 E9.00515
G1 F1800.000 E8.00515
G1 Z0.600 F7800.000
G92 E0
G1 X81.172 Y66.957 F7800.000
G1 X80.815 Y67.025 F7800.000
G1 Z0.300 F7800.000
G1 E1.00000 F1800.000
G1 X89.975 Y67.025 E1.48408 F360.000
G1 X90.621 Y67.080 E1.51833
G1 X91.241 Y67.249 E1.55233
G1 X91.787 Y67.504 E1.58418
G1 X92.281 Y67.850 E1.61602
G1 X92.738 Y68.302 E1.65002
G1 X93.096 Y68.813 E1.68295
G1 X93.359 Y69.377 E1.71588
G1 X93.515 Y69.959 E1.74772
G1 X93.575 Y70.625 E1.78304
G1 X93.575 Y80.575 E2.30886
G1 X93.520 Y81.221 E2.34312
G1 X93.359 Y81.823 E2.37604
G1 X93.096 Y82.387 E2.40897
G1 X92.738 Y82.898 E2.44190
G1 X92.298 Y83.338 E2.47483
G1 X91.787 Y83.696 E2.50776
G1 X91.223 Y83.959 E2.54068
G1 X90.621 Y84.120 E2.57361
G1 X89.975 Y84.175 E2.60786
G1 X60.025 Y84.175 E4.19063
G1 X59.379 Y84.120 E4.22488
G1 X58.777 Y83.959 E4.25781
G1 X58.213 Y83.696 E4.29073
G1 X57.702 Y83.338 E4.32366
G1 X57.262 Y82.898 E4.35659
G1 X56.895 Y82.369 E4.39059
G1 X56.641 Y81.823 E4.42244
G1 X56.485 Y81.241 E4.45428
G1 X56.427 Y80.615 E4.48750
G1 X56.425 Y70.625 E5.01542
G1 X56.480 Y69.979 E5.04967
G1 X56.635 Y69.397 E5.08152
G1 X56.916 Y68.796 E5.11659
G1 X57.262 Y68.302 E5.14843
G1 X57.687 Y67.876 E5.18028
G1 X58.196 Y67.516 E5.21319
G1 X58.777 Y67.241 E5.24720
G1 X59.379 Y67.080 E5.28012
G1 X60.025 Y67.025 E5.31438
G1 X69.020 Y67.025 E5.78972
M106 S255
M104 S210 ; set temperature
G1 F1800.000 E4.78972
G1 Z0.800 F7800.000
G92 E0
G1 X80.256 Y66.400 F7800.000
G1 Z0.500 F7800.000
G1 E1.00000 F1800.000
G1 X89.991 Y66.400 E1.32754 F600.000
G1 X90.729 Y66.465 E1.35246
G1 X91.436 Y66.654 E1.37708
G1 X92.100 Y66.963 E1.40171
G1 X92.699 Y67.383 E1.42633
G1 X93.217 Y67.901 E1.45096
G1 X93.637 Y68.500 E1.47559
G1 X93.946 Y69.164 E1.50021
G1 X94.135 Y69.871 E1.52484
G1 X94.200 Y70.609 E1.54976
G1 X94.200 Y80.591 E1.88561
G1 X94.135 Y81.329 E1.91053
G1 X93.946 Y82.036 E1.93516
G1 X93.637 Y82.700 E1.95978
G1 X93.217 Y83.299 E1.98441
G1 X92.699 Y83.817 E2.00903
G1 X92.100 Y84.237 E2.03366
G1 X91.436 Y84.546 E2.05829
G1 X90.729 Y84.735 E2.08291
G1 X89.991 Y84.800 E2.10783
G1 X60.009 Y84.800 E3.11655
G1 X59.271 Y84.735 E3.14147
G1 X58.564 Y84.546 E3.16610
G1 X57.900 Y84.237 E3.19073
G1 X57.301 Y83.817 E3.21535
G1 X56.783 Y83.299 E3.23998
G1 X56.363 Y82.700 E3.26461
G1 X56.054 Y82.036 E3.28923
G1 X55.865 Y81.329 E3.31386
G1 X55.800 Y80.591 E3.33878
G1 X55.800 Y70.609 E3.67463
G1 X55.865 Y69.871 E3.69955
G1 X56.054 Y69.164 E3.72417
G1 X56.363 Y68.500 E3.74880
G1 X56.783 Y67.901 E3.77343
G1 X57.301 Y67.383 E3.79805
G1 X57.900 Y66.963 E3.82268
G1 X58.564 Y66.654 E3.84731
G1 X59.271 Y66.465 E3.87193
G1 X60.009 Y66.400 E3.89685
G1 X69.740 Y66.400 E4.22424
M106 S255
G1 X69.800 Y66.400 E4.22740 F3600.000
G1 X69.798 Y67.400 E4.28024
G1 X69.731 Y67.400 E4.28378
M106 S255
G1 X69.020 Y67.400 F7800.000
G1 X59.991 Y67.400 E4.58754 F600.000
G1 X59.444 Y67.448 E4.60601
G1 X58.905 Y67.592 E4.62478
G1 X58.400 Y67.828 E4.64355
G1 X57.943 Y68.148 E4.66232
G1 X57.548 Y68.543 E4.68109
G1 X57.228 Y69.000 E4.69987
G1 X56.992 Y69.505 E4.71864
G1 X56.848 Y70.044 E4.73741
G1 X56.800 Y70.591 E4.75588
G1 X56.800 Y80.609 E5.09291
G1 X56.848 Y81.156 E5.11138
G1 X56.992 Y81.695 E5.13015
G1 X57.228 Y82.200 E5.14892
G1 X57.548 Y82.657 E5.16769
G1 X57.943 Y83.052 E5.18646
G1 X58.400 Y83.372 E5.20524
G1 X58.905 Y83.608 E5.22401
G1 X59.444 Y83.752 E5.24278
G1 X59.991 Y83.800 E5.26125
G1 X90.009 Y83.800 E6.27115
G1 X90.556 Y83.752 E6.28962
G1 X91.095 Y83.608 E6.30839
G1 X91.600 Y83.372 E6.32716
G1 X92.057 Y83.052 E6.34593
G1 X92.452 Y82.657 E6.36471
G1 X92.772 Y82.200 E6.38348
G1 X93.008 Y81.695 E6.40225
G1 X93.152 Y81.156 E6.42102
G1 X93.200 Y80.609 E6.43949
G1 X93.200 Y70.591 E6.77652
G1 X93.152 Y70.044 E6.79499
G1 X93.008 Y69.505 E6.81376
G1 X92.772 Y69.000 E6.83253
G1 X92.452 Y68.543 E6.85130
G1 X92.057 Y68.148 E6.87007
G1 X91.600 Y67.828 E6.88884
G1 X91.095 Y67.592 E6.90762
G1 X90.556 Y67.448 E6.92639
G1 X90.009 Y67.400 E6.94486
G1 X80.274 Y67.400 E7.27237
M106 S255
G1 X80.202 Y67.400 E7.27619 F3600.000
G1 X80.202 Y66.400 E7.32903
G1 X80.256 Y66.400 E7.33189
M106 S255
G1 F1800.000 E6.33189
G1 Z0.800 F7800.000
G92 E0
G1 X69.731 Y67.400 F7800.000
G1 Z0.500 F7800.000
G1 E1.00000 F1800.000
G1 X69.080 Y67.400 E1.02190 F600.000
G1 X69.731 Y67.000 F7800.000
G1 X69.600 Y66.900 F7800.000
G1 X60.031 Y66.900 E1.52762 F600.000
G1 X59.383 Y66.954 E1.56194
G1 X58.735 Y67.124 E1.59738
G1 X58.150 Y67.396 E1.63146
G1 X57.622 Y67.766 E1.66554
G1 X57.151 Y68.243 E1.70097
G1 X56.796 Y68.750 E1.73368
G1 X56.524 Y69.335 E1.76776
G1 X56.357 Y69.958 E1.80184
G1 X56.304 Y70.557 E1.83361
G1 X56.300 Y80.569 E2.36276
G1 X56.357 Y81.242 E2.39846
G1 X56.534 Y81.889 E2.43389
G1 X56.796 Y82.450 E2.46660
G1 X57.151 Y82.957 E2.49930
G1 X57.622 Y83.434 E2.53474
G1 X58.150 Y83.804 E2.56882
G1 X58.735 Y84.076 E2.60290
G1 X59.358 Y84.243 E2.63698
G1 X60.031 Y84.300 E2.67267
G1 X89.969 Y84.300 E4.25485
G1 X90.642 Y84.243 E4.29054
G1 X91.265 Y84.076 E4.32462
G1 X91.850 Y83.804 E4.35870
G1 X92.378 Y83.434 E4.39278
G1 X92.834 Y82.978 E4.42686
G1 X93.204 Y82.450 E4.46093
G1 X93.476 Y81.865 E4.49501
G1 X93.643 Y81.242 E4.52909
G1 X93.700 Y80.569 E4.56478
G1 X93.700 Y70.631 E5.09002
G1 X93.637 Y69.932 E5.12707
G1 X93.476 Y69.335 E5.15978
G1 X93.204 Y68.750 E5.19385
G1 X92.816 Y68.203 E5.22929
G1 X92.378 Y67.766 E5.26200
G1 X91.871 Y67.411 E5.29470
G1 X91.265 Y67.124 E5.33014
G1 X90.642 Y66.957 E5.36422
G1 X89.969 Y66.900 E5.39991
G1 X80.402 Y66.900 E5.90550
G1 F1800.000 E4.90550
G1 Z1.000 F7800.000
G92 E0
G1 X68.411 Y84.600 F7800.000
G1 Z0.700 F7800.000
G1 E1.00000 F1800.000
G1 X60.026 Y84.600 E1.28209 F917.711
G1 X59.306 Y84.537 E1.30642
G1 X58.633 Y84.357 E1.32987
G1 X58.206 Y84.158 E1.34569
G1 X58.001 Y84.062 E1.35331
G1 X57.430 Y83.662 E1.37675
G1 X56.938 Y83.170 E1.40020
G1 X56.538 Y82.599 E1.42364
G1 X56.243 Y81.967 E1.44709
G1 X56.063 Y81.294 E1.47053
G1 X56.000 Y80.574 E1.49486
G1 X56.000 Y70.626 E1.82953
G1 X56.063 Y69.906 E1.85386
G1 X56.243 Y69.233 E1.87731
G1 X56.538 Y68.601 E1.90075
G1 X56.938 Y68.030 E1.92420
G1 X57.430 Y67.538 E1.94764
G1 X58.001 Y67.138 E1.97108
G1 X58.633 Y66.843 E1.99453
G1 X59.306 Y66.663 E2.01797
G1 X60.026 Y66.600 E2.04230
G1 X63.584 Y66.600 E2.16201
G1 X69.661 Y66.600 E2.36646 F917.711
G1 X69.663 Y67.000 E2.37992
G1 X59.974 Y67.000 E2.70588
G1 X59.374 Y67.052 E2.72612
G1 X58.768 Y67.215 E2.74725
G1 X58.199 Y67.480 E2.76837
G1 X57.685 Y67.840 E2.78950
G1 X57.240 Y68.284 E2.81063
G1 X56.880 Y68.799 E2.83175
G1 X56.615 Y69.368 E2.85288
G1 X56.452 Y69.974 E2.87400
G1 X56.400 Y70.574 E2.89424
G1 X56.400 Y80.626 E3.23244
G1 X56.452 Y81.226 E3.25268
G1 X56.615 Y81.832 E3.27381
G1 X56.880 Y82.401 E3.29493
G1 X57.240 Y82.915 E3.31606
G1 X57.685 Y83.360 E3.33719
G1 X58.199 Y83.720 E3.35831
G1 X58.768 Y83.985 E3.37944
G1 X59.374 Y84.148 E3.40056
G1 X59.974 Y84.200 E3.42080
G1 X90.026 Y84.200 E4.43187
G1 X90.626 Y84.148 E4.45211
G1 X91.232 Y83.985 E4.47324
G1 X91.801 Y83.720 E4.49436
G1 X92.260 Y83.398 E4.51322
G1 X92.760 Y82.916 E4.53658
G1 X93.120 Y82.401 E4.55771
G1 X93.357 Y81.893 E4.57656
G1 X93.548 Y81.225 E4.59993
G1 X93.600 Y80.626 E4.62017
G1 X93.600 Y70.574 E4.95837
G1 X93.548 Y69.974 E4.97861
G1 X93.385 Y69.368 E4.99973
G1 X93.120 Y68.799 E5.02086
G1 X92.760 Y68.285 E5.04198
G1 X92.316 Y67.840 E5.06311
G1 X91.801 Y67.480 E5.08423
G1 X91.232 Y67.215 E5.10536
G1 X90.626 Y67.052 E5.12649
G1 X90.026 Y67.000 E5.14672
G1 X80.349 Y67.000 E5.47229
G1 X80.348 Y66.600 E5.48574
G1 X89.974 Y66.600 E5.80959
G1 X90.694 Y66.663 E5.83392
G1 X91.367 Y66.843 E5.85736
G1 X91.999 Y67.138 E5.88081
G1 X92.570 Y67.538 E5.90425
G1 X93.062 Y68.030 E5.92770
G1 X93.462 Y68.601 E5.95114
G1 X93.757 Y69.233 E5.97459
G1 X93.937 Y69.906 E5.99803
G1 X94.000 Y70.626 E6.02236
G1 X94.000 Y80.574 E6.35703
G1 X93.937 Y81.294 E6.38136
G1 X93.757 Y81.967 E6.40481
G1 X93.462 Y82.599 E6.42825
G1 X93.062 Y83.170 E6.45169
G1 X92.570 Y83.662 E6.47514
G1 X91.999 Y84.062 E6.49858
G1 X91.367 Y84.357 E6.52203
G1 X90.694 Y84.537 E6.54547
G1 X89.974 Y84.600 E6.56980
G1 X68.471 Y84.600 E7.29323
G1 X68.471 Y85.000 F7800.000
G1 X60.009 Y85.000 E7.57793 F642.398
G1 X59.236 Y84.932 E7.60403
G1 X58.495 Y84.734 E7.62983
G1 X57.800 Y84.410 E7.65562
G1 X57.172 Y83.970 E7.68142
G1 X56.630 Y83.428 E7.70722
G1 X56.190 Y82.800 E7.73302
G1 X55.977 Y82.342 E7.75003
G1 X55.866 Y82.105 E7.75882
G1 X55.668 Y81.364 E7.78462
G1 X55.600 Y80.591 E7.81071
G1 X55.600 Y70.609 E8.14656
G1 X55.668 Y69.836 E8.17266
G1 X55.866 Y69.095 E8.19846
G1 X56.190 Y68.400 E8.22425
G1 X56.630 Y67.772 E8.25005
G1 X57.172 Y67.230 E8.27585
G1 X57.800 Y66.790 E8.30165
G1 X58.495 Y66.466 E8.32745
G1 X59.236 Y66.268 E8.35325
G1 X60.009 Y66.200 E8.37934
G1 X63.920 Y66.200 E8.51093
G1 X70.060 Y66.200 E8.71751 F642.398
G1 X70.064 Y67.400 E8.75789
G1 X59.991 Y67.400 E9.09676
G1 X59.444 Y67.448 E9.11523
G1 X58.905 Y67.592 E9.13400
G1 X58.400 Y67.828 E9.15277
G1 X57.943 Y68.148 E9.17154
G1 X57.548 Y68.543 E9.19031
G1 X57.228 Y69.000 E9.20908
G1 X56.992 Y69.505 E9.22786
G1 X56.848 Y70.044 E9.24663
G1 X56.800 Y70.591 E9.26510
G1 X56.800 Y80.609 E9.60213
G1 X56.848 Y81.156 E9.62060
G1 X56.992 Y81.695 E9.63937
G1 X57.228 Y82.200 E9.65814
G1 X57.548 Y82.657 E9.67691
G1 X57.943 Y83.052 E9.69568
G1 X58.400 Y83.372 E9.71445
G1 X58.905 Y83.608 E9.73323
G1 X59.444 Y83.752 E9.75200
G1 X59.991 Y83.800 E9.77047
G1 X90.009 Y83.800 E10.78037
G1 X90.556 Y83.752 E10.79884
