; generated by Slic3r 1.1.7 on 2014-11-30 at 01:54:38

; perimeters extrusion width = 0.40mm
; infill extrusion width = 0.42mm
; solid infill extrusion width = 0.42mm
; top infill extrusion width = 0.42mm

G21 ; set units to millimeters
M107
M104 S215 ; set temperature
G28 ; home all axes
G1 Z5 F5000 ; lift nozzle

M109 S215 ; wait for temperature to be reached
G90 ; use absolute coordinates
G92 E0
M82 ; use absolute distances for extrusion
G1 F1800.000 E-1.00000
G92 E0
G1 Z0.400 F7800.000
G1 X59.827 Y60.720 F7800.000
G1 E1.00000 F1800.000
G1 X61.583 Y59.220 E1.27422 F1080.000
G1 X63.743 Y58.405 E1.54845
G1 X65.000 Y58.286 E1.69842
G1 X85.000 Y58.286 E4.07372
G1 X87.275 Y58.683 E4.34794
G1 X89.280 Y59.827 E4.62217 F1080.000
G1 X90.780 Y61.583 E4.89639
G1 X91.595 Y63.743 E5.17062
G1 X91.714 Y65.000 E5.32059
G1 X91.714 Y85.000 E7.69589
G1 X91.317 Y87.275 E7.97011
G1 X90.173 Y89.280 E8.24434
G1 X88.417 Y90.780 E8.51856
G1 X86.257 Y91.595 E8.79279
G1 X85.000 Y91.714 E8.94275
G1 X65.000 Y91.714 E11.31806
G1 X62.725 Y91.317 E11.59228
G1 X60.720 Y90.173 E11.86651
G1 X59.220 Y88.417 E12.14073
G1 X58.405 Y86.257 E12.41496
G1 X58.286 Y85.000 E12.56492
G1 X58.286 Y65.000 E14.94023
G1 X58.683 Y62.725 E15.21445
G1 X59.797 Y60.772 E15.48155
G1 F1800.000 E14.48155
G92 E0
G1 X61.776 Y62.669 F7800.000
G1 E1.00000 F1800.000
G1 X63.373 Y61.072 E1.26821 F1080.000
G1 X86.627 Y61.072 E4.02997
G1 X88.928 Y63.373 E4.41643
G1 X88.928 Y86.627 E7.17819 F1080.000
G1 X86.627 Y88.928 E7.56465
G1 X63.373 Y88.928 E10.32641
G1 X61.072 Y86.627 E10.71286
G1 X61.072 Y63.373 E13.47462
G1 X61.734 Y62.711 E13.58574
G1 X62.281 Y63.174 F7800.000
G1 X63.669 Y61.786 E13.81882 F1080.000
G1 X86.331 Y61.786 E16.51032
G1 X88.214 Y63.669 E16.82651 F1080.000
G1 X88.214 Y86.331 E19.51800
G1 X86.331 Y88.214 E19.83420
G1 X63.669 Y88.214 E22.52569
G1 X61.786 Y86.331 E22.84188
G1 X61.786 Y63.669 E25.53338
G1 X62.239 Y63.216 E25.60937
G1 X62.786 Y63.679 F7800.000
G1 X63.965 Y62.500 E25.80731 F1080.000
G1 X86.035 Y62.500 E28.42854
G1 X87.500 Y63.965 E28.67447
G1 X87.500 Y86.035 E31.29570 F1080.000
G1 X86.035 Y87.500 E31.54163
G1 X63.965 Y87.500 E34.16286
G1 X62.500 Y86.035 E34.40879
G1 X62.500 Y63.965 E37.03002
G1 X62.744 Y63.721 E37.07087
G1 X63.291 Y64.184 F7800.000
G1 X64.260 Y63.215 E37.23369 F1080.000
G1 X85.740 Y63.215 E39.78465
G1 X86.785 Y64.260 E39.96031 F1080.000
G1 X86.785 Y85.740 E42.51128
G1 X85.740 Y86.785 E42.68694
G1 X64.260 Y86.785 E45.23791
G1 X63.215 Y85.740 E45.41357
G1 X63.215 Y64.260 E47.96453
G1 X63.249 Y64.226 E47.97026
G1 X63.929 Y64.556 F7800.000
G1 X64.556 Y63.929 E48.07565 F1080.000
G1 X85.444 Y63.929 E50.55635
G1 X86.071 Y64.556 E50.66175
G1 X86.071 Y85.444 E53.14245 F1080.000
G1 X85.444 Y86.071 E53.24785
G1 X64.556 Y86.071 E55.72855
G1 X63.929 Y85.444 E55.83395
G1 X63.929 Y64.616 E58.30752
G1 X64.643 Y64.852 F7800.000
G1 X64.852 Y64.643 E58.34265 F1080.000
G1 X85.148 Y64.643 E60.75309
G1 X85.357 Y64.852 E60.78822 F1080.000
G1 X85.357 Y85.148 E63.19866
G1 X85.148 Y85.357 E63.23379
G1 X64.852 Y85.357 E65.64423
G1 X64.643 Y85.148 E65.67936
G1 X64.643 Y64.912 E68.08267
G1 F1800.000 E67.08267
G92 E0
G1 X84.600 Y84.600 F7800.000
G1 E1.00000 F1800.000
G1 X65.400 Y84.600 E3.28029 F378.000
G1 X65.400 Y65.400 E5.56058
G1 X84.600 Y65.400 E7.84087
G1 X84.600 Y84.540 E10.11404
G1 X84.062 Y65.898 F7800.000
G1 X84.102 Y65.938 E10.12076 F1080.000
G1 X84.102 Y66.976 E10.24403
G1 X83.024 Y65.898 E10.42509
G1 X81.986 Y65.898 E10.54836
G1 X84.102 Y68.014 E10.90376
G1 X84.102 Y69.052 E11.02703
G1 X80.948 Y65.898 E11.55676
G1 X79.910 Y65.898 E11.68003
G1 X84.102 Y70.090 E12.38410
G1 X84.102 Y71.128 E12.50738
G1 X78.872 Y65.898 E13.38578
G1 X77.834 Y65.898 E13.50906
G1 X84.102 Y72.166 E14.56180
G1 X84.102 Y73.204 E14.68507
G1 X76.796 Y65.898 E15.91215
G1 X75.758 Y65.898 E16.03542
G1 X84.102 Y74.242 E17.43684
G1 X84.102 Y75.279 E17.56011
G1 X74.721 Y65.898 E19.13587
G1 X73.683 Y65.898 E19.25914
G1 X84.102 Y76.317 E21.00923
G1 X84.102 Y77.355 E21.13250
G1 X72.645 Y65.898 E23.05693
G1 X71.607 Y65.898 E23.18021
G1 X84.102 Y78.393 E25.27897
G1 X84.102 Y79.431 E25.40224
G1 X70.569 Y65.898 E27.67534
G1 X69.531 Y65.898 E27.79862
G1 X84.102 Y80.469 E30.24606
G1 X84.102 Y81.507 E30.36933
G1 X68.493 Y65.898 E32.99111
G1 X67.455 Y65.898 E33.11438
G1 X84.102 Y82.545 E35.91049
G1 X84.102 Y83.583 E36.03377
G1 X66.417 Y65.898 E39.00422
G1 X65.898 Y66.417 E39.09138
G1 X83.583 Y84.102 E42.06183
G1 X82.545 Y84.102 E42.18511
G1 X65.898 Y67.455 E44.98122
G1 X65.898 Y68.493 E45.10449
G1 X81.507 Y84.102 E47.72627
G1 X80.469 Y84.102 E47.84954
G1 X65.898 Y69.531 E50.29698
G1 X65.898 Y70.569 E50.42026
G1 X79.431 Y84.102 E52.69336
G1 X78.393 Y84.102 E52.81663
G1 X65.898 Y71.607 E54.91539
G1 X65.898 Y72.645 E55.03867
G1 X77.355 Y84.102 E56.96309
G1 X76.317 Y84.102 E57.08637
G1 X65.898 Y73.683 E58.83646
G1 X65.898 Y74.721 E58.95973
G1 X75.279 Y84.102 E60.53548
G1 X74.242 Y84.102 E60.65876
G1 X65.898 Y75.758 E62.06017
G1 X65.898 Y76.796 E62.18345
G1 X73.204 Y84.102 E63.41053
G1 X72.166 Y84.102 E63.53380
G1 X65.898 Y77.834 E64.58654
G1 X65.898 Y78.872 E64.70982
G1 X71.128 Y84.102 E65.58822
G1 X70.090 Y84.102 E65.71150
G1 X65.898 Y79.910 E66.41556
G1 X65.898 Y80.948 E66.53884
G1 X69.052 Y84.102 E67.06857
G1 X68.014 Y84.102 E67.19184
G1 X65.898 Y81.986 E67.54723
G1 X65.898 Y83.024 E67.67051
G1 X66.976 Y84.102 E67.85157
G1 X65.938 Y84.102 E67.97484
G1 X65.898 Y84.062 E67.98156
M106 S255
M104 S210 ; set temperature
G1 F1800.000 E66.98156
G92 E0
G1 Z0.700 F7800.000
G1 X84.800 Y84.800 F7800.000
G1 E1.00000 F1800.000
G1 X65.200 Y84.800 E1.97785 F788.058
G1 X65.200 Y65.200 E2.95570
G1 X84.800 Y65.200 E3.93354
G1 X84.800 Y84.740 E4.90840
G1 X84.526 Y84.486 F7800.000
G1 X84.486 Y84.526 E4.91135 F2251.594
G1 X83.892 Y84.526 E4.94239
G1 X84.526 Y83.892 E4.98925
G1 X84.526 Y83.298 E5.02028
G1 X83.298 Y84.526 E5.11103
G1 X82.703 Y84.526 E5.14207
G1 X84.526 Y82.703 E5.27672
G1 X84.526 Y82.109 E5.30775
G1 X82.109 Y84.526 E5.48629
G1 X81.515 Y84.526 E5.51733
G1 X84.526 Y81.515 E5.73977
G1 X84.526 Y80.921 E5.77081
G1 X80.921 Y84.526 E6.03714
G1 X80.327 Y84.526 E6.06818
G1 X84.526 Y80.327 E6.37841
G1 X84.526 Y79.733 E6.40945
G1 X79.733 Y84.526 E6.76357
G1 X79.139 Y84.526 E6.79461
G1 X84.526 Y79.139 E7.19263
G1 X84.526 Y78.545 E7.22367
G1 X78.545 Y84.526 E7.66559
G1 X77.951 Y84.526 E7.69663
G1 X84.526 Y77.951 E8.18244
G1 X84.526 Y77.356 E8.21348
G1 X77.356 Y84.526 E8.74319
G1 X76.762 Y84.526 E8.77423
G1 X84.526 Y76.762 E9.34784
G1 X84.526 Y76.168 E9.37887
G1 X76.168 Y84.526 E9.99638
G1 X75.574 Y84.526 E10.02742
G1 X84.526 Y75.574 E10.68881
G1 X84.526 Y74.980 E10.71985
G1 X74.980 Y84.526 E11.42515
G1 X74.386 Y84.526 E11.45619
G1 X84.526 Y74.386 E12.20538
G1 X84.526 Y73.792 E12.23641
G1 X73.792 Y84.526 E13.02950
G1 X73.198 Y84.526 E13.06054
G1 X84.526 Y73.198 E13.89752
G1 X84.526 Y72.604 E13.92856
G1 X72.604 Y84.526 E14.80944
G1 X72.009 Y84.526 E14.84048
G1 X84.526 Y72.009 E15.76525
G1 X84.526 Y71.415 E15.79629
G1 X71.415 Y84.526 E16.76496
G1 X70.821 Y84.526 E16.79600
G1 X84.526 Y70.821 E17.80857
G1 X84.526 Y70.227 E17.83961
G1 X70.227 Y84.526 E18.89607
G1 X69.633 Y84.526 E18.92711
G1 X84.526 Y69.633 E20.02747
G1 X84.526 Y69.039 E20.05851
G1 X69.039 Y84.526 E21.20276
G1 X68.445 Y84.526 E21.23380
G1 X84.526 Y68.445 E22.42196
G1 X84.526 Y67.851 E22.45299
G1 X67.851 Y84.526 E23.68504
G1 X67.257 Y84.526 E23.71608
G1 X84.526 Y67.257 E24.99203
G1 X84.526 Y66.662 E25.02306
G1 X66.662 Y84.526 E26.34290
G1 X66.068 Y84.526 E26.37394
G1 X84.526 Y66.068 E27.73768
G1 X84.506 Y65.494 E27.76769
G1 X65.494 Y84.506 E29.17237
G1 X65.474 Y83.932 E29.20238
G1 X83.932 Y65.474 E30.56612
G1 X83.338 Y65.474 E30.59716
G1 X65.474 Y83.338 E31.91700
G1 X65.474 Y82.743 E31.94803
G1 X82.743 Y65.474 E33.22398
G1 X82.149 Y65.474 E33.25502
G1 X65.474 Y82.149 E34.48706
G1 X65.474 Y81.555 E34.51810
G1 X81.555 Y65.474 E35.70625
G1 X80.961 Y65.474 E35.73729
G1 X65.474 Y80.961 E36.88155
G1 X65.474 Y80.367 E36.91259
G1 X80.367 Y65.474 E38.01295
G1 X79.773 Y65.474 E38.04399
G1 X65.474 Y79.773 E39.10045
G1 X65.474 Y79.179 E39.13149
G1 X79.179 Y65.474 E40.14405
G1 X78.585 Y65.474 E40.17509
G1 X65.474 Y78.585 E41.14376
G1 X65.474 Y77.991 E41.17480
G1 X77.991 Y65.474 E42.09958
G1 X77.396 Y65.474 E42.13062
G1 X65.474 Y77.396 E43.01149
G1 X65.474 Y76.802 E43.04253
G1 X76.802 Y65.474 E43.87952
G1 X76.208 Y65.474 E43.91055
G1 X65.474 Y76.208 E44.70364
G1 X65.474 Y75.614 E44.73468
G1 X75.614 Y65.474 E45.48387
G1 X75.020 Y65.474 E45.51491
G1 X65.474 Y75.020 E46.22020
G1 X65.474 Y74.426 E46.25124
G1 X74.426 Y65.474 E46.91264
G1 X73.832 Y65.474 E46.94368
G1 X65.474 Y73.832 E47.56118
G1 X65.474 Y73.238 E47.59222
G1 X73.238 Y65.474 E48.16582
G1 X72.644 Y65.474 E48.19686
G1 X65.474 Y72.644 E48.72657
G1 X65.474 Y72.049 E48.75761
G1 X72.049 Y65.474 E49.24342
G1 X71.455 Y65.474 E49.27446
G1 X65.474 Y71.455 E49.71638
G1 X65.474 Y70.861 E49.74742
G1 X70.861 Y65.474 E50.14544
G1 X70.267 Y65.474 E50.17648
G1 X65.474 Y70.267 E50.53060
G1 X65.474 Y69.673 E50.56164
G1 X69.673 Y65.474 E50.87187
G1 X69.079 Y65.474 E50.90291
G1 X65.474 Y69.079 E51.16924
G1 X65.474 Y68.485 E51.20028
G1 X68.485 Y65.474 E51.42272
G1 X67.891 Y65.474 E51.45376
G1 X65.474 Y67.891 E51.63230
G1 X65.474 Y67.297 E51.66334
G1 X67.297 Y65.474 E51.79798
G1 X66.702 Y65.474 E51.82902
G1 X65.474 Y66.702 E51.91977
G1 X65.474 Y66.108 E51.95081
G1 X66.108 Y65.474 E51.99766
G1 X65.514 Y65.474 E52.02870
G1 X65.474 Y65.514 E52.03165
G1 F1800.000 E51.03165
G92 E0
G1 Z1.000 F7800.000
G1 X84.800 Y84.800 F7800.000
G1 E1.00000 F1800.000
G1 X65.200 Y84.800 E1.97785 F788.058
G1 X65.200 Y65.200 E2.95570
G1 X84.800 Y65.200 E3.93354
G1 X84.800 Y84.740 E4.90840
G1 X84.486 Y65.474 F7800.000
G1 X84.526 Y65.514 E4.91135 F2251.594
G1 X84.526 Y66.108 E4.94239
G1 X83.892 Y65.474 E4.98925
G1 X83.298 Y65.474 E5.02028
G1 X84.526 Y66.702 E5.11103
G1 X84.526 Y67.297 E5.14207
G1 X82.703 Y65.474 E5.27672
G1 X82.109 Y65.474 E5.30775
G1 X84.526 Y67.891 E5.48629
G1 X84.526 Y68.485 E5.51733
G1 X81.515 Y65.474 E5.73977
G1 X80.921 Y65.474 E5.77081
G1 X84.526 Y69.079 E6.03714
G1 X84.526 Y69.673 E6.06818
G1 X80.327 Y65.474 E6.37841
G1 X79.733 Y65.474 E6.40945
G1 X84.526 Y70.267 E6.76357
G1 X84.526 Y70.861 E6.79461
G1 X79.139 Y65.474 E7.19263
G1 X78.545 Y65.474 E7.22367
G1 X84.526 Y71.455 E7.66559
G1 X84.526 Y72.049 E7.69663
G1 X77.951 Y65.474 E8.18244
G1 X77.356 Y65.474 E8.21348
G1 X84.526 Y72.644 E8.74319
G1 X84.526 Y73.238 E8.77423
G1 X76.762 Y65.474 E9.34783
G1 X76.168 Y65.474 E9.37887
G1 X84.526 Y73.832 E9.99638
G1 X84.526 Y74.426 E10.02741
G1 X75.574 Y65.474 E10.68881
G1 X74.980 Y65.474 E10.71985
G1 X84.526 Y75.020 E11.42515
G1 X84.526 Y75.614 E11.45618
G1 X74.386 Y65.474 E12.20537
G1 X73.792 Y65.474 E12.23641
G1 X84.526 Y76.208 E13.02950
G1 X84.526 Y76.802 E13.06054
G1 X73.198 Y65.474 E13.89752
G1 X72.604 Y65.474 E13.92856
G1 X84.526 Y77.396 E14.80944
G1 X84.526 Y77.991 E14.84048
G1 X72.009 Y65.474 E15.76525
G1 X71.415 Y65.474 E15.79629
G1 X84.526 Y78.585 E16.76496
G1 X84.526 Y79.179 E16.79600
G1 X70.821 Y65.474 E17.80857
G1 X70.227 Y65.474 E17.83961
G1 X84.526 Y79.773 E18.89607
G1 X84.526 Y80.367 E18.92711
G1 X69.633 Y65.474 E20.02747
G1 X69.039 Y65.474 E20.05851
G1 X84.526 Y80.961 E21.20276
G1 X84.526 Y81.555 E21.23380
G1 X68.445 Y65.474 E22.42195
G1 X67.851 Y65.474 E22.45299
G1 X84.526 Y82.149 E23.68504
G1 X84.526 Y82.743 E23.71608
G1 X67.257 Y65.474 E24.99202
G1 X66.662 Y65.474 E25.02306
G1 X84.526 Y83.338 E26.34290
G1 X84.526 Y83.932 E26.37394
G1 X66.068 Y65.474 E27.73768
G1 X65.494 Y65.494 E27.76769
G1 X84.506 Y84.506 E29.17237
G1 X83.932 Y84.526 E29.20238
G1 X65.474 Y66.068 E30.56611
G1 X65.474 Y66.662 E30.59715
G1 X83.338 Y84.526 E31.91699
G1 X82.743 Y84.526 E31.94803
G1 X65.474 Y67.257 E33.22398
G1 X65.474 Y67.851 E33.25502
G1 X82.149 Y84.526 E34.48706
G1 X81.555 Y84.526 E34.51810
G1 X65.474 Y68.445 E35.70625
G1 X65.474 Y69.039 E35.73729
G1 X80.961 Y84.526 E36.88155
G1 X80.367 Y84.526 E36.91259
G1 X65.474 Y69.633 E38.01295
G1 X65.474 Y70.227 E38.04399
G1 X79.773 Y84.526 E39.10045
G1 X79.179 Y84.526 E39.13149
G1 X65.474 Y70.821 E40.14405
G1 X65.474 Y71.415 E40.17509
G1 X78.585 Y84.526 E41.14376
G1 X77.991 Y84.526 E41.17480
G1 X65.474 Y72.009 E42.09958
G1 X65.474 Y72.604 E42.13062
G1 X77.396 Y84.526 E43.01149
G1 X76.802 Y84.526 E43.04253
G1 X65.474 Y73.198 E43.87952
G1 X65.474 Y73.792 E43.91056
G1 X76.208 Y84.526 E44.70364
G1 X75.614 Y84.526 E44.73468
G1 X65.474 Y74.386 E45.48387
G1 X65.474 Y74.980 E45.51491
G1 X75.020 Y84.526 E46.22020
G1 X74.426 Y84.526 E46.25124
G1 X65.474 Y75.574 E46.91264
G1 X65.474 Y76.168 E46.94368
G1 X73.832 Y84.526 E47.56118
G1 X73.238 Y84.526 E47.59222
G1 X65.474 Y76.762 E48.16583
G1 X65.474 Y77.356 E48.19686
G1 X72.644 Y84.526 E48.72657
G1 X72.049 Y84.526 E48.75761
G1 X65.474 Y77.951 E49.24343
G1 X65.474 Y78.545 E49.27446
G1 X71.455 Y84.526 E49.71638
G1 X70.861 Y84.526 E49.74742
G1 X65.474 Y79.139 E50.14544
G1 X65.474 Y79.733 E50.17648
G1 X70.267 Y84.526 E50.53061
G1 X69.673 Y84.526 E50.56164
G1 X65.474 Y80.327 E50.87187
G1 X65.474 Y80.921 E50.90291
G1 X69.079 Y84.526 E51.16924
G1 X68.485 Y84.526 E51.20028
G1 X65.474 Y81.515 E51.42272
G1 X65.474 Y82.109 E51.45376
G1 X67.891 Y84.526 E51.63230
G1 X67.297 Y84.526 E51.66334
G1 X65.474 Y82.703 E51.79798
G1 X65.474 Y83.298 E51.82902
G1 X66.702 Y84.526 E51.91977
G1 X66.108 Y84.526 E51.95081
G1 X65.474 Y83.892 E51.99766
G1 X65.474 Y84.486 E52.02870
G1 X65.514 Y84.526 E52.03165
G1 F1800.000 E51.03165
G92 E0
G1 Z1.300 F7800.000
G1 X84.800 Y84.800 F7800.000
G1 E1.00000 F1800.000
G1 X65.200 Y84.800 E1.97785 F788.058
G1 X65.200 Y65.200 E2.95570
G1 X84.800 Y65.200 E3.93354
G1 X84.800 Y84.740 E4.90840
G1 X84.526 Y84.486 F7800.000
G1 X84.486 Y84.526 E4.91135 F2251.594
G1 X83.892 Y84.526 E4.94239
G1 X84.526 Y83.892 E4.98925
G1 X84.526 Y83.298 E5.02028
G1 X83.298 Y84.526 E5.11103
G1 X82.703 Y84.526 E5.14207
G1 X84.526 Y82.703 E5.27672
G1 X84.526 Y82.109 E5.30775
G1 X82.109 Y84.526 E5.48629
G1 X81.515 Y84.526 E5.51733
G1 X84.526 Y81.515 E5.73977
G1 X84.526 Y80.921 E5.77081
G1 X80.921 Y84.526 E6.03714
G1 X80.327 Y84.526 E6.06818
G1 X84.526 Y80.327 E6.37841
G1 X84.526 Y79.733 E6.40945
G1 X79.733 Y84.526 E6.76357
G1 X79.139 Y84.526 E6.79461
G1 X84.526 Y79.139 E7.19263
G1 X84.526 Y78.545 E7.22367
G1 X78.545 Y84.526 E7.66559
G1 X77.951 Y84.526 E7.69663
G1 X84.526 Y77.951 E8.18244
G1 X84.526 Y77.356 E8.21348
G1 X77.356 Y84.526 E8.74319
G1 X76.762 Y84.526 E8.77423
G1 X84.526 Y76.762 E9.34784
G1 X84.526 Y76.168 E9.37887
G1 X76.168 Y84.526 E9.99638
G1 X75.574 Y84.526 E10.02742
G1 X84.526 Y75.574 E10.68881
G1 X84.526 Y74.980 E10.71985
G1 X74.980 Y84.526 E11.42515
G1 X74.386 Y84.526 E11.45619
G1 X84.526 Y74.386 E12.20538
G1 X84.526 Y73.792 E12.23641
G1 X73.792 Y84.526 E13.02950
G1 X73.198 Y84.526 E13.06054
G1 X84.526 Y73.198 E13.89752
G1 X84.526 Y72.604 E13.92856
G1 X72.604 Y84.526 E14.80944
G1 X72.009 Y84.526 E14.84048
G1 X84.526 Y72.009 E15.76525
G1 X84.526 Y71.415 E15.79629
G1 X71.415 Y84.526 E16.76496
G1 X70.821 Y84.526 E16.79600
G1 X84.526 Y70.821 E17.80857
G1 X84.526 Y70.227 E17.83961
G1 X70.227 Y84.526 E18.89607
G1 X69.633 Y84.526 E18.92711
G1 X84.526 Y69.633 E20.02747
G1 X84.526 Y69.039 E20.05851
G1 X69.039 Y84.526 E21.20276
G1 X68.445 Y84.526 E21.23380
G1 X84.526 Y68.445 E22.42196
G1 X84.526 Y67.851 E22.45299
G1 X67.851 Y84.526 E23.68504
G1 X67.257 Y84.526 E23.71608
G1 X84.526 Y67.257 E24.99203
G1 X84.526 Y66.662 E25.02306
G1 X66.662 Y84.526 E26.34290
G1 X66.068 Y84.526 E26.37394
G1 X84.526 Y66.068 E27.73768
G1 X84.506 Y65.494 E27.76769
G1 X65.494 Y84.506 E29.17237
G1 X65.474 Y83.932 E29.20238
G1 X83.932 Y65.474 E30.56612
G1 X83.338 Y65.474 E30.59716
G1 X65.474 Y83.338 E31.91700
G1 X65.474 Y82.743 E31.94803
G1 X82.743 Y65.474 E33.22398
G1 X82.149 Y65.474 E33.25502
G1 X65.474 Y82.149 E34.48706
G1 X65.474 Y81.555 E34.51810
G1 X81.555 Y65.474 E35.70625
G1 X80.961 Y65.474 E35.73729
G1 X65.474 Y80.961 E36.88155
G1 X65.474 Y80.367 E36.91259
G1 X80.367 Y65.474 E38.01295
G1 X79.773 Y65.474 E38.04399
G1 X65.474 Y79.773 E39.10045
G1 X65.474 Y79.179 E39.13149
