; generated by Slic3r 1.1.7 on 2015-01-26 at 08:30:38

; perimeters extrusion width = 0.40mm
; infill extrusion width = 0.67mm
; solid infill extrusion width = 0.67mm
; top infill extrusion width = 0.67mm
; support material extrusion width = 0.40mm

G21 ; set units to millimeters
M107
M190 S40 ; wait for bed temperature to be reached
M104 S195 ; set temperature
G28 ; home all axes
G29 ;
G1 Z5 F5000 ; lift nozzle

M109 S195 ; wait for temperature to be reached
G90 ; use absolute coordinates
G92 E0
M82 ; use absolute distances for extrusion
G1 F1800.000 E-1.00000
G92 E0
G1 Z0.300 F7800.000
G1 X44.936 Y53.824 F7800.000
G1 E1.00000 F1800.000
G1 X44.606 Y54.482 E1.03675 F1080.000
G1 X44.514 Y56.452 F7800.000
G1 X46.181 Y53.126 E1.22233 F1080.000
G1 X47.082 Y53.114 E1.26728
G1 X44.514 Y58.237 E1.55318
G1 X44.514 Y60.022 E1.64226
G1 X47.977 Y53.114 E2.02779
G1 X48.871 Y53.114 E2.07244
G1 X44.514 Y61.808 E2.55761
G1 X44.514 Y63.593 E2.64668
G1 X49.766 Y53.114 E3.23149
G1 X50.661 Y53.114 E3.27614
G1 X44.514 Y65.379 E3.96058
G1 X44.514 Y67.164 E4.04966
G1 X51.556 Y53.114 E4.83374
G1 X52.451 Y53.114 E4.87838
G1 X44.514 Y68.950 E5.76210
G1 X44.514 Y70.735 E5.85118
G1 X53.346 Y53.114 E6.83453
G1 X54.241 Y53.114 E6.87918
G1 X44.514 Y72.520 E7.96217
G1 X44.514 Y74.306 E8.05124
G1 X55.135 Y53.114 E9.23387
G1 X56.030 Y53.114 E9.27852
G1 X44.514 Y76.091 E10.56078
G1 X44.514 Y77.877 E10.64986
G1 X56.925 Y53.114 E12.03176
G1 X57.820 Y53.114 E12.07640
G1 X44.514 Y79.662 E13.55794
G1 X44.514 Y81.448 E13.64702
G1 X58.715 Y53.114 E15.22820
G1 X59.610 Y53.114 E15.27284
G1 X44.514 Y83.233 E16.95365
G1 X44.514 Y85.018 E17.04273
G1 X60.505 Y53.114 E18.82318
G1 X61.399 Y53.114 E18.86782
G1 X44.514 Y86.804 E20.74791
G1 X44.793 Y88.033 E20.81079
G1 X62.294 Y53.114 E22.75946
G1 X63.189 Y53.114 E22.80410
G1 X45.389 Y88.629 E24.78604
G1 X46.163 Y88.869 E24.82650
G1 X64.084 Y53.114 E26.82185
G1 X64.979 Y53.114 E26.86649
G1 X47.050 Y88.886 E28.86278
G1 X47.945 Y88.886 E28.90742
G1 X65.874 Y53.114 E30.90371
G1 X66.769 Y53.114 E30.94836
G1 X48.840 Y88.886 E32.94464
G1 X49.734 Y88.886 E32.98929
G1 X67.663 Y53.114 E34.98558
G1 X68.558 Y53.114 E35.03022
G1 X50.629 Y88.886 E37.02651
G1 X51.524 Y88.886 E37.07115
G1 X69.453 Y53.114 E39.06744
G1 X70.348 Y53.114 E39.11209
G1 X52.419 Y88.886 E41.10837
G1 X53.314 Y88.886 E41.15302
G1 X71.243 Y53.114 E43.14931
G1 X72.138 Y53.114 E43.19395
G1 X54.209 Y88.886 E45.19024
G1 X55.104 Y88.886 E45.23488
G1 X73.033 Y53.114 E47.23117
G1 X73.927 Y53.114 E47.27582
G1 X55.998 Y88.886 E49.27211
G1 X56.893 Y88.886 E49.31675
G1 X74.822 Y53.114 E51.31304
G1 X75.717 Y53.114 E51.35768
G1 X57.788 Y88.886 E53.35397
G1 X58.683 Y88.886 E53.39862
G1 X76.612 Y53.114 E55.39490
G1 X77.507 Y53.114 E55.43955
G1 X59.578 Y88.886 E57.43584
G1 X60.473 Y88.886 E57.48048
G1 X78.402 Y53.114 E59.47677
G1 X79.297 Y53.114 E59.52141
G1 X61.368 Y88.886 E61.51770
G1 X62.262 Y88.886 E61.56235
G1 X80.191 Y53.114 E63.55863
G1 X81.086 Y53.114 E63.60328
G1 X63.157 Y88.886 E65.59957
G1 X64.052 Y88.886 E65.64421
G1 X81.981 Y53.114 E67.64050
G1 X82.876 Y53.114 E67.68514
G1 X64.947 Y88.886 E69.68143
G1 X65.842 Y88.886 E69.72608
G1 X83.771 Y53.114 E71.72236
G1 X84.666 Y53.114 E71.76701
G1 X66.737 Y88.886 E73.76330
G1 X67.632 Y88.886 E73.80794
G1 X85.561 Y53.114 E75.80423
G1 X86.455 Y53.114 E75.84887
G1 X68.526 Y88.886 E77.84516
G1 X69.421 Y88.886 E77.88981
G1 X87.350 Y53.114 E79.88609
G1 X88.245 Y53.114 E79.93074
G1 X70.316 Y88.886 E81.92703
G1 X71.211 Y88.886 E81.97167
G1 X89.140 Y53.114 E83.96796
G1 X90.035 Y53.114 E84.01260
G1 X72.106 Y88.886 E86.00889
G1 X73.001 Y88.886 E86.05354
G1 X90.930 Y53.114 E88.04982
G1 X91.825 Y53.114 E88.09447
G1 X73.896 Y88.886 E90.09076
G1 X74.790 Y88.886 E90.13540
G1 X92.719 Y53.114 E92.13169
G1 X93.614 Y53.114 E92.17633
G1 X75.685 Y88.886 E94.17262
G1 X76.580 Y88.886 E94.21727
G1 X94.422 Y53.288 E96.20386
G1 X95.053 Y53.813 E96.24485
G1 X77.475 Y88.886 E98.20210
G1 X78.370 Y88.886 E98.24675
G1 X95.470 Y54.767 E100.15077
G1 X95.486 Y56.521 E100.23828
G1 X79.265 Y88.886 E102.04443
G1 X80.160 Y88.886 E102.08907
G1 X95.486 Y58.307 E103.79558
G1 X95.486 Y60.092 E103.88465
G1 X81.054 Y88.886 E105.49153
G1 X81.949 Y88.886 E105.53617
G1 X95.486 Y61.877 E107.04341
G1 X95.486 Y63.663 E107.13248
G1 X82.844 Y88.886 E108.54008
G1 X83.739 Y88.886 E108.58473
G1 X95.486 Y65.448 E109.89269
G1 X95.486 Y67.234 E109.98177
G1 X84.634 Y88.886 E111.19009
G1 X85.529 Y88.886 E111.23474
G1 X95.486 Y69.019 E112.34342
G1 X95.486 Y70.805 E112.43250
G1 X86.424 Y88.886 E113.44155
G1 X87.318 Y88.886 E113.48620
G1 X95.486 Y72.590 E114.39561
G1 X95.486 Y74.375 E114.48469
G1 X88.213 Y88.886 E115.29446
G1 X89.108 Y88.886 E115.33911
G1 X95.486 Y76.161 E116.04925
G1 X95.486 Y77.946 E116.13832
G1 X90.003 Y88.886 E116.74883
G1 X90.898 Y88.886 E116.79347
G1 X95.486 Y79.732 E117.30434
G1 X95.486 Y81.517 E117.39342
G1 X91.793 Y88.886 E117.80465
G1 X92.688 Y88.886 E117.84929
G1 X95.486 Y83.302 E118.16088
G1 X95.486 Y85.088 E118.24996
G1 X93.582 Y88.886 E118.46192
G1 X94.601 Y88.639 E118.51422
G1 X95.486 Y86.873 E118.61274
M106 S255
M104 S190 ; set temperature
M140 S35 ; set bed temperature
G1 F1800.000 E117.61274
G92 E0
G1 Z0.500 F7800.000
G1 X90.309 Y88.466 F7800.000
G1 E1.00000 F1800.000
G1 X89.952 Y87.849 E1.02371 F1995.845
G1 X86.373 Y87.849 E1.14277
G1 X86.016 Y88.466 E1.16648
G1 X90.309 Y88.466 E1.30925
G1 X80.263 Y88.466 F7800.000
G1 X79.906 Y87.849 E1.33296 F1995.845
G1 X76.327 Y87.849 E1.45202
G1 X75.970 Y88.466 E1.47573
G1 X80.263 Y88.466 E1.61849
G1 X70.217 Y88.466 F7800.000
G1 X69.860 Y87.849 E1.64221 F1995.845
G1 X66.281 Y87.849 E1.76126
G1 X65.924 Y88.466 E1.78497
G1 X70.217 Y88.466 E1.92774
G1 X60.171 Y88.466 F7800.000
G1 X59.814 Y87.849 E1.95145 F1995.845
G1 X56.235 Y87.849 E2.07051
G1 X55.878 Y88.466 E2.09422
G1 X60.171 Y88.466 E2.23699
G1 X51.212 Y84.549 F7800.000
G1 X49.769 Y82.049 E2.33300 F1995.845
G1 X46.189 Y82.049 E2.45206
G1 X44.934 Y84.222 E2.53554
G1 X44.934 Y85.275 E2.57055
G1 X46.189 Y87.449 E2.65403
G1 X49.769 Y87.449 E2.77309
G1 X51.212 Y84.949 E2.86910
G1 X54.791 Y84.949 E2.98816
G1 X56.235 Y87.449 E3.08418
G1 X59.814 Y87.449 E3.20323
G1 X61.258 Y84.949 E3.29925
G1 X64.837 Y84.949 E3.41830
G1 X66.281 Y87.449 E3.51432
G1 X69.860 Y87.449 E3.63337
G1 X71.304 Y84.949 E3.72939
G1 X74.883 Y84.949 E3.84844
G1 X76.327 Y87.449 E3.94446
G1 X79.906 Y87.449 E4.06352
G1 X81.350 Y84.949 E4.15953
G1 X84.929 Y84.949 E4.27859
G1 X86.373 Y87.449 E4.37460
G1 X89.952 Y87.449 E4.49366
G1 X91.395 Y84.949 E4.58967
G1 X94.975 Y84.949 E4.70873
G1 X95.066 Y85.106 E4.71478
G1 X95.066 Y84.391 E4.73856
G1 X94.975 Y84.549 E4.74462
G1 X91.395 Y84.549 E4.86367
G1 X89.952 Y82.049 E4.95969
G1 X86.373 Y82.049 E5.07874
G1 X84.929 Y84.549 E5.17476
G1 X81.350 Y84.549 E5.29381
G1 X79.906 Y82.049 E5.38983
G1 X76.327 Y82.049 E5.50889
G1 X74.883 Y84.549 E5.60490
G1 X71.304 Y84.549 E5.72396
G1 X69.860 Y82.049 E5.81997
G1 X66.281 Y82.049 E5.93903
G1 X64.837 Y84.549 E6.03504
G1 X61.258 Y84.549 E6.15410
G1 X59.814 Y82.049 E6.25011
G1 X56.235 Y82.049 E6.36917
G1 X54.791 Y84.549 E6.46518
G1 X51.212 Y84.549 E6.58424
G1 X50.125 Y88.466 F7800.000
G1 X49.769 Y87.849 E6.60795 F1995.845
G1 X46.189 Y87.849 E6.72701
G1 X45.893 Y88.362 E6.74672
G1 X46.282 Y88.466 E6.76011
G1 X50.125 Y88.466 E6.88794
G1 X51.212 Y78.749 F7800.000
G1 X49.769 Y76.249 E6.98395 F1995.845
G1 X46.189 Y76.249 E7.10301
G1 X44.934 Y78.422 E7.18649
G1 X44.934 Y79.475 E7.22150
G1 X46.189 Y81.649 E7.30499
G1 X49.769 Y81.649 E7.42404
G1 X51.212 Y79.149 E7.52006
G1 X54.791 Y79.149 E7.63911
G1 X56.235 Y81.649 E7.73513
G1 X59.814 Y81.649 E7.85418
G1 X61.258 Y79.149 E7.95020
G1 X64.837 Y79.149 E8.06925
G1 X66.281 Y81.649 E8.16527
G1 X69.860 Y81.649 E8.28433
G1 X71.304 Y79.149 E8.38034
G1 X74.883 Y79.149 E8.49940
G1 X76.327 Y81.649 E8.59541
G1 X79.906 Y81.649 E8.71447
G1 X81.350 Y79.149 E8.81048
G1 X84.929 Y79.149 E8.92954
G1 X86.373 Y81.649 E9.02555
G1 X89.952 Y81.649 E9.14461
G1 X91.395 Y79.149 E9.24062
G1 X94.975 Y79.149 E9.35968
G1 X95.066 Y79.306 E9.36573
G1 X95.066 Y78.591 E9.38952
G1 X94.975 Y78.749 E9.39557
G1 X91.395 Y78.749 E9.51462
G1 X89.952 Y76.249 E9.61064
G1 X86.373 Y76.249 E9.72970
G1 X84.929 Y78.749 E9.82571
G1 X81.350 Y78.749 E9.94477
G1 X79.906 Y76.249 E10.04078
G1 X76.327 Y76.249 E10.15984
G1 X74.883 Y78.749 E10.25585
G1 X71.304 Y78.749 E10.37491
G1 X69.860 Y76.249 E10.47092
G1 X66.281 Y76.249 E10.58998
G1 X64.837 Y78.749 E10.68599
G1 X61.258 Y78.749 E10.80505
G1 X59.814 Y76.249 E10.90106
G1 X56.235 Y76.249 E11.02012
G1 X54.791 Y78.749 E11.11613
G1 X51.212 Y78.749 E11.23519
G1 X51.212 Y72.949 F7800.000
G1 X49.769 Y70.449 E11.33120 F1995.845
G1 X46.189 Y70.449 E11.45026
G1 X44.934 Y72.622 E11.53374
G1 X44.934 Y73.675 E11.56875
G1 X46.189 Y75.849 E11.65224
G1 X49.769 Y75.849 E11.77129
G1 X51.212 Y73.349 E11.86731
G1 X54.791 Y73.349 E11.98636
G1 X56.235 Y75.849 E12.08238
G1 X59.814 Y75.849 E12.20143
G1 X61.258 Y73.349 E12.29745
G1 X64.837 Y73.349 E12.41650
G1 X66.281 Y75.849 E12.51252
G1 X69.860 Y75.849 E12.63158
G1 X71.304 Y73.349 E12.72759
G1 X74.883 Y73.349 E12.84665
G1 X76.327 Y75.849 E12.94266
G1 X79.906 Y75.849 E13.06172
G1 X81.350 Y73.349 E13.15773
G1 X84.929 Y73.349 E13.27679
G1 X86.373 Y75.849 E13.37280
G1 X89.952 Y75.849 E13.49186
G1 X91.395 Y73.349 E13.58787
G1 X94.975 Y73.349 E13.70693
G1 X95.066 Y73.506 E13.71298
G1 X95.066 Y72.791 E13.73677
G1 X94.975 Y72.949 E13.74282
G1 X91.395 Y72.949 E13.86187
G1 X89.952 Y70.449 E13.95789
G1 X86.373 Y70.449 E14.07695
G1 X84.929 Y72.949 E14.17296
G1 X81.350 Y72.949 E14.29202
G1 X79.906 Y70.449 E14.38803
G1 X76.327 Y70.449 E14.50709
G1 X74.883 Y72.949 E14.60310
G1 X71.304 Y72.949 E14.72216
G1 X69.860 Y70.449 E14.81817
G1 X66.281 Y70.449 E14.93723
G1 X64.837 Y72.949 E15.03324
G1 X61.258 Y72.949 E15.15230
G1 X59.814 Y70.449 E15.24831
G1 X56.235 Y70.449 E15.36737
G1 X54.791 Y72.949 E15.46338
G1 X51.212 Y72.949 E15.58244
G1 X51.212 Y67.149 F7800.000
G1 X49.769 Y64.649 E15.67845 F1995.845
G1 X46.189 Y64.649 E15.79751
G1 X44.934 Y66.822 E15.88099
G1 X44.934 Y67.875 E15.91600
G1 X46.189 Y70.049 E15.99949
G1 X49.769 Y70.049 E16.11854
G1 X51.212 Y67.549 E16.21456
G1 X54.791 Y67.549 E16.33361
G1 X56.235 Y70.049 E16.42963
G1 X59.814 Y70.049 E16.54868
G1 X61.258 Y67.549 E16.64470
G1 X64.837 Y67.549 E16.76375
G1 X66.281 Y70.049 E16.85977
G1 X69.860 Y70.049 E16.97883
G1 X71.304 Y67.549 E17.07484
G1 X74.883 Y67.549 E17.19390
G1 X76.327 Y70.049 E17.28991
G1 X79.906 Y70.049 E17.40897
G1 X81.350 Y67.549 E17.50498
G1 X84.929 Y67.549 E17.62404
G1 X86.373 Y70.049 E17.72005
G1 X89.952 Y70.049 E17.83911
G1 X91.395 Y67.549 E17.93512
G1 X94.975 Y67.549 E18.05418
G1 X95.066 Y67.706 E18.06023
G1 X95.066 Y66.991 E18.08402
G1 X94.975 Y67.149 E18.09007
G1 X91.395 Y67.149 E18.20912
G1 X89.952 Y64.649 E18.30514
G1 X86.373 Y64.649 E18.42420
G1 X84.929 Y67.149 E18.52021
G1 X81.350 Y67.149 E18.63927
G1 X79.906 Y64.649 E18.73528
G1 X76.327 Y64.649 E18.85434
G1 X74.883 Y67.149 E18.95035
G1 X71.304 Y67.149 E19.06941
G1 X69.860 Y64.649 E19.16542
G1 X66.281 Y64.649 E19.28448
G1 X64.837 Y67.149 E19.38049
G1 X61.258 Y67.149 E19.49955
G1 X59.814 Y64.649 E19.59556
G1 X56.235 Y64.649 E19.71462
G1 X54.791 Y67.149 E19.81063
G1 X51.212 Y67.149 E19.92969
G1 X51.212 Y61.349 F7800.000
G1 X49.769 Y58.849 E20.02570 F1995.845
G1 X46.189 Y58.849 E20.14476
G1 X44.934 Y61.022 E20.22824
G1 X44.934 Y62.075 E20.26325
G1 X46.189 Y64.249 E20.34674
G1 X49.769 Y64.249 E20.46579
G1 X51.212 Y61.749 E20.56181
G1 X54.791 Y61.749 E20.68086
G1 X56.235 Y64.249 E20.77688
G1 X59.814 Y64.249 E20.89593
G1 X61.258 Y61.749 E20.99195
G1 X64.837 Y61.749 E21.11100
G1 X66.281 Y64.249 E21.20702
G1 X69.860 Y64.249 E21.32608
G1 X71.304 Y61.749 E21.42209
G1 X74.883 Y61.749 E21.54115
G1 X76.327 Y64.249 E21.63716
G1 X79.906 Y64.249 E21.75622
G1 X81.350 Y61.749 E21.85223
G1 X84.929 Y61.749 E21.97129
G1 X86.373 Y64.249 E22.06730
G1 X89.952 Y64.249 E22.18636
G1 X91.395 Y61.749 E22.28237
G1 X94.975 Y61.749 E22.40143
G1 X95.066 Y61.906 E22.40748
G1 X95.066 Y61.191 E22.43127
G1 X94.975 Y61.349 E22.43732
G1 X91.395 Y61.349 E22.55637
G1 X89.952 Y58.849 E22.65239
G1 X86.373 Y58.849 E22.77145
G1 X84.929 Y61.349 E22.86746
G1 X81.350 Y61.349 E22.98652
G1 X79.906 Y58.849 E23.08253
G1 X76.327 Y58.849 E23.20159
G1 X74.883 Y61.349 E23.29760
G1 X71.304 Y61.349 E23.41666
G1 X69.860 Y58.849 E23.51267
G1 X66.281 Y58.849 E23.63173
G1 X64.837 Y61.349 E23.72774
G1 X61.258 Y61.349 E23.84680
G1 X59.814 Y58.849 E23.94281
G1 X56.235 Y58.849 E24.06187
G1 X54.791 Y61.349 E24.15788
G1 X51.212 Y61.349 E24.27694
G1 X91.395 Y55.549 F7800.000
G1 X90.232 Y53.534 E24.35432 F1995.845
G1 X86.092 Y53.534 E24.49201
G1 X84.929 Y55.549 E24.56939
G1 X81.350 Y55.549 E24.68844
G1 X80.186 Y53.534 E24.76582
G1 X76.046 Y53.534 E24.90351
G1 X74.883 Y55.549 E24.98089
G1 X71.304 Y55.549 E25.09994
G1 X70.141 Y53.534 E25.17732
G1 X66.001 Y53.534 E25.31502
G1 X64.837 Y55.549 E25.39239
G1 X61.258 Y55.549 E25.51145
G1 X60.095 Y53.534 E25.58882
G1 X55.955 Y53.534 E25.72652
G1 X54.791 Y55.549 E25.80389
G1 X51.212 Y55.549 E25.92295
G1 X50.049 Y53.534 E26.00032
G1 X46.282 Y53.534 E26.12562
G1 X45.841 Y53.652 E26.14081
G1 X44.934 Y55.222 E26.20111
G1 X44.934 Y56.275 E26.23612
G1 X46.189 Y58.449 E26.31960
G1 X49.769 Y58.449 E26.43866
G1 X51.212 Y55.949 E26.53467
G1 X54.791 Y55.949 E26.65373
G1 X56.235 Y58.449 E26.74974
G1 X59.814 Y58.449 E26.86880
G1 X61.258 Y55.949 E26.96481
G1 X64.837 Y55.949 E27.08387
G1 X66.281 Y58.449 E27.17988
G1 X69.860 Y58.449 E27.29894
G1 X71.304 Y55.949 E27.39496
G1 X74.883 Y55.949 E27.51401
G1 X76.327 Y58.449 E27.61003
G1 X79.906 Y58.449 E27.72908
G1 X81.350 Y55.949 E27.82510
G1 X84.929 Y55.949 E27.94415
G1 X86.373 Y58.449 E28.04017
G1 X89.952 Y58.449 E28.15922
G1 X91.395 Y55.949 E28.25524
G1 X94.975 Y55.949 E28.37430
G1 X95.066 Y56.106 E28.38035
G1 X95.066 Y55.391 E28.40413
G1 X94.975 Y55.549 E28.41018
G1 X91.395 Y55.549 E28.52924
G1 X94.141 Y53.233 F7800.000
G1 X93.771 Y53.134 E28.54199 F1995.845
G1 X46.229 Y53.134 E30.12325
G1 X45.444 Y53.344 E30.15028
G1 X44.744 Y54.044 E30.18319
G1 X44.534 Y54.829 E30.21022
G1 X44.534 Y87.171 E31.28592
G1 X44.744 Y87.956 E31.31295
G1 X45.444 Y88.656 E31.34586
G1 X46.229 Y88.866 E31.37289
G1 X93.771 Y88.866 E32.95415
G1 X94.556 Y88.656 E32.98117
G1 X95.256 Y87.956 E33.01409
G1 X95.466 Y87.171 E33.04111
G1 X95.466 Y54.829 E34.11682
G1 X95.256 Y54.044 E34.14385
G1 X94.556 Y53.344 E34.17676
G1 X94.141 Y53.233 E34.19104
G1 F1800.000 E33.19104
G92 E0
G1 Z0.700 F7800.000
G1 E1.00000 F1800.000
G1 X94.556 Y53.344 E1.01428 F1995.845
G1 X95.256 Y54.044 E1.04719
G1 X95.466 Y54.829 E1.07421
G1 X95.466 Y87.171 E2.14992
G1 X95.256 Y87.956 E2.17695
G1 X94.556 Y88.656 E2.20986
G1 X93.771 Y88.866 E2.23689
G1 X46.229 Y88.866 E3.81815
G1 X45.444 Y88.656 E3.84517
G1 X44.744 Y87.956 E3.87809
G1 X44.534 Y87.171 E3.90511
G1 X44.534 Y54.829 E4.98082
G1 X44.744 Y54.044 E5.00785
G1 X45.444 Y53.344 E5.04076
G1 X46.229 Y53.134 E5.06778
G1 X93.771 Y53.134 E6.64905
G1 X94.141 Y53.233 E6.66180
G1 X91.395 Y55.549 F7800.000
G1 X90.232 Y53.534 E6.73917 F1995.845
G1 X86.092 Y53.534 E6.87687
G1 X84.929 Y55.549 E6.95424
G1 X81.350 Y55.549 E7.07330
G1 X80.186 Y53.534 E7.15067
G1 X76.046 Y53.534 E7.28837
G1 X74.883 Y55.549 E7.36574
G1 X71.304 Y55.549 E7.48480
G1 X70.141 Y53.534 E7.56217
G1 X66.001 Y53.534 E7.69987
G1 X64.837 Y55.549 E7.77724
G1 X61.258 Y55.549 E7.89630
G1 X60.095 Y53.534 E7.97367
G1 X55.955 Y53.534 E8.11137
G1 X54.791 Y55.549 E8.18875
G1 X51.212 Y55.549 E8.30780
G1 X50.049 Y53.534 E8.38518
G1 X46.282 Y53.534 E8.51047
G1 X45.841 Y53.652 E8.52566
G1 X44.934 Y55.222 E8.58596
G1 X44.934 Y56.275 E8.62097
G1 X46.189 Y58.449 E8.70446
G1 X49.769 Y58.449 E8.82351
G1 X51.212 Y55.949 E8.91953
G1 X54.791 Y55.949 E9.03858
G1 X56.235 Y58.449 E9.13460
G1 X59.814 Y58.449 E9.25365
G1 X61.258 Y55.949 E9.34967
G1 X64.837 Y55.949 E9.46872
G1 X66.281 Y58.449 E9.56474
G1 X69.860 Y58.449 E9.68380
G1 X71.304 Y55.949 E9.77981
G1 X74.883 Y55.949 E9.89887
G1 X76.327 Y58.449 E9.99488
G1 X79.906 Y58.449 E10.11394
G1 X81.350 Y55.949 E10.20995
G1 X84.929 Y55.949 E10.32901
