; generated by Slic3r 1.1.7 on 2014-11-29 at 22:35:32

; perimeters extrusion width = 0.40mm
; infill extrusion width = 0.67mm
; solid infill extrusion width = 0.67mm
; top infill extrusion width = 0.67mm

G21 ; set units to millimeters
M107
M104 S215 ; set temperature
G28 ; home all axes
G1 Z5 F5000 ; lift nozzle

M109 S215 ; wait for temperature to be reached
G90 ; use absolute coordinates
G92 E0
M82 ; use absolute distances for extrusion
G1 F1800.000 E-1.00000
G92 E0
G1 Z0.300 F7800.000
G1 X72.919 Y64.195 F7800.000
G1 E1.00000 F1800.000
G1 X73.220 Y63.854 E1.03161 F1080.000
G1 X73.728 Y63.325 E1.08255
G1 X74.260 Y62.820 E1.13351
G1 X74.813 Y62.339 E1.18445
G1 X75.388 Y61.884 E1.23541
G1 X76.237 Y61.283 E1.30771
G1 X77.225 Y60.676 E1.38822
G1 X77.871 Y60.329 E1.43917
G1 X78.813 Y59.889 E1.51147
G1 X79.893 Y59.467 E1.59198
G1 X80.590 Y59.240 E1.64294
G1 X81.297 Y59.045 E1.69387
G1 X82.314 Y58.823 E1.76619
G1 X83.459 Y58.650 E1.84670
G1 X84.190 Y58.583 E1.89766
G1 X84.922 Y58.549 E1.94860
G1 X85.963 Y58.557 E2.02092
G1 X87.118 Y58.642 E2.10142 F1080.000
G1 X87.845 Y58.738 E2.15237
G1 X88.567 Y58.866 E2.20332
G1 X89.283 Y59.027 E2.25426
G1 X89.990 Y59.219 E2.30522
G1 X90.689 Y59.442 E2.35616
G1 X91.376 Y59.697 E2.40710
G1 X92.052 Y59.981 E2.45806
G1 X92.714 Y60.296 E2.50900
G1 X93.362 Y60.640 E2.55995
G1 X93.994 Y61.012 E2.61090
G1 X94.609 Y61.412 E2.66185
G1 X95.204 Y61.839 E2.71279
G1 X95.781 Y62.292 E2.76374
G1 X96.337 Y62.770 E2.81469
G1 X96.871 Y63.273 E2.86564
G1 X97.382 Y63.799 E2.91659
G1 X98.064 Y64.584 E2.98889
G1 X98.767 Y65.506 E3.06941
G1 X99.177 Y66.114 E3.12036
G1 X99.559 Y66.740 E3.17131
G1 X99.912 Y67.382 E3.22225
G1 X100.237 Y68.039 E3.27320
G1 X100.533 Y68.710 E3.32413
G1 X100.798 Y69.394 E3.37508
G1 X101.032 Y70.089 E3.42603
G1 X101.235 Y70.793 E3.47698
G1 X101.407 Y71.506 E3.52794
G1 X101.547 Y72.226 E3.57888
G1 X101.654 Y72.951 E3.62983
G1 X101.729 Y73.681 E3.68077
G1 X101.777 Y74.669 E3.74955
G1 X101.759 Y75.879 E3.83360
G1 X101.703 Y76.610 E3.88453
G1 X101.594 Y77.470 E3.94479
G1 X101.495 Y78.061 E3.98643
G1 X101.342 Y78.778 E4.03738
G1 X101.158 Y79.488 E4.08833
G1 X100.942 Y80.189 E4.13927
G1 X100.696 Y80.880 E4.19022
G1 X100.419 Y81.558 E4.24117
G1 X100.111 Y82.224 E4.29212
G1 X99.775 Y82.876 E4.34307
G1 X99.410 Y83.512 E4.39402
G1 X99.017 Y84.131 E4.44497
G1 X98.596 Y84.731 E4.49592
G1 X98.150 Y85.313 E4.54685
G1 X97.678 Y85.874 E4.59781
G1 X97.181 Y86.413 E4.64875
G1 X96.435 Y87.139 E4.72106
G1 X95.554 Y87.892 E4.80158
G1 X94.969 Y88.334 E4.85253
G1 X94.366 Y88.751 E4.90347
G1 X93.744 Y89.140 E4.95442
G1 X93.106 Y89.501 E5.00537
G1 X92.452 Y89.833 E5.05631
G1 X91.785 Y90.136 E5.10726
G1 X91.104 Y90.408 E5.15821
G1 X90.412 Y90.651 E5.20916
G1 X89.412 Y90.939 E5.28146
G1 X88.280 Y91.189 E5.36198
G1 X87.556 Y91.304 E5.41293
G1 X86.828 Y91.387 E5.46388
G1 X86.096 Y91.438 E5.51482
G1 X85.363 Y91.456 E5.56577
G1 X84.630 Y91.441 E5.61672
G1 X83.898 Y91.394 E5.66767
G1 X83.169 Y91.314 E5.71861
G1 X82.445 Y91.202 E5.76956
G1 X81.726 Y91.058 E5.82051
G1 X81.014 Y90.881 E5.87146
G1 X80.311 Y90.673 E5.92241
G1 X79.618 Y90.434 E5.97335
G1 X78.936 Y90.165 E6.02429
G1 X78.267 Y89.865 E6.07525
G1 X77.612 Y89.536 E6.12619
G1 X76.972 Y89.178 E6.17715
G1 X76.093 Y88.620 E6.24945
G1 X75.156 Y87.938 E6.32997
G1 X74.590 Y87.472 E6.38091
G1 X74.045 Y86.981 E6.43186
G1 X73.523 Y86.467 E6.48281
G1 X73.024 Y85.930 E6.53376
G1 X72.549 Y85.371 E6.58470
G1 X72.100 Y84.791 E6.63565
G1 X71.677 Y84.192 E6.68660
G1 X71.281 Y83.575 E6.73755
G1 X70.913 Y82.941 E6.78850
G1 X70.573 Y82.291 E6.83944
G1 X70.263 Y81.627 E6.89039
G1 X69.983 Y80.949 E6.94134
G1 X69.639 Y79.967 E7.01364
G1 X69.327 Y78.851 E7.09416
G1 X69.171 Y78.135 E7.14509
G1 X69.048 Y77.412 E7.19605
G1 X68.956 Y76.684 E7.24701
G1 X68.897 Y75.953 E7.29794
G1 X68.871 Y75.221 E7.34890
G1 X68.878 Y74.488 E7.39983
G1 X68.917 Y73.755 E7.45079
G1 X68.989 Y73.025 E7.50175
G1 X69.093 Y72.300 E7.55268
G1 X69.229 Y71.579 E7.60363
G1 X69.398 Y70.866 E7.65458
G1 X69.598 Y70.160 E7.70553
G1 X69.829 Y69.464 E7.75647
G1 X70.091 Y68.779 E7.80742
G1 X70.383 Y68.107 E7.85838
G1 X70.705 Y67.448 E7.90932
G1 X71.056 Y66.804 E7.96027
G1 X71.435 Y66.177 E8.01121
G1 X71.842 Y65.567 E8.06217
G1 X72.276 Y64.975 E8.11312
G1 X72.879 Y64.240 E8.17922
G1 F1800.000 E7.17922
G92 E0
G1 X75.981 Y66.843 F7800.000
G1 E1.00000 F1800.000
G1 X76.485 Y66.296 E1.05166 F1080.000
G1 X76.881 Y65.911 E1.09007
G1 X77.294 Y65.544 E1.12848
G1 X77.768 Y65.161 E1.17078
G1 X78.492 Y64.647 E1.23247
G1 X79.098 Y64.269 E1.28210
G1 X79.583 Y64.003 E1.32052
G1 X80.129 Y63.734 E1.36280
G1 X80.636 Y63.514 E1.40122
G1 X81.623 Y63.158 E1.47415
G1 X82.209 Y62.991 E1.51643
G1 X82.747 Y62.864 E1.55484
G1 X83.290 Y62.761 E1.59326
G1 X84.332 Y62.633 E1.66619
G1 X84.883 Y62.601 E1.70459
G1 X85.492 Y62.594 E1.74689
G1 X86.540 Y62.653 E1.81982 F1080.000
G1 X87.144 Y62.727 E1.86211
G1 X88.229 Y62.938 E1.93891
G1 X89.266 Y63.235 E2.01383
G1 X89.402 Y63.216 E2.02335
G1 X90.773 Y63.853 E2.12838
G1 X91.313 Y64.133 E2.17067
G1 X92.256 Y64.709 E2.24748
G1 X93.145 Y65.367 E2.32428
G1 X93.971 Y66.101 E2.40109
G1 X94.729 Y66.906 E2.47788
G1 X95.379 Y67.730 E2.55081
G1 X95.987 Y68.653 E2.62762
G1 X96.509 Y69.627 E2.70442
G1 X96.943 Y70.644 E2.78123
G1 X97.285 Y71.695 E2.85803
G1 X97.499 Y72.614 E2.92361
G1 X97.626 Y73.374 E2.97712
G1 X97.722 Y74.475 E3.05392
G1 X97.719 Y75.581 E3.13073
G1 X97.618 Y76.681 E3.20753
G1 X97.420 Y77.769 E3.28433
G1 X97.125 Y78.834 E3.36114
G1 X96.759 Y79.818 E3.43407
G1 X96.285 Y80.816 E3.51087
G1 X95.724 Y81.769 E3.58767
G1 X95.379 Y82.270 E3.62996
G1 X94.692 Y83.136 E3.70677
G1 X93.931 Y83.938 E3.78357
G1 X93.101 Y84.668 E3.86038
G1 X92.256 Y85.291 E3.93330
G1 X91.313 Y85.867 E4.01011
G1 X90.322 Y86.357 E4.08691
G1 X89.291 Y86.756 E4.16371
G1 X88.554 Y86.977 E4.21722
G1 X87.634 Y87.190 E4.28280
G1 X86.540 Y87.347 E4.35961
G1 X85.436 Y87.406 E4.43641
G1 X84.332 Y87.367 E4.51321
G1 X83.290 Y87.239 E4.58614
G1 X82.209 Y87.009 E4.66294
G1 X81.623 Y86.842 E4.70523
G1 X80.636 Y86.486 E4.77816
G1 X79.632 Y86.023 E4.85496
G1 X79.026 Y85.693 E4.90291
G1 X78.815 Y85.687 E4.91759
G1 X77.337 Y84.493 E5.04963
G1 X76.881 Y84.089 E5.09192
G1 X76.106 Y83.302 E5.16872
G1 X75.403 Y82.448 E5.24552
G1 X74.809 Y81.583 E5.31845
G1 X74.265 Y80.621 E5.39526
G1 X73.809 Y79.614 E5.47206
G1 X73.444 Y78.570 E5.54886
G1 X73.173 Y77.499 E5.62567
G1 X72.999 Y76.407 E5.70246
G1 X72.938 Y75.639 E5.75598
G1 X72.923 Y74.696 E5.82156
G1 X72.993 Y73.648 E5.89449
G1 X73.162 Y72.556 E5.97129
G1 X73.428 Y71.483 E6.04809
G1 X73.788 Y70.438 E6.12490
G1 X74.240 Y69.429 E6.20170
G1 X74.780 Y68.465 E6.27850
G1 X75.403 Y67.552 E6.35531
G1 X75.942 Y66.888 E6.41470
G1 X76.402 Y67.207 F7800.000
G1 X76.885 Y66.683 E6.46420 F1080.000
G1 X77.264 Y66.315 E6.50088
G1 X77.692 Y65.937 E6.54059
G1 X78.103 Y65.606 E6.57728
G1 X78.802 Y65.110 E6.63682
G1 X79.382 Y64.749 E6.68429
G1 X79.845 Y64.494 E6.72099
G1 X80.358 Y64.242 E6.76068
G1 X80.842 Y64.031 E6.79738
G1 X81.794 Y63.689 E6.86772
G1 X82.344 Y63.532 E6.90741
G1 X82.858 Y63.410 E6.94410
G1 X83.376 Y63.312 E6.98079
G1 X84.381 Y63.188 E7.05113
G1 X85.436 Y63.151 E7.12448
G1 X86.490 Y63.208 E7.19784 F1080.000
G1 X87.535 Y63.358 E7.27120
G1 X88.563 Y63.601 E7.34455
G1 X89.322 Y63.847 E7.40001
G1 X89.415 Y63.837 E7.40648
G1 X90.572 Y64.375 E7.49514
G1 X91.459 Y64.861 E7.56548
G1 X91.941 Y65.169 E7.60518
G1 X92.790 Y65.796 E7.67853
G1 X93.579 Y66.497 E7.75189
G1 X94.303 Y67.266 E7.82524
G1 X94.931 Y68.060 E7.89558
G1 X95.510 Y68.942 E7.96894
G1 X96.009 Y69.873 E8.04230
G1 X96.366 Y70.700 E8.10486
G1 X96.611 Y71.384 E8.15535
G1 X96.888 Y72.403 E8.22870
G1 X97.073 Y73.442 E8.30206
G1 X97.163 Y74.450 E8.37240
G1 X97.165 Y75.506 E8.44575
G1 X97.073 Y76.558 E8.51911
G1 X96.888 Y77.597 E8.59246
G1 X96.611 Y78.616 E8.66582
G1 X96.244 Y79.606 E8.73918
G1 X95.939 Y80.266 E8.78967
G1 X95.510 Y81.058 E8.85223
G1 X94.931 Y81.940 E8.92559
G1 X94.275 Y82.767 E8.99894
G1 X93.548 Y83.533 E9.07229
G1 X92.756 Y84.231 E9.14565
G1 X91.905 Y84.856 E9.21900
G1 X91.040 Y85.381 E9.28935
G1 X90.093 Y85.849 E9.36270
G1 X89.109 Y86.230 E9.43605
G1 X88.412 Y86.439 E9.48655
G1 X87.535 Y86.642 E9.54911
G1 X86.490 Y86.792 E9.62247
G1 X85.436 Y86.849 E9.69582
G1 X84.424 Y86.815 E9.76616
G1 X83.376 Y86.688 E9.83952
G1 X82.344 Y86.468 E9.91287
G1 X81.482 Y86.207 E9.97543
G1 X80.802 Y85.952 E10.02592
G1 X79.883 Y85.526 E10.09626
G1 X79.075 Y85.065 E10.16091
G1 X78.922 Y85.057 E10.17155
G1 X77.692 Y84.063 E10.28145
G1 X77.264 Y83.685 E10.32115
G1 X76.523 Y82.933 E10.39451
G1 X75.852 Y82.118 E10.46786
G1 X75.256 Y81.246 E10.54122
G1 X74.760 Y80.364 E10.61156
G1 X74.324 Y79.402 E10.68492
G1 X73.976 Y78.405 E10.75827
G1 X73.718 Y77.382 E10.83163
G1 X73.552 Y76.339 E10.90498
G1 X73.494 Y75.615 E10.95547
G1 X73.480 Y74.714 E11.01803
G1 X73.547 Y73.704 E11.08838
G1 X73.709 Y72.661 E11.16173
G1 X73.964 Y71.636 E11.23508
G1 X74.308 Y70.638 E11.30844
G1 X74.740 Y69.675 E11.38179
G1 X75.256 Y68.754 E11.45515
G1 X75.852 Y67.882 E11.52851
G1 X76.363 Y67.252 E11.58487
G1 X76.824 Y67.571 F7800.000
G1 X77.286 Y67.070 E11.63222 F1080.000
G1 X77.647 Y66.720 E11.66718
G1 X78.439 Y66.051 E11.73925
G1 X79.113 Y65.573 E11.79663
G1 X79.666 Y65.228 E11.84195
G1 X80.586 Y64.750 E11.91401
G1 X81.048 Y64.549 E11.94898
G1 X81.965 Y64.219 E12.01673
G1 X82.969 Y63.956 E12.08879
G1 X83.463 Y63.862 E12.12375
G1 X84.431 Y63.743 E12.19150
G1 X85.467 Y63.708 E12.26356
G1 X86.441 Y63.762 E12.33132 F1080.000
G1 X87.437 Y63.906 E12.40122
G1 X88.416 Y64.138 E12.47113
G1 X89.391 Y64.464 E12.54258
G1 X89.433 Y64.459 E12.54550
G1 X90.320 Y64.872 E12.61351
G1 X91.176 Y65.340 E12.68126
G1 X91.626 Y65.628 E12.71838
G1 X92.435 Y66.226 E12.78828
G1 X93.165 Y66.872 E12.85604
G1 X93.858 Y67.602 E12.92594
G1 X94.482 Y68.390 E12.99585
G1 X95.034 Y69.232 E13.06576
G1 X95.509 Y70.119 E13.13566
G1 X95.903 Y71.044 E13.20557
G1 X96.213 Y72.002 E13.27548
G1 X96.407 Y72.836 E13.33502
G1 X96.520 Y73.510 E13.38249
G1 X96.608 Y74.512 E13.45240
G1 X96.607 Y75.519 E13.52231
G1 X96.516 Y76.521 E13.59221
G1 X96.336 Y77.510 E13.66212
G1 X96.078 Y78.451 E13.72987
G1 X95.729 Y79.394 E13.79978
G1 X95.296 Y80.303 E13.86969
G1 X94.785 Y81.169 E13.93959
G1 X94.482 Y81.610 E13.97671
G1 X93.858 Y82.398 E14.04662
G1 X93.165 Y83.128 E14.11652
G1 X92.435 Y83.774 E14.18428
G1 X91.626 Y84.372 E14.25418
G1 X90.767 Y84.896 E14.32409
G1 X89.864 Y85.341 E14.39400
G1 X88.926 Y85.704 E14.46390
G1 X88.271 Y85.900 E14.51138
G1 X87.437 Y86.094 E14.57092
G1 X86.441 Y86.238 E14.64083
G1 X85.436 Y86.292 E14.71073
G1 X84.431 Y86.257 E14.78064
G1 X83.432 Y86.133 E14.85055
G1 X82.479 Y85.928 E14.91830
G1 X81.659 Y85.679 E14.97784
G1 X81.019 Y85.439 E15.02532
G1 X80.135 Y85.029 E15.09307
G1 X79.666 Y84.772 E15.13019
G1 X79.117 Y84.434 E15.17498
G1 X79.031 Y84.429 E15.18099
G1 X78.023 Y83.614 E15.27104
G1 X77.307 Y82.952 E15.33879
G1 X76.940 Y82.563 E15.37591
G1 X76.300 Y81.787 E15.44582
G1 X75.732 Y80.957 E15.51572
G1 X75.254 Y80.107 E15.58348
G1 X74.839 Y79.190 E15.65338
G1 X74.508 Y78.240 E15.72329
G1 X74.263 Y77.265 E15.79320
G1 X74.105 Y76.271 E15.86310
G1 X74.051 Y75.590 E15.91058
G1 X74.036 Y74.733 E15.97012
G1 X74.101 Y73.760 E16.03787
G1 X74.256 Y72.766 E16.10778
G1 X74.499 Y71.789 E16.17769
G1 X74.828 Y70.839 E16.24759
G1 X75.240 Y69.921 E16.31750
G1 X75.732 Y69.043 E16.38741
G1 X76.300 Y68.213 E16.45731
G1 X76.784 Y67.617 E16.51066
G1 X77.245 Y67.936 F7800.000
G1 X77.686 Y67.458 E16.55585 F1080.000
G1 X78.030 Y67.125 E16.58909
G1 X78.774 Y66.495 E16.65684
G1 X79.423 Y66.036 E16.71208
G1 X79.950 Y65.707 E16.75524
G1 X80.815 Y65.258 E16.82299
G1 X81.254 Y65.067 E16.85623
G1 X82.136 Y64.749 E16.92139
G1 X83.080 Y64.502 E16.98914
G1 X83.549 Y64.412 E17.02238
G1 X84.480 Y64.298 E17.08755
G1 X85.436 Y64.265 E17.15400
G1 X86.391 Y64.317 E17.22046 F1080.000
G1 X87.338 Y64.455 E17.28692
G1 X88.268 Y64.676 E17.35338
G1 X89.176 Y64.978 E17.41984
G1 X89.452 Y65.082 E17.44038
G1 X90.052 Y65.361 E17.48633
G1 X90.768 Y65.748 E17.54286
G1 X91.310 Y66.087 E17.58732
G1 X92.080 Y66.655 E17.65378
G1 X92.796 Y67.289 E17.72023
G1 X93.453 Y67.985 E17.78669
G1 X94.034 Y68.721 E17.85186
G1 X94.558 Y69.521 E17.91832
G1 X95.009 Y70.364 E17.98477
G1 X95.266 Y70.950 E18.02923
G1 X95.546 Y71.714 E18.08576
G1 X95.798 Y72.637 E18.15222
G1 X95.965 Y73.560 E18.21738
G1 X96.050 Y74.512 E18.28384
G1 X96.051 Y75.469 E18.35030
G1 X95.967 Y76.422 E18.41676
G1 X95.798 Y77.363 E18.48321
G1 X95.546 Y78.286 E18.54967
G1 X95.213 Y79.183 E18.61613
G1 X94.945 Y79.763 E18.66059
G1 X94.558 Y80.479 E18.71711
G1 X94.034 Y81.279 E18.78357
G1 X93.440 Y82.029 E18.85003
G1 X92.783 Y82.723 E18.91649
G1 X92.066 Y83.357 E18.98294
G1 X91.310 Y83.913 E19.04811
G1 X90.493 Y84.410 E19.11457
G1 X89.635 Y84.833 E19.18103
G1 X88.743 Y85.177 E19.24748
G1 X88.130 Y85.361 E19.29194
G1 X87.338 Y85.545 E19.34847
G1 X86.391 Y85.683 E19.41493
G1 X85.455 Y85.735 E19.48009
G1 X84.499 Y85.704 E19.54655
G1 X83.549 Y85.588 E19.61301
G1 X82.614 Y85.387 E19.67946
G1 X81.700 Y85.105 E19.74592
G1 X80.815 Y84.742 E19.81238
G1 X79.966 Y84.302 E19.87884
G1 X79.173 Y83.797 E19.94419
G1 X79.132 Y83.794 E19.94706
G1 X78.388 Y83.192 E20.01354
G1 X77.699 Y82.555 E20.07870
G1 X77.358 Y82.194 E20.11323
G1 X76.749 Y81.457 E20.17969
G1 X76.208 Y80.668 E20.24615
G1 X75.740 Y79.834 E20.31261
G1 X75.355 Y78.978 E20.37777
G1 X75.040 Y78.075 E20.44423
G1 X74.807 Y77.148 E20.51069
G1 X74.658 Y76.203 E20.57715
G1 X74.607 Y75.565 E20.62161
G1 X74.593 Y74.752 E20.67813
G1 X74.656 Y73.816 E20.74330
G1 X74.804 Y72.871 E20.80976
G1 X75.035 Y71.943 E20.87621
G1 X75.348 Y71.039 E20.94267
G1 X75.740 Y70.166 E21.00913
G1 X76.208 Y69.332 E21.07559
G1 X76.749 Y68.543 E21.14204
G1 X77.206 Y67.981 E21.19238
G1 X77.666 Y68.300 F7800.000
G1 X78.086 Y67.845 E21.23541 F1080.000
G1 X78.412 Y67.530 E21.26693
G1 X79.110 Y66.940 E21.33037
G1 X79.733 Y66.498 E21.38344
G1 X80.234 Y66.187 E21.42445
G1 X81.044 Y65.766 E21.48789
G1 X81.460 Y65.584 E21.51941
G1 X82.307 Y65.279 E21.58198
G1 X83.191 Y65.048 E21.64542
G1 X83.636 Y64.963 E21.67694
G1 X84.530 Y64.853 E21.73951
G1 X85.442 Y64.822 E21.80295
G1 X86.342 Y64.872 E21.86553 F1080.000
G1 X87.239 Y65.003 E21.92854
G1 X88.121 Y65.213 E21.99155
G1 X88.981 Y65.500 E22.05456
G1 X89.812 Y65.864 E22.11757
G1 X90.489 Y66.231 E22.17108
G1 X90.995 Y66.546 E22.21252
G1 X91.725 Y67.085 E22.27553
G1 X92.404 Y67.686 E22.33854
G1 X93.027 Y68.345 E22.40155
G1 X93.585 Y69.051 E22.46413
G1 X94.082 Y69.810 E22.52714
G1 X94.509 Y70.610 E22.59015
G1 X94.863 Y71.445 E22.65315
G1 X95.142 Y72.308 E22.71616
G1 X95.315 Y73.058 E22.76967
G1 X95.414 Y73.646 E22.81111
G1 X95.494 Y74.550 E22.87412
G1 X95.494 Y75.457 E22.93713
G1 X95.413 Y76.360 E23.00014
G1 X95.252 Y77.252 E23.06315
G1 X95.014 Y78.121 E23.12573
G1 X94.698 Y78.971 E23.18874
G1 X94.307 Y79.789 E23.25175
G1 X93.845 Y80.570 E23.31476
G1 X93.585 Y80.949 E23.34670
G1 X93.023 Y81.660 E23.40971
G1 X92.400 Y82.319 E23.47272
G1 X91.720 Y82.919 E23.53573
G1 X90.990 Y83.457 E23.59874
G1 X90.220 Y83.925 E23.66132
G1 X89.406 Y84.325 E23.72432
G1 X88.560 Y84.651 E23.78733
G1 X87.989 Y84.822 E23.82877
G1 X87.239 Y84.997 E23.88228
G1 X86.342 Y85.128 E23.94529
G1 X85.442 Y85.178 E24.00787
G1 X84.536 Y85.148 E24.07088
G1 X83.636 Y85.037 E24.13389
G1 X82.749 Y84.847 E24.19690
G1 X81.883 Y84.579 E24.25991
G1 X81.329 Y84.359 E24.30135
G1 X80.632 Y84.031 E24.35486
G1 X79.846 Y83.578 E24.41787
G1 X79.231 Y83.158 E24.46965
G1 X78.412 Y82.470 E24.54391
G1 X77.775 Y81.825 E24.60692
G1 X77.197 Y81.126 E24.66993
G1 X76.684 Y80.378 E24.73294
G1 X76.240 Y79.588 E24.79595
G1 X75.870 Y78.767 E24.85853
G1 X75.572 Y77.910 E24.92154
G1 X75.352 Y77.030 E24.98455
G1 X75.211 Y76.135 E25.04756
G1 X75.164 Y75.540 E25.08900
G1 X75.150 Y74.770 E25.14250
G1 X75.210 Y73.871 E25.20508
G1 X75.351 Y72.976 E25.26809
G1 X75.570 Y72.096 E25.33110
G1 X75.868 Y71.239 E25.39411
G1 X76.240 Y70.412 E25.45712
G1 X76.684 Y69.622 E25.52013
G1 X77.197 Y68.874 E25.58314
G1 X77.627 Y68.346 E25.63046
G1 F1800.000 E24.63046
G92 E0
G1 X91.686 Y82.191 F7800.000
G1 E1.00000 F1800.000
