; generated by Slic3r 1.1.7 on 2014-11-29 at 22:53:20

; perimeters extrusion width = 0.40mm
; infill extrusion width = 0.67mm
; solid infill extrusion width = 0.67mm
; top infill extrusion width = 0.67mm

G21 ; set units to millimeters
M107
M104 S215 ; set temperature
G28 ; home all axes
G1 Z5 F5000 ; lift nozzle

M109 S215 ; wait for temperature to be reached
G90 ; use absolute coordinates
G92 E0
M82 ; use absolute distances for extrusion
G1 F1800.000 E-1.00000
G92 E0
G1 Z0.300 F7800.000
G1 X52.487 Y62.339 F7800.000
G1 E1.00000 F1800.000
G1 X53.062 Y61.884 E1.05095 F1080.000
G1 X53.656 Y61.454 E1.10190
G1 X54.268 Y61.051 E1.15284
G1 X54.898 Y60.676 E1.20379
G1 X55.545 Y60.329 E1.25474
G1 X56.205 Y60.012 E1.30568
G1 X56.880 Y59.724 E1.35664
G1 X57.566 Y59.467 E1.40758
G1 X58.264 Y59.240 E1.45853
G1 X58.970 Y59.045 E1.50947
G1 X59.685 Y58.881 E1.56040
G1 X60.407 Y58.749 E1.61137
G1 X61.133 Y58.650 E1.66232
G1 X61.863 Y58.583 E1.71327
G1 X62.596 Y58.549 E1.76421
G1 X63.636 Y58.557 E1.83653
G1 X64.368 Y58.602 E1.88747 F1080.000
G1 X65.303 Y58.705 E1.95284
G1 X90.035 Y62.039 E3.68680
G1 X90.711 Y62.163 E3.73457
G1 X91.509 Y62.359 E3.79164
G1 X92.040 Y62.517 E3.83015
G1 X92.689 Y62.746 E3.87793
G1 X93.340 Y63.016 E3.92692
G1 X94.178 Y63.427 E3.99174
G1 X95.137 Y63.991 E4.06906
G1 X95.728 Y64.399 E4.11896
G1 X96.526 Y65.029 E4.18963
G1 X97.105 Y65.556 E4.24399
G1 X97.523 Y65.976 E4.28516
G1 X97.983 Y66.487 E4.33298
G1 X98.416 Y67.022 E4.38076
G1 X98.829 Y67.593 E4.42971
G1 X99.324 Y68.376 E4.49412
G1 X99.670 Y69.008 E4.54415
G1 X100.126 Y69.994 E4.61968
G1 X100.487 Y70.978 E4.69245
G1 X100.681 Y71.637 E4.74025
G1 X100.840 Y72.306 E4.78801
G1 X100.985 Y73.134 E4.84642
G1 X101.053 Y73.679 E4.88453
G1 X101.104 Y74.351 E4.93136
G1 X101.120 Y75.038 E4.97916
G1 X101.098 Y75.749 E5.02855
G1 X101.043 Y76.412 E5.07475
G1 X100.946 Y77.123 E5.12465
G1 X100.752 Y78.085 E5.19285
G1 X100.562 Y78.783 E5.24311
G1 X100.307 Y79.543 E5.29880
G1 X100.098 Y80.077 E5.33865
G1 X99.815 Y80.704 E5.38645
G1 X99.500 Y81.316 E5.43426
G1 X99.143 Y81.925 E5.48332
G1 X98.775 Y82.485 E5.52983
G1 X98.368 Y83.039 E5.57762
G1 X97.707 Y83.825 E5.64899
G1 X97.217 Y84.336 E5.69818
G1 X96.659 Y84.856 E5.75118
G1 X96.189 Y85.250 E5.79376
G1 X95.642 Y85.664 E5.84146
G1 X95.072 Y86.051 E5.88929
G1 X94.484 Y86.406 E5.93708
G1 X93.877 Y86.730 E5.98489
G1 X93.234 Y87.031 E6.03415
G1 X92.333 Y87.383 E6.10136
G1 X91.648 Y87.602 E6.15139
G1 X90.956 Y87.782 E6.20102
G1 X90.374 Y87.904 E6.24237
G1 X89.734 Y88.005 E6.28740
G1 X65.230 Y91.304 E8.00533
G1 X64.501 Y91.387 E8.05629
G1 X63.770 Y91.438 E8.10723
G1 X63.037 Y91.456 E8.15817
G1 X62.304 Y91.441 E8.20913
G1 X61.266 Y91.363 E8.28143
G1 X60.119 Y91.202 E8.36195
G1 X59.400 Y91.058 E8.41289
G1 X58.688 Y90.881 E8.46384
G1 X57.985 Y90.673 E8.51480
G1 X57.292 Y90.434 E8.56573
G1 X56.328 Y90.042 E8.63805
G1 X55.285 Y89.536 E8.71856
G1 X54.645 Y89.178 E8.76951
G1 X54.022 Y88.792 E8.82046
G1 X53.417 Y88.378 E8.87141
G1 X52.830 Y87.938 E8.92235
G1 X52.264 Y87.472 E8.97330
G1 X51.719 Y86.981 E9.02424
G1 X51.197 Y86.467 E9.07519
G1 X50.697 Y85.930 E9.12614
G1 X50.223 Y85.371 E9.17709
G1 X49.774 Y84.791 E9.22803
G1 X49.350 Y84.193 E9.27898
G1 X48.798 Y83.311 E9.35129
G1 X48.247 Y82.291 E9.43181
G1 X47.937 Y81.627 E9.48276
G1 X47.610 Y80.824 E9.54299
G1 X47.407 Y80.260 E9.58464
G1 X47.188 Y79.560 E9.63559
G1 X47.000 Y78.851 E9.68654
G1 X46.845 Y78.134 E9.73749
G1 X46.680 Y77.107 E9.80979
G1 X46.571 Y75.954 E9.89029
G1 X46.545 Y75.221 E9.94126
G1 X46.565 Y74.180 E10.01358
G1 X46.662 Y73.025 E10.09408
G1 X46.767 Y72.300 E10.14502
G1 X46.903 Y71.579 E10.19598
G1 X47.071 Y70.866 E10.24692
G1 X47.312 Y70.033 E10.30716
G1 X47.503 Y69.464 E10.34881
G1 X47.765 Y68.779 E10.39976
G1 X48.057 Y68.107 E10.45071
G1 X48.379 Y67.448 E10.50166
G1 X48.730 Y66.804 E10.55260
G1 X49.109 Y66.177 E10.60355
G1 X49.695 Y65.317 E10.67585
G1 X50.409 Y64.404 E10.75638
G1 X50.893 Y63.854 E10.80731
G1 X51.623 Y63.112 E10.87963
G1 X52.442 Y62.379 E10.95597
G1 F1800.000 E9.95597
G92 E0
G1 X76.792 Y72.133 F7800.000
G1 E1.00000 F1800.000
G1 X77.632 Y72.161 E1.05843 F1080.000
G1 X77.873 Y71.418 E1.11270
G1 X78.110 Y70.808 E1.15813
G1 X78.527 Y69.939 E1.22510
G1 X78.858 Y69.360 E1.27142
G1 X79.287 Y68.720 E1.32499
G1 X79.895 Y67.951 E1.39310
G1 X80.337 Y67.472 E1.43839
G1 X80.859 Y66.977 E1.48836
G1 X81.252 Y66.642 E1.52423
G1 X81.771 Y66.249 E1.56949
G1 X82.256 Y65.924 E1.61004
G1 X83.093 Y65.446 E1.67702
G1 X83.695 Y65.159 E1.72338
G1 X84.236 Y64.940 E1.76392
G1 X84.864 Y64.726 E1.81004
G1 X85.350 Y64.591 E1.84505
G1 X85.978 Y64.451 E1.88977
G1 X86.631 Y64.346 E1.93573
G1 X87.201 Y64.288 E1.97556
G1 X87.861 Y64.260 E2.02142
G1 X88.824 Y64.292 E2.08840
G1 X89.488 Y64.362 E2.13475
G1 X90.154 Y64.477 E2.18174
G1 X90.713 Y64.607 E2.22161
G1 X91.264 Y64.766 E2.26147
G1 X91.888 Y64.987 E2.30744
G1 X92.416 Y65.209 E2.34728
G1 X92.998 Y65.493 E2.39225
G1 X93.507 Y65.778 E2.43282
G1 X94.311 Y66.310 E2.49978
G1 X94.840 Y66.718 E2.54617
G1 X95.279 Y67.101 E2.58669
G1 X95.756 Y67.569 E2.63310
G1 X96.225 Y68.093 E2.68195
G1 X96.811 Y68.858 E2.74891
G1 X97.132 Y69.346 E2.78948
G1 X97.484 Y69.957 E2.83848
G1 X97.739 Y70.470 E2.87832
G1 X98.005 Y71.092 E2.92529
G1 X98.227 Y71.721 E2.97164
G1 X98.481 Y72.651 E3.03861
G1 X98.593 Y73.224 E3.07918
G1 X98.681 Y73.867 E3.12432
G1 X98.731 Y74.527 E3.17031
G1 X98.739 Y75.170 E3.21499
G1 X98.680 Y76.132 E3.28197
G1 X98.587 Y76.816 E3.32991
G1 X98.457 Y77.456 E3.37528
G1 X98.306 Y78.027 E3.41633
G1 X98.090 Y78.680 E3.46413
G1 X97.720 Y79.570 E3.53110
G1 X97.430 Y80.143 E3.57569
G1 X97.095 Y80.714 E3.62167
G1 X96.732 Y81.254 E3.66692
G1 X96.136 Y82.011 E3.73389
G1 X95.677 Y82.513 E3.78110
G1 X95.191 Y82.979 E3.82786
G1 X94.686 Y83.405 E3.87380
G1 X94.200 Y83.770 E3.91605
G1 X93.389 Y84.291 E3.98302
G1 X92.832 Y84.593 E4.02703
G1 X92.232 Y84.873 E4.07303
G1 X91.699 Y85.085 E4.11289
G1 X91.063 Y85.295 E4.15940
G1 X90.502 Y85.446 E4.19979
G1 X89.988 Y85.556 E4.23630
G1 X89.413 Y85.648 E4.27680
G1 X88.899 Y85.703 E4.31270
G1 X88.134 Y85.740 E4.36591
G1 X87.592 Y85.734 E4.40357
G1 X87.035 Y85.698 E4.44234
G1 X86.473 Y85.632 E4.48170
G1 X85.894 Y85.533 E4.52249
G1 X85.341 Y85.407 E4.56192
G1 X84.858 Y85.271 E4.59675
G1 X84.080 Y85.001 E4.65396
G1 X83.616 Y84.807 E4.68893
G1 X83.072 Y84.544 E4.73091
G1 X82.552 Y84.258 E4.77214
G1 X82.076 Y83.961 E4.81114
G1 X81.571 Y83.606 E4.85401
G1 X81.127 Y83.255 E4.89337
G1 X80.655 Y82.838 E4.93709
G1 X80.253 Y82.441 E4.97638
G1 X79.903 Y82.059 E5.01238
G1 X79.540 Y81.618 E5.05203
G1 X79.172 Y81.120 E5.09507
G1 X78.890 Y80.689 E5.13088
G1 X78.471 Y79.956 E5.18952
G1 X78.240 Y79.488 E5.22580
G1 X78.015 Y78.961 E5.26557
G1 X77.821 Y78.431 E5.30478
G1 X77.639 Y77.843 E5.34757
G1 X76.792 Y77.865 E5.40644
G1 X76.590 Y78.674 E5.46445
G1 X76.413 Y79.276 E5.50803
G1 X76.209 Y79.869 E5.55161
G1 X75.979 Y80.453 E5.59520
G1 X75.723 Y81.026 E5.63879
G1 X75.442 Y81.587 E5.68238
G1 X75.136 Y82.134 E5.72596
G1 X74.806 Y82.668 E5.76954
G1 X74.453 Y83.186 E5.81313
G1 X74.077 Y83.688 E5.85672
G1 X73.679 Y84.173 E5.90030
G1 X73.260 Y84.640 E5.94389
G1 X72.820 Y85.087 E5.98748
G1 X72.291 Y85.576 E6.03752
G1 X71.811 Y85.980 E6.08111
G1 X71.313 Y86.361 E6.12469
G1 X70.799 Y86.721 E6.16828
G1 X70.269 Y87.056 E6.21187
G1 X69.565 Y87.451 E6.26797
G1 X68.682 Y87.880 E6.33613
G1 X68.103 Y88.121 E6.37972
G1 X67.513 Y88.335 E6.42331
G1 X66.915 Y88.523 E6.46689
G1 X66.308 Y88.684 E6.51048
G1 X65.696 Y88.818 E6.55407
G1 X64.985 Y88.937 E6.60411
G1 X64.362 Y89.012 E6.64771
G1 X63.737 Y89.059 E6.69128
G1 X63.110 Y89.078 E6.73487
G1 X62.483 Y89.069 E6.77846
G1 X61.856 Y89.032 E6.82204
G1 X61.233 Y88.967 E6.86563
G1 X60.087 Y88.774 E6.94632
G1 X59.387 Y88.607 E6.99637
G1 X58.278 Y88.263 E7.07706
G1 X57.605 Y88.004 E7.12711
G1 X56.552 Y87.515 E7.20780
G1 X55.920 Y87.169 E7.25786
G1 X54.941 Y86.544 E7.33853
G1 X54.362 Y86.117 E7.38859
G1 X53.475 Y85.367 E7.46928
G1 X52.957 Y84.866 E7.51933
G1 X52.178 Y84.005 E7.60001
G1 X51.732 Y83.439 E7.65006
G1 X51.173 Y82.633 E7.71824
G1 X50.753 Y81.943 E7.77434
G1 X49.548 Y79.689 E7.95193
G1 X49.593 Y79.613 E7.95809
G1 X49.621 Y79.374 E7.97483
G1 X49.354 Y78.461 E8.04092
G1 X49.194 Y77.758 E8.09098
G1 X49.014 Y76.611 E8.17166
G1 X48.956 Y75.987 E8.21524
G1 X48.926 Y75.360 E8.25883
G1 X48.924 Y74.733 E8.30241
G1 X48.950 Y74.106 E8.34601
G1 X49.004 Y73.481 E8.38959
G1 X49.085 Y72.859 E8.43317
G1 X49.213 Y72.150 E8.48322
G1 X49.354 Y71.539 E8.52681
G1 X49.521 Y70.934 E8.57040
G1 X49.839 Y70.006 E8.63856
G1 X50.145 Y69.259 E8.69466
G1 X50.414 Y68.692 E8.73825
G1 X50.707 Y68.138 E8.78183
G1 X51.025 Y67.597 E8.82542
G1 X51.367 Y67.071 E8.86901
G1 X51.732 Y66.561 E8.91260
G1 X52.178 Y65.995 E8.96265
G1 X52.590 Y65.522 E9.00623
G1 X53.152 Y64.942 E9.06233
G1 X53.875 Y64.279 E9.13050
G1 X54.362 Y63.883 E9.17408
G1 X54.865 Y63.510 E9.21766
G1 X55.385 Y63.159 E9.26125
G1 X56.001 Y62.785 E9.31130
G1 X56.552 Y62.485 E9.35490
G1 X57.116 Y62.210 E9.39847
G1 X57.692 Y61.961 E9.44207
G1 X58.784 Y61.568 E9.52275
G1 X59.387 Y61.393 E9.56634
G1 X59.996 Y61.246 E9.60992
G1 X60.612 Y61.126 E9.65351
G1 X61.325 Y61.022 E9.70356
G1 X61.949 Y60.961 E9.74716
G1 X63.110 Y60.922 E9.82783
G1 X63.737 Y60.941 E9.87142
G1 X64.363 Y60.988 E9.91501
G1 X65.077 Y61.076 E9.96506
G1 X65.696 Y61.182 E10.00864
G1 X66.651 Y61.406 E10.07682
G1 X67.425 Y61.636 E10.13292
G1 X68.016 Y61.846 E10.17649
G1 X68.597 Y62.082 E10.22009
G1 X69.167 Y62.345 E10.26367
G1 X69.806 Y62.677 E10.31372
G1 X70.348 Y62.992 E10.35731
G1 X70.876 Y63.331 E10.40089
G1 X71.668 Y63.910 E10.46906
G1 X72.291 Y64.424 E10.52516
G1 X72.753 Y64.848 E10.56875
G1 X73.196 Y65.293 E10.61233
G1 X73.618 Y65.756 E10.65592
G1 X74.077 Y66.312 E10.70597
G1 X74.453 Y66.814 E10.74956
G1 X74.806 Y67.332 E10.79314
G1 X75.136 Y67.866 E10.83673
G1 X75.523 Y68.574 E10.89282
G1 X75.942 Y69.461 E10.96099
G1 X76.209 Y70.131 E11.01105
G1 X76.413 Y70.724 E11.05463
G1 X76.590 Y71.325 E11.09821
G1 X76.777 Y72.075 E11.15189
G1 X78.133 Y72.483 F7800.000
G1 X78.372 Y71.680 E11.21014 F1080.000
G1 X78.621 Y71.031 E11.25842
G1 X79.027 Y70.184 E11.32369
G1 X79.384 Y69.569 E11.37311
G1 X79.687 Y69.115 E11.41101
G1 X79.967 Y68.740 E11.44355
G1 X80.363 Y68.261 E11.48672
G1 X80.735 Y67.862 E11.52460
G1 X81.091 Y67.518 E11.55898
G1 X81.647 Y67.040 E11.60999
G1 X82.417 Y66.483 E11.67599
G1 X83.024 Y66.114 E11.72539
G1 X83.923 Y65.667 E11.79511
G1 X84.510 Y65.432 E11.83902
G1 X85.026 Y65.259 E11.87686
G1 X85.493 Y65.129 E11.91053
G1 X86.163 Y64.983 E11.95820
G1 X87.129 Y64.854 E12.02593
G1 X87.863 Y64.817 E12.07693
G1 X88.333 Y64.821 E12.10959 F1080.000
G1 X88.876 Y64.853 E12.14741
G1 X89.504 Y64.927 E12.19136
G1 X90.040 Y65.022 E12.22919
G1 X90.502 Y65.128 E12.26209
G1 X91.095 Y65.297 E12.30493
G1 X91.727 Y65.523 E12.35158
G1 X92.187 Y65.716 E12.38623
G1 X92.677 Y65.953 E12.42409
G1 X93.217 Y66.254 E12.46701
G1 X93.990 Y66.765 E12.53140
G1 X94.559 Y67.209 E12.58159
G1 X95.036 Y67.639 E12.62618
G1 X95.677 Y68.309 E12.69058
G1 X96.139 Y68.879 E12.74159
G1 X96.662 Y69.645 E12.80599
G1 X96.992 Y70.219 E12.85206
G1 X97.268 Y70.780 E12.89548
G1 X97.451 Y71.207 E12.92775
G1 X97.640 Y71.715 E12.96544
G1 X97.846 Y72.400 E13.01510
G1 X98.044 Y73.321 E13.08060
G1 X98.127 Y73.927 E13.12305
G1 X98.176 Y74.602 E13.17009
G1 X98.169 Y75.529 E13.23448
G1 X98.115 Y76.182 E13.28006
G1 X98.037 Y76.725 E13.31813
G1 X97.934 Y77.243 E13.35487
G1 X97.772 Y77.867 E13.39967
G1 X97.605 Y78.386 E13.43751
G1 X97.436 Y78.832 E13.47065
G1 X97.188 Y79.392 E13.51323
G1 X96.877 Y79.991 E13.56014
G1 X96.386 Y80.777 E13.62453
G1 X95.996 Y81.307 E13.67024
G1 X95.590 Y81.790 E13.71403
G1 X94.886 Y82.504 E13.78373
G1 X94.407 Y82.917 E13.82767
G1 X93.884 Y83.312 E13.87321
G1 X93.059 Y83.838 E13.94120
G1 X92.456 Y84.157 E13.98861
G1 X91.605 Y84.524 E14.05301
G1 X90.990 Y84.736 E14.09821
G1 X90.377 Y84.903 E14.14234
G1 X89.885 Y85.009 E14.17731
G1 X89.385 Y85.090 E14.21253
G1 X88.686 Y85.161 E14.26131
G1 X87.725 Y85.180 E14.32812
G1 X87.086 Y85.143 E14.37260
G1 X86.550 Y85.081 E14.41004
G1 X86.091 Y85.003 E14.44240
G1 X85.431 Y84.855 E14.48941
G1 X84.810 Y84.672 E14.53440
G1 X84.344 Y84.506 E14.56876
G1 X83.843 Y84.298 E14.60645
G1 X83.252 Y84.009 E14.65217
G1 X82.432 Y83.527 E14.71828
G1 X81.841 Y83.111 E14.76848
G1 X81.113 Y82.502 E14.83443
G1 X80.654 Y82.054 E14.87899
G1 X80.218 Y81.570 E14.92424
G1 X79.653 Y80.835 E14.98866
G1 X79.282 Y80.266 E15.03583
G1 X79.013 Y79.793 E15.07368
G1 X78.808 Y79.383 E15.10552
G1 X78.533 Y78.757 E15.15302
G1 X78.349 Y78.253 E15.19033
G1 X78.203 Y77.783 E15.22452
G1 X78.046 Y77.156 E15.26941
G1 X77.930 Y76.519 E15.31441
G1 X77.871 Y76.061 E15.34650
G1 X77.828 Y75.519 E15.38429
G1 X77.816 Y74.881 E15.42856
G1 X77.836 Y74.342 E15.46609
G1 X77.878 Y73.875 E15.49867
G1 X77.965 Y73.261 E15.54175
G1 X78.118 Y72.541 E15.59287
G1 X78.672 Y72.624 F7800.000
G1 X78.923 Y71.790 E15.65341 F1080.000
G1 X79.289 Y70.903 E15.72006
G1 X79.593 Y70.308 E15.76645
G1 X80.099 Y69.499 E15.83276
G1 X80.508 Y68.955 E15.88009
G1 X81.133 Y68.252 E15.94538
G1 X81.590 Y67.817 E15.98924
G1 X82.281 Y67.256 E16.05106
G1 X82.842 Y66.871 E16.09839
G1 X83.685 Y66.394 E16.16567
G1 X84.286 Y66.119 E16.21162
G1 X85.132 Y65.810 E16.27417
G1 X85.789 Y65.631 E16.32150
G1 X86.700 Y65.461 E16.38587
G1 X87.341 Y65.396 E16.43065
G1 X88.231 Y65.376 E16.49248
G1 X88.832 Y65.409 E16.53433 F1080.000
G1 X89.499 Y65.491 E16.58101
G1 X90.371 Y65.669 E16.64284
G1 X91.024 Y65.861 E16.69016
G1 X91.855 Y66.179 E16.75199
G1 X92.422 Y66.448 E16.79556
G1 X92.927 Y66.729 E16.83571
G1 X93.735 Y67.267 E16.90317
G1 X94.257 Y67.685 E16.94967
G1 X94.950 Y68.338 E17.01578
G1 X95.363 Y68.799 E17.05882
G1 X95.904 Y69.505 E17.12064
G1 X96.246 Y70.033 E17.16431
G1 X96.529 Y70.535 E17.20436
G1 X96.907 Y71.351 E17.26683
G1 X97.139 Y71.974 E17.31302
G1 X97.396 Y72.905 E17.38015
G1 X97.505 Y73.474 E17.42043
G1 X97.584 Y74.095 E17.46388
G1 X97.626 Y74.983 E17.52570
G1 X97.604 Y75.664 E17.57303
G1 X97.501 Y76.548 E17.63485
G1 X97.373 Y77.196 E17.68075
G1 X97.213 Y77.788 E17.72337
G1 X96.917 Y78.628 E17.78520
G1 X96.654 Y79.218 E17.83012
G1 X96.209 Y80.028 E17.89436
G1 X95.866 Y80.550 E17.93771
G1 X95.517 Y81.014 E17.97807
G1 X94.875 Y81.739 E18.04534
G1 X94.395 Y82.194 E18.09131
G1 X93.696 Y82.761 E18.15385
G1 X93.222 Y83.087 E18.19382
G1 X92.682 Y83.411 E18.23758
G1 X91.885 Y83.807 E18.29941
G1 X91.253 Y84.061 E18.34674
G1 X90.396 Y84.323 E18.40899
G1 X89.781 Y84.461 E18.45278
G1 X88.831 Y84.590 E18.51946
G1 X88.185 Y84.626 E18.56440
G1 X87.577 Y84.617 E18.60665
G1 X86.628 Y84.529 E18.67282
G1 X86.010 Y84.419 E18.71648
G1 X85.167 Y84.200 E18.77701
G1 X84.545 Y83.986 E18.82269
G1 X84.017 Y83.765 E18.86247
G1 X83.191 Y83.340 E18.92698
G1 X82.661 Y83.012 E18.97032
G1 X81.907 Y82.453 E19.03551
G1 X81.418 Y82.026 E19.08063
G1 X80.994 Y81.602 E19.12229
G1 X80.408 Y80.920 E19.18476
G1 X80.049 Y80.429 E19.22703
G1 X79.726 Y79.921 E19.26885
G1 X79.293 Y79.107 E19.33292
G1 X79.039 Y78.519 E19.37744
G1 X78.737 Y77.623 E19.44312
G1 X78.590 Y77.038 E19.48504
G1 X78.481 Y76.443 E19.52707
G1 X78.385 Y75.487 E19.59385
G1 X78.373 Y74.892 E19.63515
G1 X78.432 Y73.931 E19.70211
G1 X78.514 Y73.356 E19.74240
G1 X78.657 Y72.682 E19.79031
G1 X79.211 Y72.765 F7800.000
G1 X79.427 Y72.037 E19.84303 F1080.000
G1 X79.642 Y71.476 E19.88478
G1 X80.015 Y70.699 E19.94464
G1 X80.322 Y70.170 E19.98719
G1 X80.853 Y69.415 E20.05126
G1 X81.198 Y69.000 E20.08882
G1 X81.856 Y68.328 E20.15416
G1 X82.332 Y67.919 E20.19780
G1 X83.023 Y67.418 E20.25705
G1 X83.508 Y67.120 E20.29658
G1 X84.053 Y66.835 E20.33932
G1 X84.888 Y66.480 E20.40235
G1 X85.779 Y66.206 E20.46717
G1 X86.360 Y66.079 E20.50850
G1 X87.239 Y65.962 E20.57006
G1 X87.866 Y65.931 E20.61370
G1 X88.723 Y65.960 E20.67331 F1080.000
G1 X89.333 Y66.028 E20.71590
G1 X90.239 Y66.211 E20.78018
G1 X90.756 Y66.359 E20.81751
G1 X91.307 Y66.555 E20.85813
G1 X92.166 Y66.943 E20.92364
G1 X92.636 Y67.205 E20.96103
G1 X93.347 Y67.675 E21.02028
G1 X93.836 Y68.057 E21.06335
G1 X94.256 Y68.434 E21.10255
G1 X94.845 Y69.050 E21.16180
G1 X95.240 Y69.538 E21.20544
