; generated by Slic3r 1.1.7 on 2014-11-29 at 20:40:43

; perimeters extrusion width = 0.40mm
; infill extrusion width = 0.42mm
; solid infill extrusion width = 0.42mm
; top infill extrusion width = 0.42mm

G21 ; set units to millimeters
M107
M104 S215 ; set temperature
G28 ; home all axes
G1 Z5 F5000 ; lift nozzle

M109 S215 ; wait for temperature to be reached
G90 ; use absolute coordinates
G92 E0
M82 ; use absolute distances for extrusion
G1 F1800.000 E-1.00000
G1 Z0.450 F7800.000
G92 E0
G1 X64.788 Y65.152 F7800.000
G1 Z0.350 F7800.000
G1 E1.00000 F1800.000
G1 X65.483 Y64.478 E1.08960 F1023.870
G1 X66.224 Y63.853 E1.17919
G1 X67.005 Y63.280 E1.26879
G1 X67.832 Y62.757 E1.35936
G1 X68.730 Y62.274 E1.45361
G1 X69.675 Y61.850 E1.54946
G1 X70.649 Y61.497 E1.64530
G1 X71.039 Y61.380 E1.68290
G1 X71.850 Y61.167 E1.76048
G1 X72.573 Y61.021 E1.82874
G1 X73.157 Y60.931 E1.88332
G1 X74.137 Y60.838 E1.97439
G1 X74.806 Y60.813 E2.03634
G1 X75.624 Y60.825 E2.11193
G1 X76.334 Y60.875 E2.17779 F1023.870
G1 X77.083 Y60.966 E2.24760
G1 X78.108 Y61.158 E2.34403
G1 X79.045 Y61.402 E2.43363
G1 X79.964 Y61.710 E2.52323
G1 X80.317 Y61.849 E2.55836
G1 X80.859 Y62.079 E2.61282
G1 X81.732 Y62.512 E2.70292
G1 X82.596 Y63.018 E2.79557
G1 X83.451 Y63.605 E2.89141
G1 X84.260 Y64.252 E2.98726
G1 X84.972 Y64.908 E3.07678
G1 X85.416 Y65.366 E3.13581
G1 X86.059 Y66.111 E3.22686
G1 X86.649 Y66.900 E3.31794
G1 X87.183 Y67.727 E3.40901
G1 X87.658 Y68.590 E3.50008
G1 X87.887 Y69.064 E3.54878
G1 X88.281 Y70.005 E3.64317
G1 X88.605 Y70.973 E3.73757
G1 X88.810 Y71.760 E3.81283
G1 X88.935 Y72.336 E3.86729
G1 X89.084 Y73.293 E3.95688
G1 X89.168 Y74.258 E4.04648
G1 X89.185 Y75.242 E4.13754
G1 X89.129 Y76.277 E4.23338
G1 X88.998 Y77.305 E4.32923
G1 X88.735 Y78.551 E4.44700
G1 X88.538 Y79.244 E4.51361
G1 X88.343 Y79.826 E4.57042
G1 X87.976 Y80.740 E4.66149
G1 X87.547 Y81.626 E4.75255
G1 X87.281 Y82.105 E4.80325
G1 X86.778 Y82.912 E4.89119
G1 X86.179 Y83.738 E4.98561
G1 X85.522 Y84.520 E5.08002
G1 X85.212 Y84.848 E5.12172
G1 X84.517 Y85.522 E5.21131
G1 X83.776 Y86.147 E5.30091
G1 X82.995 Y86.720 E5.39051
G1 X82.168 Y87.243 E5.48108
G1 X81.270 Y87.726 E5.57533
G1 X80.325 Y88.150 E5.67118
G1 X79.351 Y88.503 E5.76702
G1 X78.150 Y88.833 E5.88218
G1 X77.427 Y88.979 E5.95043
G1 X76.843 Y89.069 E6.00503
G1 X75.739 Y89.169 E6.10756
G1 X74.879 Y89.188 E6.18715
G1 X74.377 Y89.175 E6.23362
G1 X73.359 Y89.094 E6.32801
G1 X72.350 Y88.939 E6.42242
G1 X71.892 Y88.842 E6.46573
G1 X70.955 Y88.598 E6.55533
G1 X70.036 Y88.290 E6.64493
G1 X69.141 Y87.921 E6.73453
G1 X68.798 Y87.757 E6.76968
G1 X68.268 Y87.488 E6.82462
G1 X67.404 Y86.982 E6.91727
G1 X66.549 Y86.395 E7.01312
G1 X65.740 Y85.748 E7.10896
G1 X65.028 Y85.092 E7.19848
G1 X64.584 Y84.635 E7.25750
G1 X63.941 Y83.889 E7.34858
G1 X63.256 Y82.962 E7.45517
G1 X62.817 Y82.273 E7.53071
G1 X62.573 Y81.848 E7.57607
G1 X62.113 Y80.937 E7.67045
G1 X61.719 Y79.995 E7.76487
G1 X61.492 Y79.337 E7.82925
G1 X61.280 Y78.609 E7.89938
G1 X61.065 Y77.664 E7.98898
G1 X60.916 Y76.707 E8.07858
G1 X60.832 Y75.742 E8.16817
G1 X60.815 Y74.758 E8.25923
G1 X60.871 Y73.723 E8.35508
G1 X61.002 Y72.695 E8.45092
G1 X61.265 Y71.449 E8.56869
G1 X61.462 Y70.756 E8.63531
G1 X61.657 Y70.174 E8.69210
G1 X62.090 Y69.115 E8.79789
G1 X62.453 Y68.374 E8.87424
G1 X62.684 Y67.955 E8.91850
G1 X63.222 Y67.088 E9.01290
G1 X63.909 Y66.151 E9.12036
G1 X64.478 Y65.481 E9.20167
G1 X64.746 Y65.196 E9.23785
G1 F1800.000 E8.23785
G1 Z0.450 F7800.000
G92 E0
G1 X79.416 Y75.307 F7800.000
G1 Z0.350 F7800.000
G1 E1.00000 F1800.000
G1 X79.717 Y75.307 E1.02779 F600.000
G1 X78.995 Y76.920 E1.19128
G1 X78.686 Y77.463 E1.24906
G1 X78.427 Y77.812 E1.28930
G1 X78.133 Y78.137 E1.32986
G1 X77.770 Y78.462 E1.37488
G1 X77.474 Y78.678 E1.40874
G1 X77.096 Y78.906 E1.44961
G1 X76.696 Y79.095 E1.49048
G1 X76.274 Y79.246 E1.53199
G1 X75.865 Y79.348 E1.57095
G1 X75.435 Y79.412 E1.61119
G1 X74.997 Y79.434 E1.65175
G1 X74.511 Y79.406 E1.69677
G1 X74.149 Y79.350 E1.73062
G1 X73.720 Y79.244 E1.77150
G1 X73.304 Y79.095 E1.81237
G1 X72.898 Y78.903 E1.85388
G1 X72.537 Y78.686 E1.89284
G1 X72.188 Y78.427 E1.93308
G1 X71.863 Y78.133 E1.97364
G1 X71.538 Y77.770 E2.01866
G1 X71.322 Y77.474 E2.05252
G1 X71.094 Y77.096 E2.09338
G1 X70.905 Y76.696 E2.13426
G1 X70.754 Y76.273 E2.17577
G1 X70.652 Y75.865 E2.21473
G1 X70.588 Y75.435 E2.25497
G1 X70.566 Y74.997 E2.29553
G1 X70.594 Y74.510 E2.34055
G1 X70.650 Y74.149 E2.37440
G1 X70.756 Y73.720 E2.41527
G1 X70.905 Y73.304 E2.45614
G1 X71.097 Y72.898 E2.49766
G1 X71.314 Y72.537 E2.53662
G1 X71.573 Y72.188 E2.57685
G1 X71.867 Y71.863 E2.61742
G1 X72.236 Y71.534 E2.66308
G1 X72.633 Y71.252 E2.70811
G1 X72.904 Y71.094 E2.73717
G1 X73.304 Y70.905 E2.77805
G1 X73.720 Y70.756 E2.81892
G1 X74.152 Y70.649 E2.86011
G1 X74.565 Y70.588 E2.89874
G1 X75.003 Y70.566 E2.93930
G1 X75.490 Y70.594 E2.98433
G1 X75.851 Y70.650 E3.01818
G1 X76.280 Y70.756 E3.05905
G1 X76.696 Y70.905 E3.09992
G1 X77.096 Y71.094 E3.14080
G1 X77.477 Y71.324 E3.18199
G1 X77.812 Y71.573 E3.22062
G1 X78.137 Y71.867 E3.26119
G1 X78.462 Y72.230 E3.30621
G1 X78.759 Y72.651 E3.35379
G1 X78.995 Y73.080 E3.39912
G1 X79.183 Y73.533 E3.44445
G1 X79.319 Y74.004 E3.48979
G1 X79.412 Y74.565 E3.54246
G1 X79.434 Y75.003 E3.58303
G1 X79.420 Y75.247 E3.60555
G1 X78.782 Y75.271 F7800.000
G1 X78.693 Y75.942 E3.66819 F600.000
G1 X78.736 Y75.942 E3.67222
G1 X78.346 Y76.794 E3.75888
G1 X78.157 Y77.109 E3.79289
G1 X77.935 Y77.409 E3.82736
G1 X77.684 Y77.686 E3.86194
G1 X77.369 Y77.967 E3.90098
G1 X77.113 Y78.154 E3.93029
G1 X76.646 Y78.421 E3.98007
G1 X76.255 Y78.583 E4.01922
G1 X75.741 Y78.724 E4.06854
G1 X75.372 Y78.779 E4.10301
G1 X74.999 Y78.797 E4.13759
G1 X74.577 Y78.773 E4.17663
G1 X74.152 Y78.701 E4.21657
G1 X73.745 Y78.583 E4.25573
G1 X73.206 Y78.346 E4.31019
G1 X72.891 Y78.157 E4.34420
G1 X72.591 Y77.935 E4.37866
G1 X72.314 Y77.684 E4.41324
G1 X72.033 Y77.369 E4.45228
G1 X71.846 Y77.113 E4.48159
G1 X71.653 Y76.792 E4.51628
G1 X71.417 Y76.255 E4.57052
G1 X71.276 Y75.741 E4.61984
G1 X71.221 Y75.372 E4.65430
G1 X71.203 Y74.999 E4.68888
G1 X71.227 Y74.577 E4.72792
G1 X71.299 Y74.152 E4.76787
G1 X71.366 Y73.900 E4.79192
G1 X71.492 Y73.547 E4.82661
G1 X71.654 Y73.206 E4.86153
G1 X71.843 Y72.891 E4.89553
G1 X72.065 Y72.591 E4.93000
G1 X72.316 Y72.314 E4.96458
G1 X72.633 Y72.031 E5.00385
G1 X72.977 Y71.787 E5.04289
G1 X73.354 Y71.579 E5.08272
G1 X73.900 Y71.366 E5.13695
G1 X74.265 Y71.275 E5.17176
G1 X74.628 Y71.221 E5.20565
G1 X74.900 Y71.208 E5.23081
G1 X75.423 Y71.227 E5.27923 F600.000
G1 X75.736 Y71.275 E5.30854
G1 X76.100 Y71.366 E5.34323
G1 X76.453 Y71.492 E5.37792
G1 X76.792 Y71.653 E5.41261
G1 X77.114 Y71.847 E5.44741
G1 X77.409 Y72.065 E5.48130
G1 X77.686 Y72.316 E5.51588
G1 X77.967 Y72.631 E5.55492
G1 X78.217 Y72.983 E5.59487
G1 X78.421 Y73.354 E5.63402
G1 X78.583 Y73.745 E5.67317
G1 X78.701 Y74.152 E5.71233
G1 X78.779 Y74.628 E5.75696
G1 X78.797 Y75.001 E5.79154
G1 X78.785 Y75.211 E5.81097
G1 F1800.000 E4.81097
G1 Z0.450 F7800.000
G92 E0
G1 X74.803 Y70.820 F7800.000
G1 X81.554 Y75.372 F7800.000
G1 Z0.350 F7800.000
G1 E1.00000 F1800.000
G1 X81.497 Y75.956 E1.05426 F600.000
G1 X81.409 Y76.433 E1.09907
G1 X81.291 Y76.885 E1.14231
G1 X81.136 Y77.341 E1.18690
G1 X80.948 Y77.785 E1.23149
G1 X80.728 Y78.214 E1.27608
G1 X80.476 Y78.625 E1.32067
G1 X80.196 Y79.017 E1.36525
G1 X79.887 Y79.388 E1.40984
G1 X79.483 Y79.800 E1.46324
G1 X79.145 Y80.094 E1.50471
G1 X78.787 Y80.365 E1.54619
G1 X78.413 Y80.611 E1.58759
G1 X78.003 Y80.840 E1.63103
G1 X77.568 Y81.044 E1.67543
G1 X77.120 Y81.215 E1.71980
G1 X76.656 Y81.355 E1.76468
G1 X76.199 Y81.457 E1.80800
G1 X75.722 Y81.528 E1.85259
G1 X75.241 Y81.563 E1.89717
G1 X74.759 Y81.563 E1.94176
G1 X74.278 Y81.528 E1.98635
G1 X73.801 Y81.457 E2.03094
G1 X73.228 Y81.324 E2.08537
G1 X72.801 Y81.188 E2.12684
G1 X72.384 Y81.024 E2.16832
G1 X71.979 Y80.831 E2.20976
G1 X71.580 Y80.606 E2.25216
G1 X71.179 Y80.341 E2.29660
G1 X70.799 Y80.048 E2.34097
G1 X70.438 Y79.724 E2.38581
G1 X70.195 Y79.477 E2.41789
G1 X69.804 Y79.017 E2.47367
G1 X69.524 Y78.625 E2.51826
G1 X69.272 Y78.214 E2.56285
G1 X69.052 Y77.785 E2.60744
G1 X68.864 Y77.341 E2.65203
G1 X68.709 Y76.885 E2.69661
G1 X68.570 Y76.336 E2.74897
G1 X68.494 Y75.894 E2.79045
G1 X68.448 Y75.448 E2.83192
G1 X68.433 Y75.001 E2.87329
G1 X68.450 Y74.521 E2.91777
G1 X68.503 Y74.044 E2.96213
G1 X68.591 Y73.567 E3.00694
G1 X68.678 Y73.220 E3.04010
G1 X68.814 Y72.795 E3.08136
G1 X68.978 Y72.380 E3.12262
G1 X69.169 Y71.977 E3.16388
G1 X69.388 Y71.588 E3.20514
G1 X69.633 Y71.215 E3.24640
G1 X69.902 Y70.859 E3.28766
G1 X70.192 Y70.526 E3.32856
G1 X70.517 Y70.200 E3.37112
G1 X70.855 Y69.906 E3.41260
G1 X71.213 Y69.635 E3.45407
G1 X71.587 Y69.389 E3.49548
G1 X71.997 Y69.160 E3.53892
G1 X72.432 Y68.956 E3.58332
G1 X72.880 Y68.785 E3.62769
G1 X73.344 Y68.645 E3.67256
G1 X73.801 Y68.543 E3.71588
G1 X74.278 Y68.472 E3.76047
G1 X74.945 Y68.433 E3.82228
G1 X75.722 Y68.472 E3.89419 F600.000
G1 X76.325 Y68.567 E3.95068
G1 X76.772 Y68.676 E3.99321
G1 X77.199 Y68.812 E4.03468
G1 X77.616 Y68.976 E4.07616
G1 X78.021 Y69.169 E4.11760
G1 X78.420 Y69.394 E4.16000
G1 X78.821 Y69.659 E4.20444
G1 X79.201 Y69.952 E4.24881
G1 X79.562 Y70.276 E4.29365
G1 X79.805 Y70.523 E4.32573
G1 X80.196 Y70.983 E4.38151
G1 X80.612 Y71.588 E4.44948
G1 X80.948 Y72.215 E4.51524
G1 X81.186 Y72.795 E4.57324
G1 X81.321 Y73.216 E4.61417
G1 X81.430 Y73.664 E4.65677
G1 X81.506 Y74.106 E4.69825
G1 X81.552 Y74.552 E4.73972
G1 X81.567 Y74.999 E4.78109
G1 X81.556 Y75.312 E4.81010
G1 X82.189 Y75.395 F7800.000
G1 X82.126 Y76.049 E4.87080 F600.000
G1 X82.031 Y76.568 E4.91962
G1 X81.899 Y77.073 E4.96789
G1 X81.729 Y77.572 E5.01663
G1 X81.523 Y78.057 E5.06538
G1 X81.282 Y78.525 E5.11412
G1 X81.007 Y78.975 E5.16286
G1 X80.701 Y79.404 E5.21160
G1 X80.363 Y79.809 E5.26035
G1 X79.917 Y80.264 E5.31937
G1 X79.546 Y80.588 E5.36486
G1 X79.154 Y80.885 E5.41035
G1 X78.743 Y81.154 E5.45582
G1 X78.294 Y81.406 E5.50343
G1 X77.817 Y81.629 E5.55211
G1 X77.326 Y81.817 E5.60078
G1 X76.820 Y81.970 E5.64962
G1 X76.310 Y82.083 E5.69792
G1 X75.789 Y82.160 E5.74666
G1 X75.264 Y82.199 E5.79540
G1 X74.736 Y82.199 E5.84414
G1 X74.211 Y82.160 E5.89289
G1 X73.690 Y82.083 E5.94163
G1 X73.057 Y81.936 E6.00173
G1 X72.588 Y81.787 E6.04722
G1 X72.130 Y81.607 E6.09272
G1 X71.686 Y81.396 E6.13819
G1 X71.248 Y81.149 E6.18473
G1 X70.809 Y80.858 E6.23342
G1 X70.392 Y80.537 E6.28209
G1 X69.999 Y80.184 E6.33092
G1 X69.734 Y79.915 E6.36592
G1 X69.299 Y79.404 E6.42794
G1 X68.993 Y78.975 E6.47668
G1 X68.718 Y78.525 E6.52542
G1 X68.477 Y78.057 E6.57416
G1 X68.271 Y77.572 E6.62291
G1 X68.101 Y77.073 E6.67165
G1 X67.947 Y76.466 E6.72959
G1 X67.864 Y75.981 E6.77508
G1 X67.814 Y75.492 E6.82057
G1 X67.797 Y75.000 E6.86602
G1 X67.816 Y74.474 E6.91473
G1 X67.874 Y73.951 E6.96339
G1 X67.969 Y73.432 E7.01221
G1 X68.065 Y73.054 E7.04831
G1 X68.213 Y72.586 E7.09373
G1 X68.394 Y72.129 E7.13914
G1 X68.718 Y71.475 E7.20670
G1 X68.993 Y71.025 E7.25544
G1 X69.299 Y70.596 E7.30418
G1 X69.637 Y70.191 E7.35293
G1 X70.083 Y69.736 E7.41195
G1 X70.454 Y69.412 E7.45744
G1 X70.846 Y69.115 E7.50293
G1 X71.257 Y68.846 E7.54840
G1 X71.706 Y68.594 E7.59602
G1 X72.183 Y68.371 E7.64469
G1 X72.674 Y68.183 E7.69336
G1 X73.180 Y68.030 E7.74220
G1 X73.690 Y67.917 E7.79050
G1 X74.211 Y67.840 E7.83924
G1 X74.737 Y67.801 E7.88798
G1 X75.197 Y67.800 E7.93056
G1 X75.789 Y67.840 E7.98546 F600.000
G1 X76.462 Y67.946 E8.04844
G1 X76.943 Y68.064 E8.09430
G1 X77.412 Y68.213 E8.13980
G1 X77.870 Y68.393 E8.18529
G1 X78.314 Y68.604 E8.23077
G1 X78.752 Y68.851 E8.27730
G1 X79.191 Y69.142 E8.32599
G1 X79.608 Y69.463 E8.37466
G1 X80.001 Y69.816 E8.42349
G1 X80.266 Y70.085 E8.45849
G1 X80.701 Y70.596 E8.52051
G1 X81.155 Y71.257 E8.59471
G1 X81.523 Y71.943 E8.66669
G1 X81.787 Y72.586 E8.73092
G1 X81.935 Y73.052 E8.77622
G1 X82.053 Y73.534 E8.82211
G1 X82.136 Y74.019 E8.86761
G1 X82.186 Y74.508 E8.91310
G1 X82.203 Y75.000 E8.95855
G1 X82.191 Y75.335 E8.98964
G1 X75.578 Y67.923 F7800.000
G1 X76.187 Y70.279 F7800.000
G1 X74.793 Y68.885 E9.17196 F1023.870
G1 X73.967 Y68.968 E9.24878
G1 X75.131 Y70.132 E9.40109
G1 X74.279 Y70.189 E9.48010
G1 X73.234 Y69.144 E9.61668
G1 X72.562 Y69.381 E9.68259
G1 X73.538 Y70.357 E9.81020
G1 X72.883 Y70.610 E9.87519
G1 X71.959 Y69.686 E9.99606
G1 X71.405 Y70.042 E10.05689
G1 X72.306 Y70.943 E10.17474
G1 X71.793 Y71.338 E10.23469
G1 X70.912 Y70.458 E10.34988
G1 X70.458 Y70.912 E10.40933
G1 X71.337 Y71.791 E10.52436
G1 X70.940 Y72.303 E10.58428
G1 X70.046 Y71.409 E10.70122
G1 X69.688 Y71.961 E10.76200
G1 X70.615 Y72.887 E10.88315
G1 X70.354 Y73.535 E10.94778
G1 X69.383 Y72.564 E11.07484
G1 X69.139 Y73.229 E11.14037
G1 X70.184 Y74.274 E11.27707
G1 X70.132 Y75.131 E11.35641
G1 X68.966 Y73.965 E11.50893
G1 X68.882 Y74.789 E11.58562
G1 X70.278 Y76.186 E11.76823
G1 X69.182 Y76.907 F7800.000
G1 X73.093 Y80.818 E12.27979 F1023.870
G1 X74.263 Y81.079 E12.39064
G1 X72.078 Y78.894 E12.67641
G1 X71.015 Y79.649 F7800.000
G1 X70.381 Y79.015 E12.75931 F1023.870
G1 X71.099 Y77.916 F7800.000
G1 X68.921 Y75.738 E13.04421 F1023.870
G1 X73.813 Y79.721 F7800.000
G1 X75.215 Y81.122 E13.22754 F1023.870
G1 X76.031 Y81.030 E13.30352
G1 X74.869 Y79.868 E13.45550
G1 X75.725 Y79.815 E13.53479
G1 X76.770 Y80.860 E13.67158
G1 X77.438 Y80.619 E13.73721
G1 X76.464 Y79.645 E13.86459
G1 X77.118 Y79.390 E13.92950
G1 X78.041 Y80.314 E14.05034
G1 X78.595 Y79.958 E14.11117
G1 X77.696 Y79.059 E14.22878
G1 X78.207 Y78.662 E14.28870
G1 X79.088 Y79.542 E14.40388
G1 X79.542 Y79.088 E14.46332
G1 X78.663 Y78.209 E14.57834
G1 X79.060 Y77.697 E14.63826
G1 X79.957 Y78.593 E14.75552
G1 X80.315 Y78.042 E14.81628
G1 X79.383 Y77.111 E14.93817
G1 X79.666 Y76.485 E15.00167
G1 X80.620 Y77.438 E15.12635
G1 X80.863 Y76.773 E15.19188
G1 X79.950 Y75.860 E15.31131
G1 X80.234 Y75.235 E15.37481
G1 X81.034 Y76.035 E15.47955
G1 X79.713 Y73.806 F7800.000
G1 X81.118 Y75.211 E15.66333 F1023.870
G1 X81.079 Y74.262 E15.75110
G1 X78.901 Y72.084 E16.03601
G1 X79.619 Y70.985 F7800.000
G1 X78.985 Y70.351 E16.11891 F1023.870
G1 X77.922 Y71.106 F7800.000
G1 X75.737 Y68.921 E16.40468 F1023.870
G1 X76.907 Y69.182 E16.51553
G1 X80.818 Y73.093 E17.02709
M106 S255
M104 S210 ; set temperature
G1 F1800.000 E16.02709
G1 Z0.750 F7800.000
G92 E0
G1 X78.724 Y75.201 F7800.000
G1 Z0.650 F7800.000
G1 E1.00000 F1800.000
G1 X78.712 Y75.414 E1.01065 F604.175
G1 X78.639 Y75.837 E1.03207
G1 X78.575 Y76.080 E1.04461
G1 X78.450 Y76.429 E1.06310
G1 X78.289 Y76.768 E1.08180
G1 X78.105 Y77.075 E1.09966
G1 X77.887 Y77.369 E1.11795
G1 X77.639 Y77.642 E1.13634
G1 X77.332 Y77.917 E1.15692
G1 X77.082 Y78.100 E1.17238
G1 X76.618 Y78.365 E1.19901
G1 X76.076 Y78.576 E1.22804
G1 X75.729 Y78.663 E1.24591
G1 X75.366 Y78.717 E1.26419
G1 X74.998 Y78.735 E1.28258
G1 X74.586 Y78.712 E1.30316
G1 X74.280 Y78.664 E1.31863
G1 X73.920 Y78.575 E1.33712
G1 X73.382 Y78.365 E1.36593
G1 X72.925 Y78.105 E1.39215
G1 X72.631 Y77.887 E1.41043
G1 X72.358 Y77.639 E1.42882
G1 X72.083 Y77.332 E1.44940
G1 X71.835 Y76.981 E1.47082
G1 X71.709 Y76.764 E1.48336
G1 X71.550 Y76.429 E1.50185
G1 X71.424 Y76.076 E1.52055
G1 X71.337 Y75.729 E1.53842
G1 X71.283 Y75.366 E1.55670
G1 X71.265 Y74.998 E1.57509
G1 X71.288 Y74.586 E1.59567
G1 X71.336 Y74.280 E1.61114
G1 X71.476 Y73.765 E1.63777
G1 X71.711 Y73.232 E1.66679
G1 X71.895 Y72.925 E1.68466
G1 X72.113 Y72.631 E1.70294
G1 X72.361 Y72.358 E1.72133
G1 X72.671 Y72.080 E1.74212
G1 X73.008 Y71.841 E1.76270
G1 X73.236 Y71.709 E1.77587
G1 X73.765 Y71.476 E1.80469
G1 X74.282 Y71.336 E1.83143
G1 X74.634 Y71.283 E1.84918
G1 X75.002 Y71.265 E1.86757
G1 X75.414 Y71.288 E1.88815
G1 X75.720 Y71.336 E1.90362 F604.175
G1 X76.080 Y71.425 E1.92211
G1 X76.429 Y71.550 E1.94060
G1 X76.764 Y71.709 E1.95910
G1 X77.083 Y71.901 E1.97769
G1 X77.369 Y72.113 E1.99545
G1 X77.642 Y72.361 E2.01384
G1 X77.917 Y72.668 E2.03442
G1 X78.100 Y72.918 E2.04989
G1 X78.291 Y73.236 E2.06838
G1 X78.524 Y73.765 E2.09720
G1 X78.639 Y74.163 E2.11788
G1 X78.717 Y74.634 E2.14169
G1 X78.727 Y75.141 E2.16699
G1 X78.324 Y75.178 F7800.000
G1 X78.271 Y75.648 E2.19056 F600.000
