; generated by Slic3r 1.1.7 on 2014-12-03 at 09:09:41

; perimeters extrusion width = 0.40mm
; infill extrusion width = 0.67mm
; solid infill extrusion width = 0.67mm
; top infill extrusion width = 0.67mm

G21 ; set units to millimeters
M107
M104 S215 ; set temperature
G28 ; home all axes
G29; calibrate bed leveling
G1 Z5 F5000 ; lift nozzle
G28 X ; Go to corner x
G28 Y ; Go to corner y

M109 S215 ; wait for temperature to be reached
G90 ; use absolute coordinates
G92 E0
M82 ; use absolute distances for extrusion
G1 F1800.000 E-1.00000
G1 Z0.500 F7800.000
G92 E0
G1 X34.587 Y54.325 F7800.000
G1 Z0.300 F7800.000
G1 E1.00000 F1800.000
G1 X35.357 Y53.928 E1.06018 F1080.000
G1 X36.172 Y53.635 E1.12037
G1 X37.018 Y53.451 E1.18056
G1 X37.253 Y53.420 E1.19704
G1 X37.941 Y53.379 E1.24488
G1 X112.059 Y53.379 E6.39479
G1 X112.747 Y53.420 E6.44263
G1 X113.599 Y53.574 E6.50282
G1 X114.424 Y53.838 E6.56302
G1 X115.208 Y54.207 E6.62320
G1 X115.937 Y54.675 E6.68338
G1 X116.598 Y55.234 E6.74357
G1 X117.181 Y55.875 E6.80376
G1 X117.675 Y56.587 E6.86394
G1 X118.072 Y57.357 E6.92414
G1 X118.365 Y58.172 E6.98431
G1 X118.549 Y59.018 E7.04449
G1 X118.580 Y59.253 E7.06097
G1 X118.621 Y59.941 E7.10882
G1 X118.621 Y90.059 E9.20152
G1 X118.580 Y90.747 E9.24936
G1 X118.549 Y90.982 E9.26584
G1 X118.365 Y91.828 E9.32603
G1 X118.072 Y92.643 E9.38621
G1 X117.793 Y93.208 E9.42996
G1 X117.325 Y93.937 E9.49015
G1 X116.857 Y94.494 E9.54073
G1 X116.598 Y94.766 E9.56679
G1 X115.937 Y95.325 E9.62698
G1 X115.208 Y95.793 E9.68716
G1 X114.643 Y96.072 E9.73090
G1 X113.828 Y96.365 E9.79108
G1 X112.982 Y96.549 E9.85129
G1 X112.747 Y96.580 E9.86775
G1 X112.059 Y96.621 E9.91560
G1 X37.941 Y96.621 E15.06550
G1 X37.253 Y96.580 E15.11337
G1 X36.401 Y96.426 E15.17353
G1 X35.576 Y96.162 E15.23372
G1 X34.792 Y95.793 E15.29390
G1 X34.063 Y95.325 E15.35409
G1 X33.402 Y94.766 E15.41428
G1 X32.819 Y94.125 E15.47447
G1 X32.325 Y93.413 E15.53465
G1 X31.928 Y92.643 E15.59484
G1 X31.635 Y91.828 E15.65502
G1 X31.451 Y90.982 E15.71520
G1 X31.420 Y90.747 E15.73168
G1 X31.379 Y90.059 E15.77953
G1 X31.379 Y59.941 E17.87223
G1 X31.420 Y59.253 E17.92007
G1 X31.451 Y59.018 E17.93654
G1 X31.635 Y58.172 E17.99674
G1 X31.928 Y57.357 E18.05692
G1 X32.325 Y56.587 E18.11711
G1 X32.819 Y55.875 E18.17729
G1 X33.234 Y55.402 E18.22103
G1 X33.875 Y54.819 E18.28122
G1 X34.537 Y54.359 E18.33723
G1 X34.881 Y54.799 F7800.000
G1 X35.587 Y54.436 E18.39235 F1080.000
G1 X36.334 Y54.169 E18.44747
G1 X37.109 Y54.001 E18.50259
G1 X37.950 Y53.936 E18.56119
G1 X112.050 Y53.936 E23.70983
G1 X112.692 Y53.975 E23.75451
G1 X113.472 Y54.117 E23.80962
G1 X114.228 Y54.359 E23.86476
G1 X114.945 Y54.698 E23.91988
G1 X115.612 Y55.128 E23.97499
G1 X116.217 Y55.641 E24.03012
G1 X116.750 Y56.229 E24.08524
G1 X117.201 Y56.881 E24.14036
G1 X117.564 Y57.587 E24.19548
G1 X117.831 Y58.334 E24.25059
G1 X117.999 Y59.109 E24.30571
G1 X118.064 Y59.950 E24.36431
G1 X118.064 Y90.050 E26.45575
G1 X118.025 Y90.692 E26.50042
G1 X117.999 Y90.891 E26.51437
G1 X117.831 Y91.666 E26.56949
G1 X117.564 Y92.413 E26.62461
G1 X117.302 Y92.945 E26.66582
G1 X116.872 Y93.612 E26.72094
G1 X116.438 Y94.127 E26.76773
G1 X116.217 Y94.359 E26.78999
G1 X115.612 Y94.872 E26.84511
G1 X114.945 Y95.302 E26.90023
G1 X114.413 Y95.564 E26.94143
G1 X113.666 Y95.831 E26.99655
G1 X112.891 Y95.999 E27.05169
G1 X112.050 Y96.064 E27.11027
G1 X37.950 Y96.064 E32.25891
G1 X37.308 Y96.025 E32.30360
G1 X36.527 Y95.883 E32.35871
G1 X35.772 Y95.641 E32.41383
G1 X35.055 Y95.302 E32.46895
G1 X34.388 Y94.872 E32.52407
G1 X33.783 Y94.359 E32.57919
G1 X33.250 Y93.771 E32.63431
G1 X32.799 Y93.119 E32.68943
G1 X32.436 Y92.413 E32.74455
G1 X32.169 Y91.666 E32.79967
G1 X32.001 Y90.891 E32.85479
G1 X31.936 Y90.050 E32.91339
G1 X31.936 Y59.950 E35.00482
G1 X31.975 Y59.308 E35.04949
G1 X32.001 Y59.109 E35.06344
G1 X32.169 Y58.334 E35.11857
G1 X32.436 Y57.587 E35.17368
G1 X32.799 Y56.881 E35.22881
G1 X33.250 Y56.229 E35.28392
G1 X33.641 Y55.783 E35.32512
G1 X34.229 Y55.250 E35.38025
G1 X34.831 Y54.832 E35.43120
G1 X35.175 Y55.272 F7800.000
G1 X35.817 Y54.944 E35.48125 F1080.000
G1 X36.495 Y54.702 E35.53131
G1 X37.200 Y54.551 E35.58136
G1 X37.959 Y54.493 E35.63426
G1 X112.041 Y54.493 E40.78164
G1 X112.637 Y54.530 E40.82315
G1 X113.346 Y54.660 E40.87320
G1 X114.183 Y54.944 E40.93464
G1 X114.682 Y55.190 E40.97331
G1 X115.287 Y55.581 E41.02336
G1 X115.836 Y56.048 E41.07342
G1 X116.319 Y56.582 E41.12347
G1 X116.728 Y57.175 E41.17353
G1 X117.056 Y57.817 E41.22359
G1 X117.298 Y58.495 E41.27364
G1 X117.449 Y59.200 E41.32369
G1 X117.507 Y59.959 E41.37660
G1 X117.504 Y90.123 E43.47246
G1 X117.449 Y90.800 E43.51966
G1 X117.298 Y91.505 E43.56972
G1 X117.056 Y92.183 E43.61977
G1 X116.810 Y92.682 E43.65845
G1 X116.419 Y93.287 E43.70850
G1 X116.019 Y93.759 E43.75149
G1 X115.836 Y93.952 E43.76996
G1 X115.287 Y94.419 E43.82001
G1 X114.682 Y94.810 E43.87006
G1 X114.183 Y95.056 E43.90874
G1 X113.505 Y95.298 E43.95879
G1 X112.800 Y95.449 E44.00886
G1 X112.041 Y95.507 E44.06174
G1 X37.959 Y95.507 E49.20912
G1 X37.362 Y95.470 E49.25064
G1 X36.654 Y95.340 E49.30068
G1 X35.817 Y95.056 E49.36212
G1 X35.176 Y94.728 E49.41217
G1 X34.583 Y94.319 E49.46223
G1 X34.164 Y93.952 E49.50090
G1 X33.681 Y93.417 E49.55095
G1 X33.272 Y92.825 E49.60101
G1 X32.944 Y92.183 E49.65106
G1 X32.702 Y91.505 E49.70112
G1 X32.551 Y90.800 E49.75117
G1 X32.493 Y90.041 E49.80407
G1 X32.493 Y59.959 E51.89424
G1 X32.530 Y59.363 E51.93575
G1 X32.702 Y58.495 E51.99719
G1 X32.944 Y57.817 E52.04724
G1 X33.272 Y57.175 E52.09730
G1 X33.681 Y56.583 E52.14735
G1 X34.048 Y56.164 E52.18602
G1 X34.582 Y55.681 E52.23607
G1 X35.126 Y55.305 E52.28196
G1 X35.470 Y55.745 F7800.000
G1 X36.047 Y55.451 E52.32695 F1080.000
G1 X36.657 Y55.235 E52.37194
G1 X37.291 Y55.101 E52.41693
G1 X37.968 Y55.050 E52.46413
G1 X112.032 Y55.050 E57.61024
G1 X112.583 Y55.084 E57.64859
G1 X113.219 Y55.202 E57.69357
G1 X113.953 Y55.451 E57.74742
G1 X114.530 Y55.745 E57.79241
G1 X114.963 Y56.034 E57.82854
G1 X115.392 Y56.400 E57.86774
G1 X115.545 Y56.545 E57.88240
G1 X115.888 Y56.936 E57.91853
G1 X116.255 Y57.470 E57.96353
G1 X116.549 Y58.047 E58.00852
G1 X116.765 Y58.657 E58.05350
G1 X116.899 Y59.291 E58.09849
G1 X116.950 Y59.968 E58.14570
G1 X116.948 Y90.096 E60.23903
G1 X116.899 Y90.709 E60.28180
G1 X116.765 Y91.343 E60.32679
G1 X116.549 Y91.953 E60.37178
G1 X116.319 Y92.420 E60.40792
G1 X115.966 Y92.963 E60.45291
G1 X115.600 Y93.392 E60.49211
G1 X115.455 Y93.545 E60.50677
G1 X114.963 Y93.966 E60.55176
G1 X114.420 Y94.319 E60.59674
G1 X113.953 Y94.549 E60.63288
G1 X113.343 Y94.765 E60.67787
G1 X112.709 Y94.899 E60.72287
G1 X112.032 Y94.950 E60.77007
G1 X37.968 Y94.950 E65.91617
G1 X37.417 Y94.916 E65.95453
G1 X36.781 Y94.798 E65.99951
G1 X36.047 Y94.549 E66.05335
G1 X35.470 Y94.255 E66.09834
G1 X35.037 Y93.966 E66.13447
G1 X34.608 Y93.600 E66.17367
G1 X34.455 Y93.455 E66.18833
G1 X34.112 Y93.064 E66.22446
G1 X33.745 Y92.530 E66.26945
G1 X33.451 Y91.953 E66.31444
G1 X33.235 Y91.343 E66.35944
G1 X33.101 Y90.709 E66.40442
G1 X33.050 Y90.032 E66.45163
G1 X33.050 Y59.968 E68.54052
G1 X33.084 Y59.417 E68.57887
G1 X33.235 Y58.657 E68.63271
G1 X33.451 Y58.047 E68.67770
G1 X33.745 Y57.470 E68.72269
G1 X34.112 Y56.936 E68.76768
G1 X34.455 Y56.545 E68.80382
G1 X34.936 Y56.112 E68.84881
G1 X35.420 Y55.779 E68.88963
G1 X35.764 Y56.219 F7800.000
G1 X36.277 Y55.959 E68.92955 F1080.000
G1 X36.819 Y55.769 E68.96948
G1 X37.381 Y55.651 E69.00941
G1 X37.977 Y55.607 E69.05091
G1 X112.023 Y55.607 E74.19575
G1 X112.528 Y55.639 E74.23093
G1 X113.093 Y55.745 E74.27086
G1 X113.723 Y55.959 E74.31711
G1 X114.236 Y56.219 E74.35703
G1 X114.638 Y56.487 E74.39063
G1 X115.025 Y56.819 E74.42603
G1 X115.457 Y57.290 E74.47046
G1 X115.781 Y57.764 E74.51038
G1 X116.041 Y58.277 E74.55031
G1 X116.231 Y58.819 E74.59023
G1 X116.349 Y59.381 E74.63016
G1 X116.393 Y59.977 E74.67167
G1 X116.391 Y90.068 E76.76246
G1 X116.349 Y90.619 E76.80080
G1 X116.231 Y91.181 E76.84073
G1 X116.041 Y91.723 E76.88066
G1 X115.827 Y92.157 E76.91426
G1 X115.513 Y92.638 E76.95419
G1 X115.181 Y93.025 E76.98958
G1 X115.074 Y93.138 E77.00044
G1 X114.638 Y93.513 E77.04037
G1 X114.157 Y93.827 E77.08029
G1 X113.723 Y94.041 E77.11390
G1 X113.181 Y94.231 E77.15382
G1 X112.618 Y94.349 E77.19375
G1 X112.023 Y94.393 E77.23525
G1 X37.977 Y94.393 E82.38009
G1 X37.472 Y94.361 E82.41528
G1 X36.907 Y94.255 E82.45520
G1 X36.277 Y94.041 E82.50144
G1 X35.764 Y93.781 E82.54137
G1 X35.290 Y93.457 E82.58130
G1 X34.926 Y93.138 E82.61490
G1 X34.543 Y92.710 E82.65482
G1 X34.219 Y92.236 E82.69475
G1 X33.959 Y91.723 E82.73468
G1 X33.769 Y91.181 E82.77460
G1 X33.651 Y90.619 E82.81453
G1 X33.607 Y90.023 E82.85603
G1 X33.609 Y59.932 E84.94683
G1 X33.651 Y59.381 E84.98517
G1 X33.769 Y58.819 E85.02510
G1 X33.959 Y58.277 E85.06502
G1 X34.173 Y57.843 E85.09862
G1 X34.487 Y57.362 E85.13855
G1 X34.862 Y56.926 E85.17847
G1 X35.290 Y56.543 E85.21840
G1 X35.714 Y56.252 E85.25416
G1 X36.058 Y56.692 F7800.000
G1 X36.507 Y56.467 E85.28902 F1080.000
G1 X36.981 Y56.302 E85.32388
G1 X37.472 Y56.201 E85.35874
G1 X37.986 Y56.164 E85.39455
G1 X112.014 Y56.164 E90.53812
G1 X112.473 Y56.194 E90.57014
G1 X112.966 Y56.288 E90.60500
G1 X113.493 Y56.467 E90.64366
G1 X113.941 Y56.692 E90.67852
G1 X114.313 Y56.940 E90.70958
G1 X114.658 Y57.237 E90.74118
G1 X115.026 Y57.643 E90.77928
G1 X115.308 Y58.058 E90.81415
G1 X115.533 Y58.507 E90.84901
G1 X115.698 Y58.981 E90.88387
G1 X115.799 Y59.472 E90.91873
G1 X115.836 Y59.986 E90.95454
G1 X115.835 Y90.041 E93.04280
G1 X115.799 Y90.528 E93.07671
G1 X115.698 Y91.019 E93.11158
G1 X115.533 Y91.493 E93.14644
G1 X115.335 Y91.894 E93.17750
G1 X115.060 Y92.313 E93.21237
G1 X114.763 Y92.658 E93.24396
G1 X114.313 Y93.060 E93.28586
G1 X113.894 Y93.335 E93.32072
G1 X113.493 Y93.533 E93.35179
G1 X113.019 Y93.698 E93.38665
G1 X112.528 Y93.799 E93.42151
G1 X112.014 Y93.836 E93.45732
G1 X37.986 Y93.836 E98.60089
G1 X37.526 Y93.806 E98.63291
G1 X37.034 Y93.712 E98.66777
G1 X36.507 Y93.533 E98.70642
G1 X36.059 Y93.308 E98.74128
G1 X35.687 Y93.060 E98.77235
G1 X35.342 Y92.763 E98.80395
G1 X34.974 Y92.357 E98.84205
G1 X34.692 Y91.942 E98.87691
G1 X34.467 Y91.493 E98.91177
G1 X34.302 Y91.019 E98.94664
G1 X34.201 Y90.528 E98.98150
G1 X34.164 Y90.014 E99.01731
G1 X34.165 Y59.959 E101.10557
G1 X34.201 Y59.472 E101.13948
G1 X34.302 Y58.981 E101.17434
G1 X34.467 Y58.507 E101.20920
G1 X34.665 Y58.106 E101.24027
G1 X34.940 Y57.687 E101.27513
G1 X35.268 Y57.307 E101.30999
G1 X35.643 Y56.974 E101.34485
G1 X36.009 Y56.725 E101.37555
G1 X36.353 Y57.165 F7800.000
G1 X36.737 Y56.975 E101.40534 F1080.000
G1 X37.143 Y56.836 E101.43514
G1 X37.563 Y56.751 E101.46494
G1 X37.995 Y56.721 E101.49505
G1 X112.005 Y56.721 E106.63736
G1 X112.419 Y56.748 E106.66621
G1 X112.840 Y56.831 E106.69600
G1 X113.263 Y56.975 E106.72707
G1 X113.647 Y57.165 E106.75686
G1 X113.989 Y57.393 E106.78540
G1 X114.290 Y57.656 E106.81320
G1 X114.595 Y57.997 E106.84498
G1 X114.835 Y58.353 E106.87478
G1 X115.025 Y58.737 E106.90457
G1 X115.164 Y59.143 E106.93437
G1 X115.249 Y59.563 E106.96417
G1 X115.279 Y59.995 E106.99428
G1 X115.278 Y90.014 E109.08001
G1 X115.249 Y90.437 E109.10949
G1 X115.164 Y90.857 E109.13929
G1 X115.025 Y91.263 E109.16909
G1 X114.844 Y91.631 E109.19762
G1 X114.607 Y91.989 E109.22742
G1 X114.325 Y92.312 E109.25722
G1 X114.003 Y92.595 E109.28701
G1 X113.671 Y92.819 E109.31481
G1 X113.263 Y93.025 E109.34659
G1 X112.857 Y93.164 E109.37639
G1 X112.437 Y93.249 E109.40619
G1 X112.005 Y93.279 E109.43630
G1 X37.995 Y93.279 E114.57861
G1 X37.581 Y93.252 E114.60746
G1 X37.160 Y93.169 E114.63725
G1 X36.737 Y93.025 E114.66832
G1 X36.353 Y92.835 E114.69811
G1 X36.011 Y92.607 E114.72665
G1 X35.710 Y92.344 E114.75445
G1 X35.405 Y92.003 E114.78623
G1 X35.165 Y91.647 E114.81602
G1 X34.975 Y91.263 E114.84582
G1 X34.836 Y90.857 E114.87562
G1 X34.751 Y90.437 E114.90542
G1 X34.721 Y90.005 E114.93553
G1 X34.722 Y59.986 E117.02126
G1 X34.751 Y59.563 E117.05074
G1 X34.836 Y59.143 E117.08054
G1 X34.975 Y58.737 E117.11034
G1 X35.156 Y58.369 E117.13887
G1 X35.393 Y58.011 E117.16867
G1 X35.675 Y57.688 E117.19846
G1 X35.997 Y57.405 E117.22826
G1 X36.303 Y57.199 E117.25389
G1 F1800.000 E116.25389
G1 Z0.500 F7800.000
G92 E0
G1 X113.033 Y92.494 F7800.000
G1 Z0.300 F7800.000
G1 E1.00000 F1800.000
G1 X112.699 Y92.607 E1.02453 F378.000
G1 X112.352 Y92.676 E1.04907
G1 X111.990 Y92.700 E1.07428
G1 X38.010 Y92.700 E6.21459
G1 X37.648 Y92.676 E6.23981
G1 X37.301 Y92.607 E6.26434
G1 X36.967 Y92.494 E6.28888
G1 X36.650 Y92.338 E6.31341
G1 X36.357 Y92.142 E6.33794
G1 X36.091 Y91.909 E6.36248
G1 X35.858 Y91.643 E6.38701
G1 X35.662 Y91.350 E6.41154
G1 X35.506 Y91.033 E6.43608
G1 X35.393 Y90.699 E6.46061
G1 X35.324 Y90.352 E6.48514
G1 X35.300 Y89.990 E6.51036
G1 X35.300 Y60.010 E8.59346
G1 X35.324 Y59.648 E8.61868
G1 X35.393 Y59.301 E8.64321
G1 X35.506 Y58.967 E8.66774
G1 X35.662 Y58.650 E8.69228
G1 X35.858 Y58.357 E8.71681
G1 X36.091 Y58.091 E8.74134
G1 X36.357 Y57.858 E8.76588
G1 X36.650 Y57.662 E8.79041
G1 X36.967 Y57.506 E8.81495
G1 X37.301 Y57.393 E8.83948
G1 X37.648 Y57.324 E8.86401
G1 X38.010 Y57.300 E8.88923
G1 X111.990 Y57.300 E14.02954
G1 X112.352 Y57.324 E14.05475
G1 X112.699 Y57.393 E14.07929
G1 X113.033 Y57.506 E14.10382
G1 X113.350 Y57.662 E14.12835
G1 X113.643 Y57.858 E14.15289
G1 X113.909 Y58.091 E14.17742
G1 X114.142 Y58.357 E14.20196
G1 X114.338 Y58.650 E14.22649
G1 X114.494 Y58.967 E14.25102
G1 X114.607 Y59.301 E14.27556
G1 X114.676 Y59.648 E14.30009
G1 X114.700 Y60.010 E14.32531
G1 X114.700 Y89.990 E16.40840
G1 X114.676 Y90.352 E16.43362
G1 X114.607 Y90.699 E16.45815
G1 X114.494 Y91.033 E16.48269
G1 X114.338 Y91.350 E16.50722
G1 X114.142 Y91.643 E16.53176
G1 X113.909 Y91.909 E16.55629
G1 X113.643 Y92.142 E16.58082
G1 X113.350 Y92.338 E16.60536
G1 X113.087 Y92.467 E16.62572
G1 X112.758 Y92.273 F7800.000
G1 X112.819 Y91.978 F7800.000
G1 X112.554 Y92.068 E16.64518 F540.000
G1 X112.279 Y92.123 E16.66464
G1 X111.972 Y92.143 E16.68605
G1 X38.028 Y92.143 E21.82383
G1 X37.721 Y92.123 E21.84524
G1 X37.446 Y92.068 E21.86470
G1 X37.181 Y91.978 E21.88416
G1 X36.929 Y91.854 E21.90362
G1 X36.697 Y91.699 E21.92308
G1 X36.486 Y91.514 E21.94254
G1 X36.301 Y91.303 E21.96200
G1 X36.146 Y91.071 E21.98146
G1 X36.022 Y90.819 E22.00092
G1 X35.932 Y90.554 E22.02038
G1 X35.877 Y90.279 E22.03984
G1 X35.857 Y89.972 E22.06125
G1 X35.857 Y60.028 E24.14181
G1 X35.877 Y59.721 E24.16323
G1 X35.932 Y59.446 E24.18268
G1 X36.022 Y59.181 E24.20214
G1 X36.146 Y58.929 E24.22160
G1 X36.301 Y58.697 E24.24106
G1 X36.486 Y58.486 E24.26052
G1 X36.697 Y58.301 E24.27998
G1 X36.929 Y58.146 E24.29944
G1 X37.181 Y58.022 E24.31890
G1 X37.446 Y57.932 E24.33836
G1 X37.721 Y57.877 E24.35782
G1 X38.028 Y57.857 E24.37924
G1 X111.972 Y57.857 E29.51701
G1 X112.279 Y57.877 E29.53842
G1 X112.554 Y57.932 E29.55788
G1 X112.819 Y58.022 E29.57734
G1 X113.071 Y58.146 E29.59680
G1 X113.303 Y58.301 E29.61626
G1 X113.514 Y58.486 E29.63572
G1 X113.699 Y58.697 E29.65518
G1 X113.854 Y58.929 E29.67464
G1 X113.978 Y59.181 E29.69410
G1 X114.068 Y59.446 E29.71356
G1 X114.123 Y59.721 E29.73302
G1 X114.143 Y60.028 E29.75443
G1 X114.143 Y89.972 E31.83499
G1 X114.123 Y90.279 E31.85640
G1 X114.068 Y90.554 E31.87586
G1 X113.978 Y90.819 E31.89532
G1 X113.854 Y91.071 E31.91478
G1 X113.699 Y91.303 E31.93424
G1 X113.514 Y91.514 E31.95370
G1 X113.303 Y91.699 E31.97316
G1 X113.071 Y91.854 E31.99262
G1 X112.873 Y91.952 E32.00791
G1 F1800.000 E31.00791
G1 Z0.500 F7800.000
G92 E0
G1 X46.035 Y86.000 F7800.000
G1 Z0.300 F7800.000
G1 E1.00000 F1800.000
G1 X42.075 Y89.960 E1.38910 F378.000
G1 X38.115 Y86.000 E1.77820
G1 X42.075 Y82.040 E2.16730
G1 X45.992 Y85.958 E2.55223
G1 X46.317 Y86.283 F7800.000
G1 X46.822 Y86.000 F7800.000
G1 X42.075 Y90.748 E3.01874 F540.000
G1 X37.327 Y86.000 E3.48525
G1 X42.075 Y81.252 E3.95177
G1 X46.780 Y85.958 E4.41411
G1 X42.075 Y78.960 F7800.000
G1 X38.115 Y75.000 E4.80321 F378.000
G1 X42.075 Y71.040 E5.19231
G1 X46.035 Y75.000 E5.58141
G1 X42.117 Y78.917 E5.96634
G1 X41.792 Y79.243 F7800.000
G1 X42.075 Y79.748 F7800.000
G1 X37.327 Y75.000 E6.43285 F540.000
