; generated by Slic3r 1.1.7 on 2014-12-02 at 20:48:24

; perimeters extrusion width = 0.40mm
; infill extrusion width = 0.42mm
; solid infill extrusion width = 0.42mm
; top infill extrusion width = 0.42mm

G21 ; set units to millimeters
M107
M104 S215 ; set temperature
G29; calibrate bed leveling
G0 Z5;
G28 ; home all axes
G1 Z5 F5000 ; lift nozzle
G28 X ; Go to corner x
G28 Y ; Go to corner y

M109 S215 ; wait for temperature to be reached
G90 ; use absolute coordinates
G92 E0
M82 ; use absolute distances for extrusion
G1 F1800.000 E-1.00000
G1 Z0.600 F7800.000
G92 E0
G1 X57.327 Y58.220 F7800.000
G1 Z0.400 F7800.000
G1 E1.00000 F1800.000
G1 X59.083 Y56.720 E1.27422 F1080.000
G1 X61.243 Y55.905 E1.54845
G1 X62.500 Y55.786 E1.69842
G1 X67.500 Y55.786 E2.29224
G1 X69.775 Y56.183 E2.56647
G1 X72.248 Y57.752 E2.91434
G1 X92.248 Y77.752 E6.27352
G1 X93.575 Y79.641 E6.54775
G1 X94.214 Y82.500 E6.89562
G1 X94.214 Y87.500 E7.48944
G1 X93.817 Y89.775 E7.76367
G1 X92.673 Y91.780 E8.03789
G1 X90.917 Y93.280 E8.31212
G1 X88.757 Y94.095 E8.58634
G1 X87.500 Y94.214 E8.73631
G1 X62.500 Y94.214 E11.70544
G1 X60.225 Y93.817 E11.97966
G1 X58.220 Y92.673 E12.25389
G1 X56.720 Y90.917 E12.52811
G1 X55.905 Y88.757 E12.80234
G1 X55.786 Y87.500 E12.95230
G1 X55.786 Y62.500 E15.92143
G1 X56.183 Y60.225 E16.19566
G1 X57.297 Y58.272 E16.46276
G1 F1800.000 E15.46276
G1 Z0.600 F7800.000
G92 E0
G1 X60.000 Y61.465 F7800.000
G1 Z0.400 F7800.000
G1 E1.00000 F1800.000
G1 X61.465 Y60.000 E1.24593 F1080.000
G1 X68.535 Y60.000 E2.08568
G1 X70.000 Y61.465 E2.33161
G1 X70.000 Y64.582 E2.70185
G1 X70.418 Y65.000 E2.77212
G1 X73.535 Y65.000 E3.14236
G1 X75.000 Y66.465 E3.38829
G1 X75.000 Y69.582 E3.75853
G1 X75.418 Y70.000 E3.82880
G1 X78.535 Y70.000 E4.19904
G1 X80.000 Y71.465 E4.44497
G1 X80.000 Y74.582 E4.81521
G1 X80.418 Y75.000 E4.88548
G1 X83.535 Y75.000 E5.25572
G1 X85.000 Y76.465 E5.50165
G1 X85.000 Y79.582 E5.87189
G1 X85.418 Y80.000 E5.94216
G1 X88.535 Y80.000 E6.31240
G1 X90.000 Y81.465 E6.55833
G1 X90.000 Y88.535 E7.39808
G1 X88.535 Y90.000 E7.64401
G1 X76.465 Y90.000 E9.07759
G1 X75.000 Y88.535 E9.32352
G1 X75.000 Y85.418 E9.69376
G1 X74.582 Y85.000 E9.76403
G1 X70.418 Y85.000 E10.25859
G1 X70.000 Y85.418 E10.32885
G1 X70.000 Y88.535 E10.69910
G1 X68.535 Y90.000 E10.94502
G1 X61.465 Y90.000 E11.78478
G1 X60.000 Y88.535 E12.03070
G1 X60.000 Y61.525 E15.23863
G1 X60.715 Y61.760 F7800.000
G1 X61.760 Y60.715 E15.41430 F1080.000
G1 X68.240 Y60.715 E16.18378
G1 X69.285 Y61.760 E16.35945
G1 X69.285 Y65.296 E16.77938
G1 X69.704 Y65.715 E16.84964
G1 X73.240 Y65.715 E17.26957
G1 X74.285 Y66.760 E17.44523
G1 X74.285 Y70.296 E17.86516
G1 X74.704 Y70.715 E17.93543
G1 X78.240 Y70.715 E18.35535
G1 X79.285 Y71.760 E18.53102
G1 X79.285 Y75.296 E18.95095
G1 X79.704 Y75.715 E19.02121
G1 X83.240 Y75.715 E19.44114
G1 X84.285 Y76.760 E19.61680
G1 X84.285 Y80.296 E20.03673
G1 X84.704 Y80.715 E20.10700
G1 X88.240 Y80.715 E20.52693
G1 X89.285 Y81.760 E20.70259
G1 X89.285 Y88.240 E21.47208
G1 X88.240 Y89.285 E21.64774
G1 X76.760 Y89.285 E23.01105
G1 X75.715 Y88.240 E23.18671
G1 X75.715 Y84.704 E23.60664
G1 X75.296 Y84.285 E23.67691
G1 X69.704 Y84.285 E24.34110
G1 X69.285 Y84.704 E24.41137
G1 X69.285 Y88.240 E24.83130
G1 X68.240 Y89.285 E25.00696
G1 X61.760 Y89.285 E25.77645
G1 X60.715 Y88.240 E25.95211
G1 X60.715 Y61.820 E29.08978
G1 X61.429 Y62.056 F7800.000
G1 X62.056 Y61.429 E29.19517 F1080.000
G1 X67.944 Y61.429 E29.89440
G1 X68.571 Y62.056 E29.99979
G1 X68.571 Y66.010 E30.46941
G1 X68.990 Y66.429 E30.53967
G1 X72.944 Y66.429 E31.00929
G1 X73.571 Y67.056 E31.11468
G1 X73.571 Y71.010 E31.58430
G1 X73.990 Y71.429 E31.65456
G1 X77.944 Y71.429 E32.12418
G1 X78.571 Y72.056 E32.22957
G1 X78.571 Y76.010 E32.69919
G1 X78.990 Y76.429 E32.76945
G1 X82.944 Y76.429 E33.23907
G1 X83.571 Y77.056 E33.34446
G1 X83.571 Y81.010 E33.81408
G1 X83.990 Y81.429 E33.88434
G1 X87.944 Y81.429 E34.35396
G1 X88.571 Y82.056 E34.45935
G1 X88.571 Y87.944 E35.15858
G1 X87.944 Y88.571 E35.26397
G1 X77.056 Y88.571 E36.55702
G1 X76.429 Y87.944 E36.66242
G1 X76.429 Y83.990 E37.13203
G1 X76.010 Y83.571 E37.20230
G1 X68.990 Y83.571 E38.03613
G1 X68.571 Y83.990 E38.10639
G1 X68.571 Y87.944 E38.57601
G1 X67.944 Y88.571 E38.68141
G1 X62.056 Y88.571 E39.38063
G1 X61.429 Y87.944 E39.48603
G1 X61.429 Y62.116 E42.55343
G1 F1800.000 E41.55343
G1 Z0.600 F7800.000
G92 E0
G1 X67.648 Y62.143 F7800.000
G1 Z0.400 F7800.000
G1 E1.00000 F1800.000
G1 X67.857 Y62.352 E1.03513 F1080.000
G1 X67.857 Y66.725 E1.55443
G1 X68.275 Y67.143 E1.62470
G1 X72.648 Y67.143 E2.14399
G1 X72.857 Y67.352 E2.17913
G1 X72.857 Y71.725 E2.69843
G1 X73.275 Y72.143 E2.76869
G1 X77.648 Y72.143 E3.28799
G1 X77.857 Y72.352 E3.32312
G1 X77.857 Y76.725 E3.84242
G1 X78.275 Y77.143 E3.91269
G1 X82.648 Y77.143 E4.43198
G1 X82.857 Y77.352 E4.46712
G1 X82.857 Y81.725 E4.98642
G1 X83.275 Y82.143 E5.05668
G1 X87.648 Y82.143 E5.57598
G1 X87.857 Y82.352 E5.61111
G1 X87.857 Y87.648 E6.24007
G1 X87.648 Y87.857 E6.27520
G1 X77.352 Y87.857 E7.49799
G1 X77.143 Y87.648 E7.53312
G1 X77.143 Y83.275 E8.05242
G1 X76.725 Y82.857 E8.12268
G1 X68.275 Y82.857 E9.12615
G1 X67.857 Y83.275 E9.19641
G1 X67.857 Y87.648 E9.71571
G1 X67.648 Y87.857 E9.75084
G1 X62.352 Y87.857 E10.37980
G1 X62.143 Y87.648 E10.41493
G1 X62.143 Y62.352 E13.41920
G1 X62.352 Y62.143 E13.45433
G1 X67.588 Y62.143 E14.07616
G1 F1800.000 E13.07616
G1 Z0.600 F7800.000
G92 E0
G1 X82.100 Y82.900 F7800.000
G1 Z0.400 F7800.000
G1 E1.00000 F1800.000
G1 X87.100 Y82.900 E1.59383 F378.000
G1 X87.100 Y87.100 E2.09264
G1 X77.900 Y87.100 E3.18528
G1 X77.900 Y82.100 E3.77910
G1 X67.100 Y82.100 E5.06177
G1 X67.100 Y87.100 E5.65559
G1 X62.900 Y87.100 E6.15441
G1 X62.900 Y62.900 E9.02853
G1 X67.100 Y62.900 E9.52734
G1 X67.100 Y67.900 E10.12116
G1 X72.100 Y67.900 E10.71499
G1 X72.100 Y72.900 E11.30882
G1 X77.100 Y72.900 E11.90264
G1 X77.100 Y77.900 E12.49647
G1 X82.100 Y77.900 E13.09029
G1 X82.100 Y82.840 E13.67699
G1 X82.100 Y83.300 F7800.000
G1 X81.386 Y83.614 F7800.000
G1 X86.386 Y83.614 E14.27082 F540.000
G1 X86.386 Y86.386 E14.60000
G1 X78.614 Y86.386 E15.52300
G1 X78.614 Y81.386 E16.11683
G1 X66.386 Y81.386 E17.56913
G1 X66.386 Y86.386 E18.16295
G1 X63.614 Y86.386 E18.49213
G1 X63.614 Y63.614 E21.19662
G1 X66.386 Y63.614 E21.52579
G1 X66.386 Y68.614 E22.11962
G1 X71.386 Y68.614 E22.71345
G1 X71.386 Y73.614 E23.30727
G1 X76.386 Y73.614 E23.90110
G1 X76.386 Y78.614 E24.49492
G1 X81.386 Y78.614 E25.08875
G1 X81.386 Y83.554 E25.67545
G1 X81.766 Y84.112 F7800.000
G1 X83.542 Y85.888 E25.97378 F1080.000
G1 X84.563 Y85.888 E26.09498
G1 X82.786 Y84.112 E26.39331
G1 X83.807 Y84.112 E26.51451
G1 X85.583 Y85.888 E26.81284
G1 X85.888 Y85.172 E26.90523
G1 X84.828 Y84.112 E27.08336
G1 X85.848 Y84.112 E27.20456
G1 X85.888 Y84.152 E27.21128
G1 X79.112 Y85.540 F7800.000
G1 X79.460 Y85.888 E27.26974 F1080.000
G1 X80.481 Y85.888 E27.39095
G1 X79.112 Y84.519 E27.62082
G1 X79.112 Y83.499 E27.74202
G1 X81.501 Y85.888 E28.14330
G1 X82.522 Y85.888 E28.26451
G1 X79.112 Y82.478 E28.83720
G1 X77.522 Y80.888 F7800.000
G1 X64.112 Y67.478 E31.08948 F1080.000
G1 X64.112 Y68.499 E31.21068
G1 X76.501 Y80.888 E33.29156
G1 X75.481 Y80.888 E33.41276
G1 X64.112 Y69.519 E35.32222
G1 X64.112 Y70.540 E35.44343
G1 X74.460 Y80.888 E37.18148
G1 X73.439 Y80.888 E37.30269
G1 X64.112 Y71.561 E38.86933
G1 X64.112 Y72.581 E38.99054
G1 X72.419 Y80.888 E40.38578
G1 X71.398 Y80.888 E40.50698
G1 X64.112 Y73.602 E41.73081
G1 X64.112 Y74.622 E41.85201
G1 X70.378 Y80.888 E42.90443
G1 X69.357 Y80.888 E43.02564
G1 X64.112 Y75.643 E43.90665
G1 X64.112 Y76.663 E44.02785
G1 X68.337 Y80.888 E44.73746
G1 X67.316 Y80.888 E44.85866
G1 X64.112 Y77.684 E45.39685
G1 X64.112 Y78.704 E45.51806
G1 X66.296 Y80.888 E45.88484
G1 X65.888 Y81.501 E45.97226
G1 X64.112 Y79.725 E46.27059
G1 X64.112 Y80.745 E46.39180
G1 X65.888 Y82.522 E46.69012
G1 X65.888 Y83.542 E46.81133
G1 X64.112 Y81.766 E47.10966
G1 X64.112 Y82.786 E47.23086
G1 X65.888 Y84.563 E47.52919
G1 X65.888 Y85.583 E47.65039
G1 X64.112 Y83.807 E47.94872
G1 X64.112 Y84.828 E48.06992
G1 X65.172 Y85.888 E48.24805
G1 X64.152 Y85.888 E48.36926
G1 X64.112 Y85.848 E48.37597
G1 X71.766 Y74.112 F7800.000
G1 X75.888 Y78.234 E49.06833 F1080.000
G1 X75.888 Y77.214 E49.18953
G1 X72.786 Y74.112 E49.71048
G1 X73.807 Y74.112 E49.83168
G1 X75.888 Y76.193 E50.18122
G1 X75.888 Y75.172 E50.30242
G1 X74.828 Y74.112 E50.48055
G1 X75.848 Y74.112 E50.60175
G1 X75.888 Y74.152 E50.60847
G1 X76.766 Y79.112 F7800.000
G1 X80.888 Y83.234 E51.30083 F1080.000
G1 X80.888 Y82.214 E51.42203
G1 X77.786 Y79.112 E51.94298
G1 X78.807 Y79.112 E52.06418
G1 X80.888 Y81.193 E52.41372
G1 X80.888 Y80.172 E52.53492
G1 X79.828 Y79.112 E52.71305
G1 X80.848 Y79.112 E52.83425
G1 X80.888 Y79.152 E52.84097
G1 F1800.000 E51.84097
G1 Z0.600 F7800.000
G92 E0
G1 X70.888 Y69.152 F7800.000
G1 Z0.400 F7800.000
G1 E1.00000 F1800.000
G1 X70.848 Y69.112 E1.00672 F1080.000
G1 X69.828 Y69.112 E1.12792
G1 X70.888 Y70.172 E1.30605
G1 X70.888 Y71.193 E1.42725
G1 X68.807 Y69.112 E1.77679
G1 X67.786 Y69.112 E1.89800
G1 X70.888 Y72.214 E2.41894
G1 X70.888 Y73.234 E2.54015
G1 X66.766 Y69.112 E3.23250
G1 X65.888 Y68.234 F7800.000
G1 X64.112 Y66.458 E3.53083 F1080.000
G1 X64.112 Y65.437 E3.65203
G1 X65.888 Y67.214 E3.95036
G1 X65.888 Y66.193 E4.07156
G1 X64.112 Y64.417 E4.36989
G1 X64.828 Y64.112 E4.46228
G1 X65.888 Y65.172 E4.64041
G1 X65.888 Y64.152 E4.76161
G1 X65.848 Y64.112 E4.76833
M106 S255
M104 S210 ; set temperature
G1 F1800.000 E3.76833
G1 Z0.900 F7800.000
G92 E0
G1 X81.900 Y83.100 F7800.000
G1 Z0.700 F7800.000
G1 E1.00000 F1800.000
G1 X86.900 Y83.100 E1.24945 F1120.820
G1 X86.900 Y86.900 E1.43903
G1 X78.100 Y86.900 E1.87807
G1 X78.100 Y81.900 E2.12752
G1 X66.900 Y81.900 E2.68629
G1 X66.900 Y86.900 E2.93574
G1 X63.100 Y86.900 E3.12532
G1 X63.100 Y63.100 E4.31271
G1 X66.900 Y63.100 E4.50229
G1 X66.900 Y68.100 E4.75174
G1 X71.900 Y68.100 E5.00119
G1 X71.900 Y73.100 E5.25065
G1 X76.900 Y73.100 E5.50010
G1 X76.900 Y78.100 E5.74955
G1 X81.900 Y78.100 E5.99900
G1 X81.900 Y83.040 E6.24546
G1 X82.300 Y82.700 F7800.000
G1 X87.300 Y82.700 E6.49491 F784.574
G1 X87.300 Y87.300 E6.72440
G1 X77.700 Y87.300 E7.20335
G1 X77.700 Y82.300 E7.45280
G1 X67.300 Y82.300 E7.97166
G1 X67.300 Y87.300 E8.22111
G1 X62.700 Y87.300 E8.45060
G1 X62.700 Y62.700 E9.67790
G1 X67.300 Y62.700 E9.90740
G1 X67.300 Y67.700 E10.15685
G1 X72.300 Y67.700 E10.40630
G1 X72.300 Y72.700 E10.65575
G1 X77.300 Y72.700 E10.90520
G1 X77.300 Y77.700 E11.15465
G1 X82.300 Y77.700 E11.40410
G1 X82.300 Y82.640 E11.65056
G1 X82.300 Y83.100 F7800.000
G1 X86.626 Y86.586 F7800.000
G1 X86.586 Y86.626 E11.65352 F2241.639
G1 X85.991 Y86.626 E11.68461
G1 X86.626 Y85.991 E11.73154
G1 X86.626 Y85.395 E11.76264
G1 X85.395 Y86.626 E11.85354
G1 X84.800 Y86.626 E11.88463
G1 X86.626 Y84.800 E12.01951
G1 X86.626 Y84.205 E12.05061
G1 X84.205 Y86.626 E12.22946
G1 X83.610 Y86.626 E12.26055
G1 X86.626 Y83.610 E12.48338
G1 X86.266 Y83.374 E12.50584
G1 X83.015 Y86.626 E12.74608
G1 X82.420 Y86.626 E12.77717
G1 X85.671 Y83.374 E13.01742
G1 X85.076 Y83.374 E13.04851
G1 X81.824 Y86.626 E13.28875
G1 X81.229 Y86.626 E13.31985
G1 X84.481 Y83.374 E13.56009
G1 X83.886 Y83.374 E13.59118
G1 X80.634 Y86.626 E13.83142
G1 X80.039 Y86.626 E13.86252
G1 X83.290 Y83.374 E14.10276
G1 X82.695 Y83.374 E14.13386
G1 X79.444 Y86.626 E14.37410
G1 X78.849 Y86.626 E14.40519
G1 X82.100 Y83.374 E14.64543
G1 X81.626 Y83.253 E14.67101
G1 X78.374 Y86.505 E14.91125
G1 X78.374 Y85.910 E14.94234
G1 X81.626 Y82.658 E15.18259
G1 X81.626 Y82.063 E15.21368
G1 X78.374 Y85.315 E15.45392
G1 X78.374 Y84.719 E15.48502
G1 X81.626 Y81.468 E15.72526
G1 X81.626 Y80.873 E15.75635
G1 X78.374 Y84.124 E15.99659
G1 X78.374 Y83.529 E16.02769
G1 X81.626 Y80.278 E16.26793
G1 X81.626 Y79.682 E16.29903
G1 X78.374 Y82.934 E16.53927
G1 X78.374 Y82.339 E16.57036
G1 X81.626 Y79.087 E16.81060
G1 X81.626 Y78.492 E16.84170
G1 X78.374 Y81.744 E17.08194
G1 X77.897 Y81.626 E17.10763
G1 X81.148 Y78.374 E17.34787
G1 X80.553 Y78.374 E17.37896
G1 X77.302 Y81.626 E17.61920
G1 X76.707 Y81.626 E17.65030
G1 X79.958 Y78.374 E17.89054
G1 X79.363 Y78.374 E17.92164
G1 X76.111 Y81.626 E18.16188
G1 X75.516 Y81.626 E18.19297
G1 X78.768 Y78.374 E18.43321
G1 X78.173 Y78.374 E18.46431
G1 X74.921 Y81.626 E18.70455
G1 X74.326 Y81.626 E18.73564
G1 X77.577 Y78.374 E18.97589
G1 X76.982 Y78.374 E19.00698
G1 X73.731 Y81.626 E19.24722
G1 X73.136 Y81.626 E19.27832
G1 X76.626 Y78.136 E19.53619
G1 X76.626 Y77.540 E19.56729
G1 X72.540 Y81.626 E19.86914
G1 X71.945 Y81.626 E19.90023
G1 X76.626 Y76.945 E20.24605
G1 X76.626 Y76.350 E20.27715
G1 X71.350 Y81.626 E20.66695
G1 X70.755 Y81.626 E20.69804
G1 X76.626 Y75.755 E21.13181
G1 X76.626 Y75.160 E21.16291
G1 X70.160 Y81.626 E21.64065
G1 X69.565 Y81.626 E21.67175
G1 X76.626 Y74.565 E22.19347
G1 X76.626 Y73.969 E22.22456
G1 X68.969 Y81.626 E22.79026
G1 X68.374 Y81.626 E22.82135
G1 X76.606 Y73.394 E23.42955
G1 X76.031 Y73.374 E23.45961
G1 X67.779 Y81.626 E24.06928
G1 X67.184 Y81.626 E24.10038
G1 X75.435 Y73.374 E24.71005
G1 X74.840 Y73.374 E24.74114
G1 X63.374 Y84.840 E25.58831
G1 X63.374 Y85.435 E25.61941
G1 X66.626 Y82.184 E25.85965
G1 X66.626 Y82.779 E25.89074
G1 X63.374 Y86.031 E26.13099
G1 X63.394 Y86.606 E26.16105
G1 X66.626 Y83.374 E26.39982
G1 X66.626 Y83.969 E26.43091
G1 X63.969 Y86.626 E26.62718
G1 X64.565 Y86.626 E26.65827
G1 X66.626 Y84.565 E26.81057
G1 X66.626 Y85.160 E26.84166
G1 X65.160 Y86.626 E26.94998
G1 X65.755 Y86.626 E26.98108
G1 X66.626 Y85.755 E27.04542
G1 X66.626 Y86.350 E27.07652
G1 X66.350 Y86.626 E27.09689
G1 X63.374 Y84.245 F7800.000
G1 X74.245 Y73.374 E27.90009 F2241.639
G1 X73.650 Y73.374 E27.93118
G1 X63.374 Y83.650 E28.69041
G1 X63.374 Y83.055 E28.72150
G1 X73.055 Y73.374 E29.43675
G1 X72.460 Y73.374 E29.46785
G1 X63.374 Y82.460 E30.13912
G1 X63.374 Y81.864 E30.17022
G1 X71.864 Y73.374 E30.79752
G1 X71.626 Y73.018 E30.81993
G1 X63.374 Y81.269 E31.42960
G1 X63.374 Y80.674 E31.46070
G1 X71.626 Y72.423 E32.07037
G1 X71.626 Y71.827 E32.10146
G1 X63.374 Y80.079 E32.71113
G1 X63.374 Y79.484 E32.74222
G1 X71.626 Y71.232 E33.35189
G1 X71.626 Y70.637 E33.38299
G1 X63.374 Y78.889 E33.99266
G1 X63.374 Y78.293 E34.02375
G1 X71.626 Y70.042 E34.63342
G1 X71.626 Y69.447 E34.66451
G1 X63.374 Y77.698 E35.27418
G1 X63.374 Y77.103 E35.30528
G1 X71.626 Y68.852 E35.91495
G1 X71.508 Y68.374 E35.94063
G1 X63.374 Y76.508 E36.54159
G1 X63.374 Y75.913 E36.57269
G1 X70.913 Y68.374 E37.12968
G1 X70.318 Y68.374 E37.16077
G1 X63.374 Y75.318 E37.67378
G1 X63.374 Y74.722 E37.70488
G1 X69.722 Y68.374 E38.17392
G1 X69.127 Y68.374 E38.20501
G1 X63.374 Y74.127 E38.63008
G1 X63.374 Y73.532 E38.66117
G1 X68.532 Y68.374 E39.04226
G1 X67.937 Y68.374 E39.07335
G1 X63.374 Y72.937 E39.41047
G1 X63.374 Y72.342 E39.44157
G1 X67.342 Y68.374 E39.73471
G1 X66.747 Y68.374 E39.76580
G1 X63.374 Y71.747 E40.01497
G1 X63.374 Y71.151 E40.04606
G1 X66.626 Y67.900 E40.28631
G1 X66.626 Y67.305 E40.31740
G1 X63.374 Y70.556 E40.55764
G1 X63.374 Y69.961 E40.58874
G1 X66.626 Y66.710 E40.82898
G1 X66.626 Y66.114 E40.86007
G1 X63.374 Y69.366 E41.10031
G1 X63.374 Y68.771 E41.13141
G1 X66.626 Y65.519 E41.37165
G1 X66.626 Y64.924 E41.40275
G1 X63.374 Y68.176 E41.64299
G1 X63.374 Y67.580 E41.67408
G1 X66.626 Y64.329 E41.91432
G1 X66.626 Y63.734 E41.94542
G1 X63.374 Y66.985 E42.18566
G1 X63.374 Y66.390 E42.21675
G1 X66.390 Y63.374 E42.43958
G1 X65.795 Y63.374 E42.47068
G1 X63.374 Y65.795 E42.64953
G1 X63.374 Y65.200 E42.68062
G1 X65.200 Y63.374 E42.81550
G1 X64.605 Y63.374 E42.84659
G1 X63.374 Y64.605 E42.93750
G1 X63.374 Y64.009 E42.96859
G1 X64.009 Y63.374 E43.01552
G1 X63.414 Y63.374 E43.04662
G1 X63.374 Y63.414 E43.04957
G1 F1800.000 E42.04957
G1 Z1.200 F7800.000
G92 E0
G1 X81.900 Y83.100 F7800.000
G1 Z1.000 F7800.000
G1 E1.00000 F1800.000
G1 X86.900 Y83.100 E1.24945 F744.477
G1 X86.900 Y86.900 E1.43903
G1 X78.100 Y86.900 E1.87807
G1 X78.100 Y81.900 E2.12752
G1 X66.900 Y81.900 E2.68629
G1 X66.900 Y86.900 E2.93574
G1 X63.100 Y86.900 E3.12532
G1 X63.100 Y63.100 E4.31271
G1 X66.900 Y63.100 E4.50229
G1 X66.900 Y68.100 E4.75174
