; generated by Slic3r 1.1.7 on 2014-11-30 at 00:42:28

; perimeters extrusion width = 0.40mm
; infill extrusion width = 0.42mm
; solid infill extrusion width = 0.42mm
; top infill extrusion width = 0.42mm

G21 ; set units to millimeters
M107
M104 S215 ; set temperature
G28 ; home all axes
G1 Z5 F5000 ; lift nozzle

M109 S215 ; wait for temperature to be reached
G90 ; use absolute coordinates
G92 E0
M82 ; use absolute distances for extrusion
G1 F1800.000 E-1.00000
G92 E0
G1 Z0.400 F7800.000
G1 X61.354 Y61.669 F7800.000
G1 E1.00000 F1800.000
G1 X76.549 Y46.552 E3.54567 F1080.000
G1 X76.794 Y46.330 E3.58493
G1 X77.259 Y45.961 E3.65540
G1 X81.332 Y43.008 E4.25291
G1 X81.897 Y42.663 E4.33147
G1 X82.191 Y42.510 E4.37085
G1 X83.591 Y41.915 E4.55152
G1 X84.674 Y41.540 E4.68769
G1 X85.359 Y41.339 E4.77245
G1 X85.778 Y41.229 E4.82388
G1 X86.854 Y40.991 E4.95481
G1 X87.512 Y40.906 E5.03355
G1 X88.104 Y40.881 E5.10396
G1 X93.135 Y40.885 E5.70139
G1 X93.823 Y40.942 E5.78347 F1080.000
G1 X94.490 Y41.061 E5.86390
G1 X95.605 Y41.329 E6.00008
G1 X96.702 Y41.662 E6.13625
G1 X97.778 Y42.059 E6.27243
G1 X98.788 Y42.500 E6.40339
G1 X99.083 Y42.652 E6.44282
G1 X99.649 Y42.995 E6.52136
G1 X103.933 Y46.106 E7.15015
G1 X104.450 Y46.551 E7.23124
G1 X104.925 Y47.044 E7.31246
G1 X105.669 Y47.916 E7.44864
G1 X106.105 Y48.481 E7.53340
G1 X106.763 Y49.420 E7.66958
G1 X106.997 Y49.784 E7.72100
G1 X107.556 Y50.734 E7.85188
G1 X107.841 Y51.334 E7.93077
G1 X108.047 Y51.889 E8.00108
G1 X109.598 Y56.675 E8.59855
G1 X109.752 Y57.320 E8.67730
G1 X109.850 Y58.018 E8.76102
G1 X109.939 Y59.161 E8.89721
G1 X109.960 Y59.874 E8.98196
G1 X109.961 Y60.307 E9.03339
G1 X109.916 Y61.453 E9.16957
G1 X109.809 Y62.550 E9.30045
G1 X109.688 Y63.201 E9.37912
G1 X109.528 Y63.773 E9.44965
G1 X107.969 Y68.557 E10.04723
G1 X107.705 Y69.189 E10.12850
G1 X107.384 Y69.791 E10.20959
G1 X106.784 Y70.768 E10.34577
G1 X106.382 Y71.358 E10.43053
G1 X106.128 Y71.709 E10.48195
G1 X105.418 Y72.609 E10.61813
G1 X104.691 Y73.430 E10.74833
G1 X104.451 Y73.668 E10.78857
G1 X71.074 Y104.255 E16.16536
G1 X70.060 Y105.064 E16.31933
G1 X68.933 Y105.750 E16.47611
G1 X65.000 Y107.644 E16.99452
G1 X63.760 Y108.097 E17.15130
G1 X62.496 Y108.386 E17.30528
G1 X61.183 Y108.516 E17.46205
G1 X56.817 Y108.516 E17.98046
G1 X55.504 Y108.386 E18.13723
G1 X55.103 Y108.303 E18.18579
G1 X54.240 Y108.097 E18.29123
G1 X53.000 Y107.644 E18.44801
G1 X49.067 Y105.750 E18.96642
G1 X47.940 Y105.064 E19.12319
G1 X47.615 Y104.816 E19.17174
G1 X46.926 Y104.255 E19.27718
G1 X46.006 Y103.309 E19.43397
G1 X43.284 Y99.896 E19.95238
G1 X42.567 Y98.788 E20.10915
G1 X42.004 Y97.620 E20.26313
G1 X41.585 Y96.368 E20.41991
G1 X40.614 Y92.113 E20.93832
G1 X40.448 Y90.803 E21.09509
G1 X40.440 Y90.395 E21.14365
G1 X40.448 Y89.507 E21.24909
G1 X40.614 Y88.197 E21.40587
G1 X41.585 Y83.942 E21.92428
G1 X42.004 Y82.690 E22.08105
G1 X42.567 Y81.522 E22.23503
G1 X43.284 Y80.414 E22.39181
G1 X46.519 Y76.428 E23.00151
G1 X61.311 Y61.711 E25.47959
G1 F1800.000 E24.47959
G92 E0
G1 X73.848 Y61.034 F7800.000
G1 E1.00000 F1800.000
G1 X73.822 Y60.052 E1.11670 F1080.000
G1 X73.854 Y59.070 E1.23339
G1 X73.959 Y57.992 E1.36196
G1 X74.093 Y57.399 E1.43424
G1 X74.307 Y56.830 E1.50640
G1 X74.598 Y56.293 E1.57890
G1 X74.959 Y55.804 E1.65114
G1 X75.367 Y55.381 E1.72089
G1 X75.477 Y55.040 E1.76348
G1 X75.417 Y54.664 E1.80873
G1 X75.389 Y54.349 E1.84622
G1 X75.400 Y53.740 E1.91865
G1 X75.471 Y53.247 E1.97774
G1 X75.604 Y52.745 E2.03945
G1 X75.784 Y52.284 E2.09826
G1 X75.980 Y51.905 E2.14881
G1 X76.485 Y51.069 E2.26480
G1 X77.041 Y50.260 E2.38149
G1 X77.571 Y49.574 E2.48444
G1 X78.210 Y48.835 E2.60041
G1 X78.509 Y48.533 E2.65090
G1 X78.893 Y48.218 E2.70989
G1 X79.328 Y47.938 E2.77135
G1 X79.774 Y47.718 E2.83041
G1 X80.351 Y47.519 E2.90288
G1 X80.658 Y47.448 E2.94026
G1 X81.036 Y47.389 E2.98578
G1 X81.327 Y47.178 E3.02839
G1 X81.499 Y46.837 E3.07376
G1 X81.661 Y46.567 E3.11121
G1 X82.028 Y46.082 E3.18340
G1 X82.457 Y45.650 E3.25571
G1 X82.944 Y45.282 E3.32819
G1 X83.482 Y44.980 E3.40146
G1 X84.475 Y44.558 E3.52963
G1 X87.053 Y43.635 E3.85487
G1 X87.094 Y43.664 E3.86070
G1 X87.353 Y43.728 E3.89249 F1080.000
G1 X87.693 Y43.687 E3.93307
G1 X88.099 Y43.667 E3.98140
G1 X88.505 Y43.684 E4.02969
G1 X88.907 Y43.739 E4.07781
G1 X89.303 Y43.830 E4.12612
G1 X89.606 Y43.927 E4.16392
G1 X89.980 Y44.081 E4.21192
G1 X90.321 Y44.256 E4.25738
G1 X90.679 Y44.256 E4.29998
G1 X91.018 Y44.082 E4.34524
G1 X91.395 Y43.927 E4.39358
G1 X91.783 Y43.807 E4.44178
G1 X92.094 Y43.739 E4.47967
G1 X92.696 Y43.671 E4.55160
G1 X93.306 Y43.686 E4.62402
G1 X93.816 Y43.765 E4.68537
G1 X94.767 Y43.987 E4.80130
G1 X95.709 Y44.266 E4.91799
G1 X96.633 Y44.600 E5.03469
G1 X97.706 Y45.074 E5.17400
G1 X98.148 Y45.344 E5.23554
G1 X98.473 Y45.591 E5.28397
G1 X98.834 Y45.930 E5.34288
G1 X99.170 Y46.326 E5.40448
G1 X99.444 Y46.738 E5.46330
G1 X99.673 Y47.178 E5.52222
G1 X99.964 Y47.389 E5.56485
G1 X100.341 Y47.447 E5.61021
G1 X100.646 Y47.518 E5.64735
G1 X101.227 Y47.719 E5.72036
G1 X101.591 Y47.893 E5.76825
G1 X101.845 Y48.041 E5.80320
G1 X102.338 Y48.399 E5.87561
G1 X102.721 Y48.760 E5.93808
G1 X103.429 Y49.574 E6.06615
G1 X103.959 Y50.260 E6.16912
G1 X104.515 Y51.070 E6.28581
G1 X105.020 Y51.905 E6.40173
G1 X105.167 Y52.181 E6.43887
G1 X105.367 Y52.660 E6.50050
G1 X105.484 Y53.051 E6.54898
G1 X105.577 Y53.537 E6.60775
G1 X105.616 Y54.056 E6.66962
G1 X105.596 Y54.551 E6.72847
G1 X105.523 Y55.040 E6.78717
G1 X105.633 Y55.381 E6.82975
G1 X105.904 Y55.650 E6.87509
G1 X106.112 Y55.889 E6.91268
G1 X106.461 Y56.389 E6.98502
G1 X106.738 Y56.932 E7.05753
G1 X106.938 Y57.506 E7.12963
G1 X107.058 Y58.110 E7.20285
G1 X107.146 Y59.070 E7.31725
G1 X107.178 Y60.052 E7.43396
G1 X107.152 Y61.034 E7.55065
G1 X107.070 Y62.007 E7.66659
G1 X107.026 Y62.316 E7.70365
G1 X106.919 Y62.779 E7.76008
G1 X106.771 Y63.208 E7.81404
G1 X106.561 Y63.654 E7.87261
G1 X106.288 Y64.096 E7.93426
G1 X105.980 Y64.486 E7.99328
G1 X105.633 Y64.838 E8.05196
G1 X105.523 Y65.179 E8.09457
G1 X105.596 Y65.671 E8.15361
G1 X105.616 Y66.077 E8.20190
G1 X105.591 Y66.571 E8.26067
G1 X105.526 Y66.985 E8.31044
G1 X105.529 Y67.189 E8.33465
G1 X105.439 Y67.337 E8.35525
G1 X105.216 Y67.936 E8.43109
G1 X105.020 Y68.315 E8.48174
G1 X104.515 Y69.150 E8.59764
G1 X103.959 Y69.959 E8.71434
G1 X103.429 Y70.646 E8.81730
G1 X102.791 Y71.383 E8.93311
G1 X102.488 Y71.689 E8.98419
G1 X102.179 Y71.947 E9.03207
G1 X101.669 Y72.283 E9.10457
G1 X101.119 Y72.545 E9.17692
G1 X100.537 Y72.729 E9.24937
G1 X99.964 Y72.830 E9.31851
G1 X99.674 Y73.041 E9.36115
G1 X99.399 Y73.557 E9.43059
G1 X99.044 Y74.053 E9.50306
G1 X98.723 Y74.401 E9.55926
G1 X98.384 Y74.701 E9.61304
G1 X97.979 Y74.988 E9.67195
G1 X97.536 Y75.231 E9.73195
G1 X96.858 Y75.522 E9.81958
G1 X96.365 Y75.685 E9.88125
G1 X95.707 Y75.836 E9.96136
G1 X94.916 Y75.924 E10.05589
G1 X94.121 Y75.914 E10.15043
G1 X93.332 Y75.806 E10.24490
G1 X92.629 Y75.621 E10.33130
G1 X92.077 Y75.416 E10.40115
G1 X91.366 Y75.059 E10.49567
G1 X90.725 Y74.636 E10.58690
G1 X90.275 Y74.636 E10.64037
G1 X89.870 Y74.915 E10.69879
G1 X89.528 Y75.120 E10.74608
G1 X88.810 Y75.463 E10.84060
G1 X88.055 Y75.715 E10.93512
G1 X87.275 Y75.872 E11.02965
G1 X86.602 Y75.929 E11.10982
G1 X85.808 Y75.905 E11.20424
G1 X85.292 Y75.836 E11.26599
G1 X83.748 Y75.531 E11.45296
G1 X83.575 Y75.321 E11.48530
G1 X83.455 Y75.226 E11.50350
G1 X83.117 Y75.046 E11.54895
G1 X82.777 Y74.823 E11.59718
G1 X82.459 Y74.570 E11.64541
G1 X82.166 Y74.290 E11.69368
G1 X81.956 Y74.053 E11.73130
G1 X81.713 Y73.729 E11.77937
G1 X81.500 Y73.384 E11.82756
G1 X81.326 Y73.041 E11.87313
G1 X81.036 Y72.830 E11.91573
G1 X80.659 Y72.772 E11.96112
G1 X80.351 Y72.700 E11.99862
G1 X79.965 Y72.577 E12.04680
G1 X79.691 Y72.465 E12.08186
G1 X79.154 Y72.178 E12.15423
G1 X78.662 Y71.820 E12.22643
G1 X78.279 Y71.459 E12.28897
G1 X77.645 Y70.735 E12.40330
G1 X76.973 Y69.866 E12.53374
G1 X76.485 Y69.150 E12.63669
G1 X75.980 Y68.314 E12.75265
G1 X75.785 Y67.938 E12.80298
G1 X75.633 Y67.561 E12.85120
G1 X75.472 Y66.973 E12.92365
G1 X75.392 Y66.369 E12.99594
G1 X75.396 Y65.760 E13.06835
G1 X75.477 Y65.179 E13.13796
G1 X75.367 Y64.838 E13.18056
G1 X75.020 Y64.486 E13.23918
G1 X74.712 Y64.096 E13.29825
G1 X74.438 Y63.653 E13.36015
G1 X74.228 Y63.205 E13.41887
G1 X74.063 Y62.714 E13.48040
G1 X73.974 Y62.316 E13.52890
G1 X73.851 Y61.094 E13.67472
G1 X74.561 Y61.003 F7800.000
G1 X74.536 Y60.157 E13.77518 F1080.000
G1 X74.561 Y59.217 E13.88687
G1 X74.641 Y58.284 E13.99804
G1 X74.710 Y57.860 E14.04904
G1 X74.891 Y57.280 E14.12123
G1 X75.151 Y56.758 E14.19054
G1 X75.340 Y56.474 E14.23104
G1 X75.553 Y56.209 E14.27144
G1 X75.791 Y55.964 E14.31196
G1 X76.144 Y55.661 E14.36722
G1 X76.271 Y55.270 E14.41604
G1 X76.135 Y54.651 E14.49122
G1 X76.098 Y54.067 E14.56082
G1 X76.157 Y53.462 E14.63297
G1 X76.233 Y53.132 E14.67321
G1 X76.340 Y52.806 E14.71389
G1 X76.597 Y52.264 E14.78512
G1 X77.080 Y51.463 E14.89625
G1 X77.557 Y50.765 E14.99669
G1 X78.190 Y49.946 E15.11964
G1 X78.742 Y49.312 E15.21950
G1 X78.993 Y49.058 E15.26180
G1 X79.254 Y48.840 E15.30227
G1 X79.533 Y48.647 E15.34254
G1 X80.053 Y48.376 E15.41212
G1 X80.371 Y48.257 E15.45250
G1 X80.701 Y48.168 E15.49306
G1 X81.037 Y48.110 E15.53353
G1 X81.500 Y48.072 E15.58880
G1 X81.833 Y47.830 E15.63764
G1 X81.972 Y47.489 E15.68133
G1 X82.123 Y47.184 E15.72179
G1 X82.459 Y46.680 E15.79374
G1 X82.682 Y46.423 E15.83415
G1 X82.928 Y46.188 E15.87462
G1 X83.196 Y45.975 E15.91526
G1 X83.480 Y45.789 E15.95560
G1 X83.864 Y45.591 E16.00688
G1 X84.726 Y45.227 E16.11796
G1 X86.954 Y44.429 E16.39912
G1 X87.223 Y44.486 E16.43167
G1 X87.684 Y44.406 E16.48726
G1 X88.100 Y44.381 E16.53676
G1 X88.441 Y44.396 E16.57726
G1 X88.777 Y44.441 E16.61763
G1 X89.110 Y44.518 E16.65814
G1 X89.523 Y44.660 E16.71004
G1 X89.898 Y44.840 E16.75944
G1 X90.294 Y45.081 E16.81452
G1 X90.706 Y45.081 E16.86337
G1 X91.252 Y44.762 E16.93855
G1 X91.725 Y44.568 E16.99922
G1 X92.295 Y44.429 E17.06893
G1 X92.897 Y44.381 E17.14067
G1 X93.314 Y44.405 E17.19022 F1080.000
G1 X93.665 Y44.463 E17.23256
G1 X94.576 Y44.675 E17.34363
G1 X95.388 Y44.913 E17.44408
G1 X96.274 Y45.227 E17.55578
G1 X97.136 Y45.591 E17.66686
G1 X97.454 Y45.750 E17.70905
G1 X97.803 Y45.974 E17.75840
G1 X98.265 Y46.369 E17.83054
G1 X98.643 Y46.815 E17.89993
G1 X98.912 Y47.249 E17.96067
G1 X99.167 Y47.830 E18.03599
G1 X99.500 Y48.072 E18.08488
G1 X99.962 Y48.110 E18.13992
G1 X100.297 Y48.168 E18.18032
G1 X100.697 Y48.280 E18.22967
G1 X101.015 Y48.406 E18.27031
G1 X101.318 Y48.558 E18.31063
G1 X101.608 Y48.740 E18.35116
G1 X101.879 Y48.946 E18.39166
G1 X102.130 Y49.177 E18.43220
G1 X102.810 Y49.946 E18.55403
G1 X103.443 Y50.765 E18.67697
G1 X103.920 Y51.463 E18.77743
G1 X104.403 Y52.264 E18.88849
G1 X104.567 Y52.582 E18.93092
G1 X104.693 Y52.897 E18.97129
G1 X104.843 Y53.462 E19.04068
G1 X104.902 Y54.068 E19.11304
G1 X104.865 Y54.651 E19.18235
G1 X104.729 Y55.270 E19.25769
G1 X104.857 Y55.661 E19.30651
G1 X105.209 Y55.964 E19.36167
G1 X105.447 Y56.209 E19.40221
G1 X105.703 Y56.533 E19.45130
G1 X105.886 Y56.821 E19.49184
G1 X106.145 Y57.372 E19.56419
G1 X106.249 Y57.694 E19.60436
G1 X106.323 Y58.028 E19.64493
G1 X106.433 Y59.122 E19.77558
G1 X106.464 Y60.062 E19.88728
G1 X106.433 Y61.097 E20.01022
G1 X106.335 Y62.119 E20.13212
G1 X106.267 Y62.454 E20.17278
G1 X106.169 Y62.782 E20.21337
G1 X106.041 Y63.097 E20.25379
G1 X105.886 Y63.399 E20.29406
G1 X105.660 Y63.746 E20.34322
G1 X105.446 Y64.012 E20.38380
G1 X105.209 Y64.256 E20.42423
G1 X104.857 Y64.558 E20.47933
G1 X104.729 Y64.949 E20.52820
G1 X104.818 Y65.308 E20.57209
G1 X104.874 Y65.642 E20.61231
G1 X104.900 Y65.983 E20.65291
G1 X104.895 Y66.323 E20.69334
G1 X104.805 Y66.965 E20.77030
G1 X104.660 Y67.414 E20.82641
G1 X104.525 Y67.726 E20.86679
G1 X103.971 Y68.676 E20.99741
G1 X103.387 Y69.531 E21.12034
G1 X102.810 Y70.274 E21.23204
G1 X102.258 Y70.907 E21.33178
G1 X102.005 Y71.163 E21.37457
G1 X101.745 Y71.380 E21.41473
G1 X101.464 Y71.574 E21.45535
G1 X101.167 Y71.742 E21.49582
G1 X100.856 Y71.881 E21.53627
G1 X100.532 Y71.991 E21.57692
G1 X100.201 Y72.072 E21.61742
G1 X99.864 Y72.121 E21.65788
G1 X99.500 Y72.147 E21.70114
G1 X99.167 Y72.389 E21.75005
G1 X98.956 Y72.884 E21.81396
G1 X98.698 Y73.325 E21.87471
G1 X98.342 Y73.770 E21.94239
G1 X97.939 Y74.143 E22.00760
G1 X97.455 Y74.468 E22.07690
G1 X96.885 Y74.741 E22.15185
G1 X96.268 Y74.969 E22.22997
G1 X95.830 Y75.084 E22.28379
G1 X95.131 Y75.193 E22.36782
G1 X94.523 Y75.217 E22.44005
G1 X93.818 Y75.164 E22.52403
G1 X93.125 Y75.024 E22.60807
G1 X92.454 Y74.799 E22.69209
G1 X91.816 Y74.494 E22.77611
G1 X91.220 Y74.111 E22.86017
G1 X90.750 Y73.740 E22.93133
G1 X90.250 Y73.740 E22.99063
G1 X89.571 Y74.257 E23.09200
G1 X89.271 Y74.444 E23.13405
G1 X88.870 Y74.656 E23.18788
G1 X88.546 Y74.799 E23.22991
G1 X88.026 Y74.980 E23.29531
G1 X87.628 Y75.084 E23.34418
G1 X87.280 Y75.150 E23.38620
G1 X86.576 Y75.215 E23.47027
G1 X85.869 Y75.193 E23.55420
G1 X85.420 Y75.133 E23.60807
G1 X84.137 Y74.880 E23.76334
G1 X84.024 Y74.743 E23.78439
G1 X83.899 Y74.645 E23.80332
G1 X83.481 Y74.431 E23.85901
G1 X83.119 Y74.188 E23.91085
G1 X82.857 Y73.968 E23.95144
G1 X82.617 Y73.726 E23.99194
G1 X82.357 Y73.405 E24.04102
G1 X82.171 Y73.119 E24.08153
G1 X82.012 Y72.818 E24.12202
G1 X81.833 Y72.389 E24.17722
G1 X81.500 Y72.147 E24.22606
G1 X81.133 Y72.120 E24.26979
G1 X80.796 Y72.071 E24.31022
G1 X80.212 Y71.907 E24.38224
G1 X79.832 Y71.741 E24.43155
G1 X79.392 Y71.480 E24.49222
G1 X79.048 Y71.210 E24.54423
G1 X78.742 Y70.907 E24.59529
G1 X78.130 Y70.201 E24.70634
G1 X77.557 Y69.455 E24.81804
G1 X77.080 Y68.756 E24.91849
G1 X76.597 Y67.955 E25.02960
G1 X76.434 Y67.640 E25.07176
G1 X76.307 Y67.324 E25.11220
G1 X76.157 Y66.758 E25.18173
G1 X76.098 Y66.153 E25.25388
G1 X76.135 Y65.570 E25.32328
G1 X76.271 Y64.950 E25.39870
G1 X76.144 Y64.558 E25.44758
G1 X75.738 Y64.205 E25.51152
G1 X75.398 Y63.823 E25.57214
G1 X75.151 Y63.463 E25.62403
G1 X74.919 Y63.008 E25.68470
G1 X74.778 Y62.617 E25.73406
G1 X74.677 Y62.191 E25.78602
G1 X74.565 Y61.062 E25.92075
G1 X75.275 Y60.971 F7800.000
G1 X75.250 Y60.073 E26.02745 F1080.000
G1 X75.279 Y59.175 E26.13415
G1 X75.371 Y58.209 E26.24939
G1 X75.425 Y57.941 E26.28184
G1 X75.505 Y57.676 E26.31476
G1 X75.632 Y57.368 E26.35425
G1 X75.763 Y57.126 E26.38694
G1 X75.915 Y56.897 E26.41965
G1 X76.087 Y56.683 E26.45228
G1 X76.279 Y56.485 E26.48500
G1 X76.488 Y56.306 E26.51771
G1 X76.968 Y55.987 E26.58620
G1 X77.129 Y55.492 E26.64799
G1 X76.913 Y54.896 E26.72327
G1 X76.854 Y54.627 E26.75598
G1 X76.816 Y54.275 E26.79803
G1 X76.815 Y54.000 E26.83071
G1 X76.847 Y53.668 E26.87031
G1 X76.921 Y53.321 E26.91239
G1 X77.008 Y53.059 E26.94524
G1 X77.182 Y52.681 E26.99463
G1 X77.637 Y51.919 E27.09999
G1 X78.141 Y51.176 E27.20668
G1 X78.735 Y50.407 E27.32213
G1 X79.275 Y49.788 E27.41963
G1 X79.520 Y49.545 E27.46055
G1 X79.799 Y49.326 E27.50274
G1 X80.083 Y49.153 E27.54221
G1 X80.331 Y49.034 E27.57490
G1 X80.665 Y48.914 E27.61710
G1 X80.990 Y48.839 E27.65662
G1 X81.263 Y48.804 E27.68932
G1 X81.537 Y48.794 E27.72194
G1 X81.976 Y48.820 E27.77419
G1 X82.397 Y48.515 E27.83596
G1 X82.572 Y47.906 E27.91122
G1 X82.683 Y47.654 E27.94386
G1 X82.816 Y47.413 E27.97655
G1 X82.971 Y47.185 E28.00927
G1 X83.200 Y46.915 E28.05133
G1 X83.399 Y46.725 E28.08401
G1 X83.615 Y46.553 E28.11683
G1 X83.845 Y46.403 E28.14942
G1 X84.093 Y46.271 E28.18275
G1 X84.907 Y45.923 E28.28800
G1 X86.883 Y45.213 E28.53730
G1 X87.085 Y45.253 E28.56175
G1 X87.550 Y45.148 E28.61830
G1 X87.964 Y45.099 E28.66785
G1 X88.318 Y45.102 E28.70997
G1 X88.648 Y45.144 E28.74943
G1 X89.048 Y45.246 E28.79846
G1 X89.502 Y45.437 E28.85698
G1 X89.854 Y45.654 E28.90602
G1 X90.240 Y45.966 E28.96501
G1 X90.760 Y45.966 E29.02680
G1 X91.260 Y45.576 E29.10210
G1 X91.498 Y45.438 E29.13480
G1 X91.820 Y45.292 E29.17679
G1 X92.082 Y45.206 E29.20952
G1 X92.352 Y45.144 E29.24250
G1 X92.681 Y45.102 E29.28185
G1 X92.955 Y45.096 E29.31443
G1 X93.231 Y45.115 E29.34723 F1080.000
G1 X93.515 Y45.161 E29.38137
G1 X94.386 Y45.363 E29.48758
G1 X95.177 Y45.595 E29.58553
G1 X96.093 Y45.923 E29.70098
