; generated by Slic3r 1.1.7 on 2014-11-29 at 22:44:56

; perimeters extrusion width = 0.40mm
; infill extrusion width = 0.67mm
; solid infill extrusion width = 0.67mm
; top infill extrusion width = 0.67mm

G21 ; set units to millimeters
M107
M104 S215 ; set temperature
G28 ; home all axes
G1 Z5 F5000 ; lift nozzle

M109 S215 ; wait for temperature to be reached
G90 ; use absolute coordinates
G92 E0
M82 ; use absolute distances for extrusion
G1 F1800.000 E-1.00000
G92 E0
G1 Z0.300 F7800.000
G1 X46.352 Y61.289 F7800.000
G1 E1.00000 F1800.000
G1 X50.421 Y58.338 E1.34931 F1080.000
G1 X50.691 Y58.165 E1.37157
G1 X51.260 Y57.852 E1.41670
G1 X51.593 Y57.699 E1.44214
G1 X52.644 Y57.264 E1.52118
G1 X53.718 Y56.891 E1.60020
G1 X54.813 Y56.583 E1.67922
G1 X55.884 Y56.346 E1.75542
G1 X56.523 Y56.263 E1.80020
G1 X57.104 Y56.239 E1.84062
G1 X62.008 Y56.240 E2.18135
G1 X94.123 Y56.861 E4.41321 F1080.000
G1 X94.722 Y56.974 E4.45551
G1 X95.741 Y57.214 E4.52830
G1 X96.896 Y57.642 E4.61382
G1 X100.855 Y59.548 E4.91914
G1 X101.955 Y60.219 E5.00871
G1 X102.232 Y60.431 E5.03292
G1 X102.921 Y60.989 E5.09457
G1 X103.820 Y61.913 E5.18414
G1 X106.560 Y65.349 E5.48946
G1 X107.261 Y66.431 E5.57903
G1 X107.418 Y66.742 E5.60324
G1 X107.797 Y67.544 E5.66490
G1 X108.206 Y68.767 E5.75447
G1 X109.184 Y73.051 E6.05978
G1 X109.346 Y74.330 E6.14936
G1 X109.346 Y75.565 E6.23521
G1 X109.184 Y76.844 E6.32479
G1 X108.206 Y81.128 E6.63010
G1 X107.797 Y82.351 E6.71967
G1 X107.652 Y82.668 E6.74388
G1 X107.261 Y83.464 E6.80554
G1 X106.560 Y84.546 E6.89511
G1 X103.820 Y87.982 E7.20043
G1 X102.921 Y88.906 E7.29000
G1 X101.955 Y89.676 E7.37585
G1 X100.855 Y90.347 E7.46543
G1 X96.896 Y92.253 E7.77074
G1 X95.685 Y92.696 E7.86032
G1 X94.645 Y92.938 E7.93449
G1 X93.344 Y93.096 E8.02553
G1 X63.758 Y93.760 E10.08178
G1 X55.397 Y93.761 E10.66268
G1 X54.837 Y93.743 E10.70165
G1 X54.278 Y93.691 E10.74063
G1 X53.724 Y93.605 E10.77960
G1 X53.031 Y93.446 E10.82900
G1 X52.637 Y93.329 E10.85756
G1 X51.970 Y93.086 E10.90687
G1 X51.279 Y92.778 E10.95944
G1 X50.687 Y92.454 E11.00632
G1 X50.228 Y92.148 E11.04465
G1 X46.164 Y89.190 E11.39390
G1 X45.914 Y88.986 E11.41633
G1 X45.441 Y88.541 E11.46150
G1 X44.719 Y87.728 E11.53703
G1 X44.455 Y87.408 E11.56582
G1 X43.769 Y86.501 E11.64485
G1 X43.137 Y85.555 E11.72387
G1 X42.766 Y84.935 E11.77411
G1 X42.437 Y84.323 E11.82237
G1 X42.186 Y83.725 E11.86743
G1 X40.553 Y78.701 E12.23449
G1 X40.403 Y78.073 E12.27934
G1 X40.349 Y77.751 E12.30202
G1 X40.218 Y76.254 E12.40642
G1 X40.196 Y75.117 E12.48545
G1 X40.241 Y73.981 E12.56447
G1 X40.346 Y72.892 E12.64047
G1 X40.399 Y72.570 E12.66316
G1 X40.465 Y72.255 E12.68550
G1 X40.621 Y71.696 E12.72588
G1 X42.178 Y66.918 E13.07501
G1 X42.427 Y66.319 E13.12008
G1 X42.751 Y65.710 E13.16801
G1 X43.346 Y64.740 E13.24703
G1 X43.996 Y63.807 E13.32606
G1 X44.700 Y62.914 E13.40509
G1 X45.426 Y62.095 E13.48115
G1 X45.897 Y61.650 E13.52615
G1 X46.304 Y61.326 E13.56232
G1 F1800.000 E12.56232
G92 E0
G1 X75.311 Y70.915 F7800.000
G1 E1.00000 F1800.000
G1 X76.022 Y70.612 E1.05371 F1080.000
G1 X75.968 Y69.423 E1.13643
G1 X76.479 Y68.285 E1.22306
G1 X77.308 Y66.640 E1.35109
G1 X78.958 Y65.441 E1.49281
G1 X79.053 Y65.323 E1.50330
G1 X79.854 Y63.448 E1.64500
G1 X81.273 Y62.273 E1.77305
G1 X82.269 Y61.522 E1.85967
G1 X84.284 Y61.156 E2.00201
G1 X84.421 Y61.090 E2.01259
G1 X85.923 Y59.766 E2.15169
G1 X87.020 Y59.473 E2.23062
G1 X87.913 Y59.271 E2.29419
G1 X90.223 Y58.914 E2.45660
G1 X90.799 Y59.410 E2.50943
G1 X91.210 Y59.412 E2.53799
G1 X91.825 Y58.891 E2.59396
G1 X94.086 Y59.270 E2.75329
G1 X94.981 Y59.473 E2.81703
G1 X96.077 Y59.766 E2.89588
G1 X97.579 Y61.090 E3.03498
G1 X97.716 Y61.156 E3.04556
G1 X99.731 Y61.522 E3.18789
G1 X101.193 Y62.645 E3.31594
G1 X102.146 Y63.448 E3.40256
G1 X102.947 Y65.323 E3.54426
G1 X103.042 Y65.441 E3.55476
G1 X104.692 Y66.640 E3.69647
G1 X105.521 Y68.285 E3.82451
G1 X106.032 Y69.423 E3.91113
G1 X105.940 Y71.460 E4.05285
G1 X105.974 Y71.607 E4.06334
G1 X106.940 Y73.403 E4.20504
G1 X106.974 Y74.649 E4.29167
G1 X106.940 Y76.492 E4.41971
G1 X105.974 Y78.288 E4.56142
G1 X105.940 Y78.435 E4.57191
G1 X106.032 Y80.472 E4.71362
G1 X105.521 Y81.610 E4.80024
G1 X104.692 Y83.255 E4.92829
G1 X103.042 Y84.454 E5.07000
G1 X102.947 Y84.572 E5.08049
G1 X102.146 Y86.447 E5.22220
G1 X101.193 Y87.251 E5.30882
G1 X99.731 Y88.373 E5.43686
G1 X97.724 Y88.737 E5.57857
G1 X97.588 Y88.803 E5.58907
G1 X96.053 Y90.145 E5.73077
G1 X94.264 Y90.587 E5.85882
G1 X93.041 Y90.832 E5.94544
G1 X91.076 Y90.289 E6.08715
G1 X90.925 Y90.289 E6.09764
G1 X88.959 Y90.832 E6.23935
G1 X87.736 Y90.587 E6.32597
G1 X85.947 Y90.145 E6.45402
G1 X84.412 Y88.803 E6.59572
G1 X84.276 Y88.737 E6.60622
G1 X82.269 Y88.373 E6.74793
G1 X81.274 Y87.622 E6.83455
G1 X79.854 Y86.447 E6.96260
G1 X79.053 Y84.572 E7.10430
G1 X78.958 Y84.454 E7.11480
G1 X77.308 Y83.255 E7.25651
G1 X76.479 Y81.610 E7.38455
G1 X75.968 Y80.472 E7.47117
G1 X75.987 Y80.049 E7.50060
G1 X75.288 Y79.742 E7.55365
G1 X74.868 Y80.163 E7.59498
G1 X74.786 Y80.417 E7.61351
G1 X74.845 Y80.848 E7.64376
G1 X74.865 Y81.155 E7.66509
G1 X74.862 Y81.494 E7.68866
G1 X74.831 Y81.869 E7.71484
G1 X74.773 Y82.225 E7.73984
G1 X74.695 Y82.552 E7.76322
G1 X74.562 Y82.955 E7.79275
G1 X74.442 Y83.243 E7.81440
G1 X74.236 Y83.642 E7.84560
G1 X73.790 Y84.385 E7.90580
G1 X73.231 Y85.211 E7.97510
G1 X72.624 Y86.002 E8.04440
G1 X71.977 Y86.751 E8.11315
G1 X71.747 Y86.990 E8.13622
G1 X71.425 Y87.274 E8.16606
G1 X71.078 Y87.527 E8.19590
G1 X70.709 Y87.747 E8.22571
G1 X70.322 Y87.933 E8.25555
G1 X69.919 Y88.082 E8.28543
G1 X69.504 Y88.194 E8.31528
G1 X69.080 Y88.270 E8.34519
G1 X68.865 Y88.426 E8.36370
G1 X68.547 Y88.991 E8.40871
G1 X68.158 Y89.507 E8.45360
G1 X67.704 Y89.961 E8.49825
G1 X67.190 Y90.350 E8.54304
G1 X66.741 Y90.610 E8.57908
G1 X66.192 Y90.859 E8.62097
G1 X65.556 Y91.090 E8.66797
G1 X65.158 Y91.199 E8.69666
G1 X64.412 Y91.333 E8.74929
G1 X63.801 Y91.380 E8.79187
G1 X63.103 Y91.365 E8.84040
G1 X62.692 Y91.321 E8.86909
G1 X62.284 Y91.252 E8.89787
G1 X61.552 Y91.060 E8.95040
G1 X60.978 Y90.847 E8.99300
G1 X60.351 Y90.540 E9.04151
G1 X59.676 Y90.108 E9.09720
G1 X59.324 Y90.108 E9.12160
G1 X58.648 Y90.540 E9.17734
G1 X58.021 Y90.847 E9.22586
G1 X57.310 Y91.103 E9.27837
G1 X56.715 Y91.252 E9.32098
G1 X56.307 Y91.321 E9.34974
G1 X55.896 Y91.365 E9.37847
G1 X55.198 Y91.380 E9.42699
G1 X54.445 Y91.313 E9.47951
G1 X53.843 Y91.199 E9.52211
G1 X53.443 Y91.090 E9.55087
G1 X52.808 Y90.859 E9.59782
G1 X52.261 Y90.611 E9.63957
G1 X51.807 Y90.348 E9.67603
G1 X51.294 Y89.959 E9.72073
G1 X50.840 Y89.504 E9.76543
G1 X50.452 Y88.990 E9.81018
G1 X50.135 Y88.426 E9.85514
G1 X49.919 Y88.270 E9.87361
G1 X49.492 Y88.193 E9.90380
G1 X49.079 Y88.082 E9.93353
G1 X48.678 Y87.933 E9.96322
G1 X48.291 Y87.747 E9.99306
G1 X48.021 Y87.590 E10.01477
G1 X47.669 Y87.347 E10.04451
G1 X47.340 Y87.072 E10.07427
G1 X47.097 Y86.832 E10.09803
G1 X46.376 Y86.002 E10.17440
G1 X45.841 Y85.310 E10.23515
G1 X45.276 Y84.489 E10.30444
G1 X44.710 Y83.545 E10.38090
G1 X44.557 Y83.242 E10.40449
G1 X44.397 Y82.843 E10.43437
G1 X44.227 Y82.228 E10.47865
G1 X44.143 Y81.588 E10.52352
G1 X44.139 Y81.061 E10.56019
G1 X44.214 Y80.416 E10.60526
G1 X44.132 Y80.164 E10.62372
G1 X43.833 Y79.853 E10.65368
G1 X43.635 Y79.613 E10.67529
G1 X43.439 Y79.341 E10.69860
G1 X43.219 Y78.974 E10.72831
G1 X42.952 Y78.387 E10.77311
G1 X42.853 Y78.093 E10.79464
G1 X42.750 Y77.680 E10.82428
G1 X42.681 Y77.233 E10.85569
G1 X42.598 Y76.246 E10.92450
G1 X42.524 Y73.747 E11.09820
G1 X42.591 Y73.678 E11.10492
G1 X42.671 Y73.503 E11.11825
G1 X42.727 Y73.060 E11.14933
G1 X42.821 Y72.642 E11.17904
G1 X42.952 Y72.234 E11.20885
G1 X43.121 Y71.839 E11.23868
G1 X43.325 Y71.461 E11.26853
G1 X43.562 Y71.104 E11.29834
G1 X43.832 Y70.770 E11.32815
G1 X44.132 Y70.457 E11.35828
G1 X44.214 Y70.204 E11.37676
G1 X44.139 Y69.561 E11.42177
G1 X44.151 Y68.921 E11.46619
G1 X44.251 Y68.283 E11.51106
G1 X44.435 Y67.672 E11.55543
G1 X44.607 Y67.275 E11.58551
G1 X44.763 Y66.981 E11.60862
G1 X45.276 Y66.132 E11.67751
G1 X45.769 Y65.410 E11.73826
G1 X46.454 Y64.524 E11.81610
G1 X47.099 Y63.787 E11.88413
G1 X47.500 Y63.409 E11.92239
G1 X48.022 Y63.030 E11.96725
G1 X48.586 Y62.728 E12.01174
G1 X49.194 Y62.504 E12.05672
G1 X49.492 Y62.427 E12.07810
G1 X49.920 Y62.351 E12.10836
G1 X50.135 Y62.194 E12.12682
G1 X50.339 Y61.813 E12.15684
G1 X50.505 Y61.551 E12.17840
G1 X50.762 Y61.209 E12.20816
G1 X50.982 Y60.961 E12.23119
G1 X51.458 Y60.525 E12.27602
G1 X51.709 Y60.339 E12.29773
G1 X52.072 Y60.112 E12.32745
G1 X52.474 Y59.909 E12.35878
G1 X53.273 Y59.569 E12.41905
G1 X54.327 Y59.192 E12.49690
G1 X55.166 Y58.946 E12.55763
G1 X56.131 Y58.721 E12.62649
G1 X56.572 Y58.649 E12.65753
G1 X57.099 Y58.617 E12.69423
G1 X57.740 Y58.660 E12.73882
G1 X58.281 Y58.766 E12.77715
G1 X58.779 Y58.925 E12.81343
G1 X59.367 Y59.195 E12.85841
G1 X59.633 Y59.195 E12.87690
G1 X60.020 Y59.007 E12.90675
G1 X60.425 Y58.853 E12.93688
G1 X60.833 Y58.738 E12.96635
G1 X61.142 Y58.678 E12.98819
G1 X61.568 Y58.628 E13.01802
G1 X61.900 Y58.617 E13.04111
G1 X62.542 Y58.663 E13.08579
G1 X63.714 Y58.915 E13.16914
G1 X64.672 Y59.192 E13.23843
G1 X65.613 Y59.524 E13.30772
G1 X66.623 Y59.954 E13.38401
G1 X66.927 Y60.111 E13.40777
G1 X67.290 Y60.338 E13.43753
G1 X67.632 Y60.598 E13.46735
G1 X67.949 Y60.890 E13.49729
G1 X68.237 Y61.207 E13.52708
G1 X68.427 Y61.454 E13.54870
G1 X68.661 Y61.813 E13.57852
G1 X68.865 Y62.194 E13.60854
G1 X69.080 Y62.351 E13.62705
G1 X69.710 Y62.477 E13.67167
G1 X70.213 Y62.643 E13.70849
G1 X70.708 Y62.873 E13.74641
G1 X71.078 Y63.094 E13.77632
G1 X71.425 Y63.347 E13.80618
G1 X71.746 Y63.631 E13.83597
G1 X71.976 Y63.869 E13.85900
G1 X72.624 Y64.619 E13.92784
G1 X73.159 Y65.311 E13.98858
G1 X73.724 Y66.132 E14.05788
G1 X74.236 Y66.980 E14.12669
G1 X74.482 Y67.468 E14.16464
G1 X74.605 Y67.783 E14.18818
G1 X74.727 Y68.190 E14.21767
G1 X74.840 Y68.827 E14.26260
G1 X74.867 Y69.408 E14.30306
G1 X74.845 Y69.776 E14.32862
G1 X74.786 Y70.204 E14.35868
G1 X74.868 Y70.457 E14.37717
G1 X75.269 Y70.872 E14.41724
G1 F1800.000 E13.41724
G92 E0
G1 X76.172 Y77.680 F7800.000
G1 E1.00000 F1800.000
G1 X75.642 Y77.853 E1.03872 F1080.000
G1 X75.412 Y78.467 E1.08428
G1 X75.096 Y79.033 E1.12933
G1 X74.750 Y79.483 E1.16877
G1 X74.269 Y79.948 E1.21522
G1 X74.174 Y80.240 E1.23656
G1 X74.252 Y80.607 E1.26263
G1 X74.291 Y80.902 E1.28331
G1 X74.302 Y81.551 E1.32839
G1 X74.228 Y82.113 E1.36780
G1 X74.077 Y82.659 E1.40716
G1 X73.823 Y83.238 E1.45108
G1 X73.317 Y84.092 E1.52002
G1 X72.776 Y84.890 E1.58705
G1 X72.189 Y85.655 E1.65406
G1 X71.360 Y86.589 E1.74079
G1 X70.992 Y86.905 E1.77447
G1 X70.611 Y87.163 E1.80649
G1 X70.181 Y87.387 E1.84018
G1 X69.750 Y87.552 E1.87220
G1 X69.281 Y87.672 E1.90583
G1 X68.723 Y87.743 E1.94493
G1 X68.475 Y87.924 E1.96627
G1 X68.321 Y88.267 E1.99240
G1 X68.137 Y88.597 E2.01867
G1 X67.924 Y88.910 E2.04495
G1 X67.683 Y89.202 E2.07127
G1 X67.417 Y89.470 E2.09751
G1 X67.127 Y89.713 E2.12376
G1 X66.816 Y89.928 E2.15008
G1 X66.490 Y90.112 E2.17611
G1 X65.644 Y90.475 E2.24006
G1 X64.915 Y90.683 E2.29271
G1 X64.338 Y90.780 E2.33335
G1 X63.899 Y90.819 E2.36397
G1 X63.409 Y90.823 E2.39807
G1 X63.030 Y90.799 E2.42443
G1 X62.281 Y90.682 E2.47709
G1 X61.553 Y90.474 E2.52974
G1 X60.956 Y90.226 E2.57461
G1 X60.619 Y90.051 E2.60099
G1 X60.200 Y89.795 E2.63509
G1 X59.695 Y89.418 E2.67893
G1 X59.305 Y89.418 E2.70599
G1 X58.799 Y89.795 E2.74984
G1 X58.380 Y90.052 E2.78396
G1 X57.800 Y90.336 E2.82889
G1 X57.341 Y90.510 E2.86298
G1 X56.718 Y90.682 E2.90786
G1 X56.345 Y90.753 E2.93423
G1 X55.858 Y90.809 E2.96833
G1 X55.212 Y90.823 E3.01325
G1 X54.457 Y90.753 E3.06590
G1 X53.976 Y90.658 E3.10000
G1 X53.610 Y90.558 E3.12635
G1 X53.251 Y90.436 E3.15268
G1 X52.652 Y90.180 E3.19796
G1 X52.343 Y90.023 E3.22203
G1 X52.024 Y89.823 E3.24819
G1 X51.522 Y89.413 E3.29319
G1 X51.140 Y88.993 E3.33266
G1 X50.820 Y88.526 E3.37201
G1 X50.526 Y87.924 E3.41857
G1 X50.277 Y87.743 E3.43990
G1 X49.904 Y87.703 E3.46602
G1 X49.532 Y87.631 E3.49233
G1 X49.169 Y87.525 E3.51859
G1 X48.818 Y87.386 E3.54484
G1 X48.481 Y87.216 E3.57105
G1 X48.227 Y87.060 E3.59177
G1 X47.923 Y86.838 E3.61794
G1 X47.640 Y86.588 E3.64417
G1 X46.879 Y85.738 E3.72346
G1 X46.287 Y84.976 E3.79047
G1 X45.741 Y84.181 E3.85749
G1 X45.198 Y83.278 E3.93071
G1 X45.030 Y82.933 E3.95740
G1 X44.896 Y82.580 E3.98362
G1 X44.795 Y82.216 E4.00985
G1 X44.727 Y81.844 E4.03612
G1 X44.694 Y81.468 E4.06239
G1 X44.696 Y81.089 E4.08868
G1 X44.732 Y80.713 E4.11491
G1 X44.826 Y80.240 E4.14845
G1 X44.731 Y79.948 E4.16980
G1 X44.452 Y79.696 E4.19586
G1 X44.195 Y79.420 E4.22213
G1 X44.011 Y79.187 E4.24269
G1 X43.802 Y78.873 E4.26893
G1 X43.513 Y78.292 E4.31404
G1 X43.412 Y78.014 E4.33459
G1 X43.314 Y77.653 E4.36057
G1 X43.247 Y77.270 E4.38756
G1 X43.161 Y76.328 E4.45332
G1 X43.088 Y73.966 E4.61749
G1 X43.129 Y73.924 E4.62158
G1 X43.209 Y73.749 E4.63492
G1 X43.276 Y73.157 E4.67636
G1 X43.387 Y72.689 E4.70979
G1 X43.512 Y72.331 E4.73615
G1 X43.669 Y71.988 E4.76230
G1 X43.857 Y71.659 E4.78865
G1 X44.126 Y71.284 E4.82072
G1 X44.377 Y71.000 E4.84707
G1 X44.731 Y70.673 E4.88052
G1 X44.826 Y70.381 E4.90183
G1 X44.721 Y69.828 E4.94093
G1 X44.691 Y69.344 E4.97466
G1 X44.714 Y68.884 E5.00664
G1 X44.794 Y68.407 E5.04028
G1 X44.922 Y67.963 E5.07240
G1 X45.108 Y67.518 E5.10586
G1 X45.741 Y66.440 E5.19275
G1 X46.287 Y65.645 E5.25976
G1 X46.811 Y64.966 E5.31937
G1 X47.439 Y64.241 E5.38602
G1 X47.778 Y63.904 E5.41920
G1 X48.229 Y63.559 E5.45867
G1 X48.552 Y63.366 E5.48483
G1 X48.816 Y63.236 E5.50523
G1 X49.167 Y63.097 E5.53149
G1 X49.529 Y62.991 E5.55770
G1 X49.899 Y62.918 E5.58391
G1 X50.277 Y62.878 E5.61032
G1 X50.526 Y62.697 E5.63167
G1 X50.820 Y62.095 E5.67820
G1 X51.192 Y61.564 E5.72328
G1 X51.583 Y61.151 E5.76277
G1 X51.806 Y60.961 E5.78315
G1 X52.110 Y60.740 E5.80929
G1 X52.435 Y60.548 E5.83553
G1 X52.699 Y60.419 E5.85594
G1 X53.583 Y60.046 E5.92255
G1 X54.492 Y59.724 E5.98956
G1 X55.315 Y59.483 E6.04916
G1 X56.249 Y59.266 E6.11579
G1 X56.637 Y59.202 E6.14312
G1 X57.016 Y59.176 E6.16950
G1 X57.391 Y59.184 E6.19556
G1 X57.664 Y59.212 E6.21466
G1 X58.221 Y59.327 E6.25418
G1 X58.755 Y59.517 E6.29355
G1 X59.346 Y59.831 E6.34007
G1 X59.654 Y59.831 E6.36141
G1 X59.979 Y59.644 E6.38752
G1 X60.321 Y59.485 E6.41370
G1 X60.678 Y59.357 E6.44007
G1 X61.042 Y59.263 E6.46619
G1 X61.416 Y59.202 E6.49251
G1 X61.712 Y59.178 E6.51313
G1 X62.084 Y59.179 E6.53901
G1 X62.465 Y59.215 E6.56555
G1 X63.582 Y59.456 E6.64496
G1 X64.508 Y59.724 E6.71197
G1 X65.517 Y60.085 E6.78639
G1 X66.487 Y60.507 E6.85992
G1 X66.816 Y60.693 E6.88615
G1 X67.128 Y60.909 E6.91251
G1 X67.417 Y61.151 E6.93875
G1 X67.684 Y61.420 E6.96510
G1 X67.925 Y61.712 E6.99135
G1 X68.139 Y62.025 E7.01772
G1 X68.321 Y62.355 E7.04392
G1 X68.474 Y62.697 E7.06993
G1 X68.723 Y62.878 E7.09128
G1 X69.095 Y62.918 E7.11731
G1 X69.388 Y62.972 E7.13800
G1 X70.008 Y63.161 E7.18303
G1 X70.445 Y63.364 E7.21653
G1 X70.840 Y63.606 E7.24872
G1 X71.221 Y63.904 E7.28228
G1 X71.497 Y64.171 E7.30898
G1 X72.121 Y64.883 E7.37479
G1 X72.713 Y65.645 E7.44180
G1 X73.259 Y66.440 E7.50882
G1 X73.755 Y67.260 E7.57542
G1 X73.970 Y67.688 E7.60873
G1 X74.137 Y68.145 E7.64251
G1 X74.243 Y68.590 E7.67431
G1 X74.302 Y69.069 E7.70780
G1 X74.309 Y69.344 E7.72694
G1 X74.290 Y69.721 E7.75319
G1 X74.174 Y70.381 E7.79973
G1 X74.269 Y70.673 E7.82108
G1 X74.679 Y71.060 E7.86024
G1 X74.989 Y71.434 E7.89398
G1 X75.240 Y71.820 E7.92597
G1 X75.531 Y72.408 E7.97160
G1 X76.218 Y72.427 E8.01929
G1 X76.428 Y72.036 E8.05015
G1 X76.637 Y71.890 E8.06791
G1 X76.733 Y71.471 E8.09775
G1 X76.608 Y71.248 E8.11551
G1 X76.531 Y69.530 E8.23502
G1 X76.961 Y68.569 E8.30820
G1 X77.743 Y67.013 E8.42917
G1 X79.134 Y66.002 E8.54868
G1 X79.387 Y65.961 E8.56644
G1 X79.654 Y65.625 E8.59628
G1 X79.638 Y65.370 E8.61404
G1 X80.314 Y63.788 E8.73355
G1 X81.618 Y62.711 E8.85108
G1 X82.498 Y62.046 E8.92771
G1 X84.191 Y61.740 E9.04722
G1 X84.436 Y61.812 E9.06498
G1 X84.823 Y61.626 E9.09482
G1 X84.916 Y61.397 E9.11198
G1 X86.193 Y60.270 E9.23031
G1 X87.159 Y60.013 E9.29977
G1 X88.021 Y59.817 E9.36120
G1 X90.053 Y59.503 E9.50406
