; generated by Slic3r 1.1.0 on 2014-04-08 at 16:31:08

; perimeters extrusion width = 0.40mm
; infill extrusion width = 0.65mm
; solid infill extrusion width = 0.65mm
; top infill extrusion width = 0.65mm

G21 ; set units to millimeters
M104 S210 ; set temperature
G28 X0.0 Y0.0 ; home XY axis
G1 Y10.0 F8000.00
G29
M109 S208 ; wait for temperature to be reached
G90 ; use absolute coordinates
G92 E0
M82 ; use absolute distances for extrusion
G1 F1800.000 E-1.00000
G1 Z1.361 F6000.000
G92 E0
G1 X50.949 Y51.120 F6000.000
G1 Z0.361 F6000.000
G1 E1.00000 F1800.000
G1 X51.702 Y50.433 E1.06739 F1500
G1 X52.532 Y49.842 E1.13478
G1 X53.427 Y49.356 E1.20218
G1 X54.375 Y48.981 E1.26957
G1 X55.360 Y48.723 E1.33696
G1 X56.370 Y48.586 E1.40436
G1 X57.000 Y48.560 E1.44606
G1 X93.388 Y48.571 E3.85286
G1 X94.402 Y48.680 E3.92028
G1 X95.395 Y48.909 E3.98767
G1 X96.352 Y49.257 E4.05506
G1 X97.261 Y49.717 E4.12245
G1 X98.108 Y50.284 E4.18984
G1 X98.880 Y50.949 E4.25724
G1 X99.567 Y51.702 E4.32463
G1 X100.158 Y52.532 E4.39201
G1 X100.644 Y53.427 E4.45942
G1 X101.019 Y54.375 E4.52680
G1 X101.277 Y55.360 E4.59420
G1 X101.414 Y56.370 E4.66159
G1 X101.440 Y57.000 E4.70329
G1 X101.429 Y93.388 E7.11010
G1 X101.320 Y94.402 E7.17752
G1 X101.091 Y95.395 E7.24491
G1 X100.743 Y96.352 E7.31229
G1 X100.282 Y97.261 E7.37969
G1 X99.716 Y98.108 E7.44708
G1 X99.575 Y98.287 E7.46215
G1 X99.051 Y98.880 E7.51450
G1 X98.298 Y99.567 E7.58189
G1 X97.468 Y100.158 E7.64927
G1 X96.573 Y100.644 E7.71668
G1 X95.625 Y101.019 E7.78406
G1 X94.640 Y101.277 E7.85146
G1 X93.630 Y101.414 E7.91885
G1 X93.000 Y101.440 E7.96055
G1 X56.612 Y101.429 E10.36735
G1 X55.598 Y101.320 E10.43478
G1 X54.605 Y101.091 E10.50216
G1 X53.648 Y100.743 E10.56955
G1 X52.739 Y100.282 E10.63696
G1 X51.892 Y99.716 E10.70433
G1 X51.120 Y99.051 E10.77173
G1 X50.433 Y98.298 E10.83913
G1 X49.842 Y97.468 E10.90652
G1 X49.356 Y96.573 E10.97391
G1 X48.981 Y95.625 E11.04130
G1 X48.723 Y94.640 E11.10870
G1 X48.586 Y93.630 E11.17609
G1 X48.560 Y93.000 E11.21779
G1 X48.571 Y56.612 E13.62459
G1 X48.680 Y55.598 E13.69201
G1 X48.909 Y54.605 E13.75940
G1 X49.257 Y53.648 E13.82680
G1 X49.717 Y52.739 E13.89419
G1 X50.284 Y51.892 E13.96158
G1 X50.910 Y51.165 E14.02500
G1 F1800.000 E13.02500
G1 Z1.361 F6000.000
G92 E0
G1 X58.545 Y89.008 F6000.000
G1 Z0.361 F6000.000
G1 E1.00000 F1800.000
G1 X58.847 Y88.963 E1.02020 F1500
G1 X59.153 Y88.963 E1.04040
G1 X59.455 Y89.008 E1.06059
G1 X59.687 Y89.080 E1.07667
G1 X60.022 Y89.231 E1.10095
G1 X60.274 Y89.403 E1.12114
G1 X60.498 Y89.610 E1.14134
G1 X60.688 Y89.849 E1.16154
G1 X60.841 Y90.114 E1.18174
G1 X60.952 Y90.398 E1.20193
G1 X61.020 Y90.695 E1.22213
G1 X61.043 Y91.000 E1.24233
G1 X61.020 Y91.305 E1.26252
G1 X60.952 Y91.602 E1.28272
G1 X60.841 Y91.886 E1.30292
G1 X60.688 Y92.151 E1.32312
G1 X60.498 Y92.390 E1.34331
G1 X60.274 Y92.597 E1.36351
G1 X60.022 Y92.769 E1.38371
G1 X59.746 Y92.902 E1.40390
G1 X59.455 Y92.992 E1.42410
G1 X59.153 Y93.037 E1.44430
G1 X58.847 Y93.037 E1.46449
G1 X58.545 Y92.992 E1.48469
G1 X58.254 Y92.902 E1.50489
G1 X57.978 Y92.769 E1.52508
G1 X57.726 Y92.597 E1.54528
G1 X57.502 Y92.390 E1.56548
G1 X57.312 Y92.151 E1.58567
G1 X57.159 Y91.886 E1.60587
G1 X57.048 Y91.602 E1.62607
G1 X56.980 Y91.304 E1.64627
G1 X56.957 Y91.000 E1.66646
G1 X56.980 Y90.695 E1.68666
G1 X57.048 Y90.398 E1.70686
G1 X57.159 Y90.114 E1.72705
G1 X57.312 Y89.849 E1.74725
G1 X57.502 Y89.610 E1.76745
G1 X57.726 Y89.403 E1.78764
G1 X57.978 Y89.231 E1.80784
G1 X58.254 Y89.098 E1.82804
G1 X58.488 Y89.026 E1.84426
G1 X58.616 Y89.447 F6000.000
G1 X58.880 Y89.403 E1.86201 F1500
G1 X59.120 Y89.403 E1.87784
G1 X59.356 Y89.439 E1.89367
G1 X59.557 Y89.501 E1.90757
G1 X59.801 Y89.613 E1.92531
G1 X59.998 Y89.748 E1.94114
G1 X60.174 Y89.911 E1.95698
G1 X60.323 Y90.098 E1.97281
G1 X60.443 Y90.305 E1.98864
G1 X60.530 Y90.528 E2.00447
G1 X60.583 Y90.761 E2.02030
G1 X60.601 Y91.000 E2.03613
G1 X60.583 Y91.239 E2.05196
G1 X60.530 Y91.472 E2.06779
G1 X60.443 Y91.695 E2.08362
G1 X60.323 Y91.902 E2.09945
G1 X60.174 Y92.089 E2.11528
G1 X59.998 Y92.252 E2.13111
G1 X59.801 Y92.387 E2.14694
G1 X59.585 Y92.491 E2.16277
G1 X59.356 Y92.561 E2.17860
G1 X59.120 Y92.597 E2.19444
G1 X58.880 Y92.597 E2.21027
G1 X58.644 Y92.561 E2.22610
G1 X58.415 Y92.491 E2.24193
G1 X58.199 Y92.387 E2.25776
G1 X58.002 Y92.252 E2.27359
G1 X57.826 Y92.089 E2.28942
G1 X57.677 Y91.902 E2.30525
G1 X57.557 Y91.695 E2.32108
G1 X57.470 Y91.472 E2.33691
G1 X57.417 Y91.239 E2.35274
G1 X57.399 Y91.000 E2.36857
G1 X57.417 Y90.761 E2.38440
G1 X57.470 Y90.528 E2.40023
G1 X57.557 Y90.305 E2.41606
G1 X57.677 Y90.098 E2.43189
G1 X57.826 Y89.911 E2.44772
G1 X58.002 Y89.748 E2.46355
G1 X58.199 Y89.613 E2.47939
G1 X58.415 Y89.509 E2.49522
G1 X58.558 Y89.465 E2.50514
G1 X58.698 Y89.192 F6000.000
G1 F1800.000 E1.50514
G1 Z1.361 F6000.000
G92 E0
G1 X88.957 Y91.000 F6000.000
G1 Z0.361 F6000.000
G1 E1.00000 F1800.000
G1 X88.980 Y90.695 E1.02020 F1500
G1 X89.048 Y90.398 E1.04039
G1 X89.159 Y90.114 E1.06059
G1 X89.312 Y89.849 E1.08078
G1 X89.502 Y89.610 E1.10098
G1 X89.726 Y89.403 E1.12118
G1 X89.978 Y89.231 E1.14138
G1 X90.254 Y89.098 E1.16157
G1 X90.545 Y89.008 E1.18177
G1 X90.847 Y88.963 E1.20197
G1 X91.153 Y88.963 E1.22217
G1 X91.455 Y89.008 E1.24236
G1 X91.746 Y89.098 E1.26256
G1 X92.022 Y89.231 E1.28276
G1 X92.274 Y89.403 E1.30295
G1 X92.452 Y89.568 E1.31903
G1 X92.688 Y89.849 E1.34331
G1 X92.841 Y90.114 E1.36351
G1 X92.952 Y90.398 E1.38370
G1 X93.020 Y90.695 E1.40390
G1 X93.043 Y91.000 E1.42410
G1 X93.020 Y91.305 E1.44429
G1 X92.952 Y91.602 E1.46449
G1 X92.841 Y91.886 E1.48469
G1 X92.688 Y92.151 E1.50488
G1 X92.498 Y92.390 E1.52508
G1 X92.274 Y92.597 E1.54528
G1 X92.022 Y92.769 E1.56547
G1 X91.746 Y92.902 E1.58567
G1 X91.455 Y92.992 E1.60587
G1 X91.153 Y93.037 E1.62607
G1 X90.847 Y93.037 E1.64626
G1 X90.545 Y92.992 E1.66646
G1 X90.313 Y92.920 E1.68254
G1 X89.978 Y92.769 E1.70681
G1 X89.726 Y92.597 E1.72701
G1 X89.502 Y92.390 E1.74721
G1 X89.351 Y92.200 E1.76329
G1 X89.159 Y91.886 E1.78757
G1 X89.048 Y91.602 E1.80776
G1 X88.980 Y91.305 E1.82796
G1 X88.961 Y91.060 E1.84419
G1 X89.399 Y91.000 F6000.000
G1 X89.416 Y90.761 E1.86002 F1500
G1 X89.470 Y90.528 E1.87585
G1 X89.557 Y90.305 E1.89168
G1 X89.677 Y90.098 E1.90751
G1 X89.826 Y89.911 E1.92334
G1 X90.002 Y89.748 E1.93917
G1 X90.199 Y89.613 E1.95500
G1 X90.415 Y89.509 E1.97083
G1 X90.644 Y89.439 E1.98666
G1 X90.880 Y89.403 E2.00249
G1 X91.120 Y89.403 E2.01832
G1 X91.356 Y89.439 E2.03415
G1 X91.585 Y89.509 E2.04998
G1 X91.801 Y89.613 E2.06581
G1 X91.998 Y89.748 E2.08164
G1 X92.174 Y89.911 E2.09748
G1 X92.305 Y90.075 E2.11137
G1 X92.443 Y90.305 E2.12912
G1 X92.530 Y90.528 E2.14495
G1 X92.583 Y90.761 E2.16078
G1 X92.601 Y91.000 E2.17661
G1 X92.583 Y91.239 E2.19244
G1 X92.530 Y91.472 E2.20827
G1 X92.443 Y91.695 E2.22410
G1 X92.323 Y91.902 E2.23993
G1 X92.174 Y92.089 E2.25576
G1 X91.998 Y92.252 E2.27159
G1 X91.801 Y92.387 E2.28742
G1 X91.585 Y92.491 E2.30325
G1 X91.356 Y92.561 E2.31908
G1 X91.120 Y92.597 E2.33492
G1 X90.880 Y92.597 E2.35075
G1 X90.644 Y92.561 E2.36658
G1 X90.443 Y92.499 E2.38047
G1 X90.199 Y92.387 E2.39822
G1 X90.002 Y92.252 E2.41405
G1 X89.826 Y92.089 E2.42988
G1 X89.695 Y91.925 E2.44377
G1 X89.557 Y91.695 E2.46152
G1 X89.470 Y91.472 E2.47735
G1 X89.416 Y91.239 E2.49318
G1 X89.403 Y91.060 E2.50504
G1 X89.194 Y90.875 F6000.000
G1 F1800.000 E1.50504
G1 Z1.361 F6000.000
G92 E0
G1 X90.847 Y61.037 F6000.000
G1 Z0.361 F6000.000
G1 E1.00000 F1800.000
G1 X90.545 Y60.992 E1.02020 F1500
G1 X90.254 Y60.902 E1.04039
G1 X89.978 Y60.769 E1.06059
G1 X89.726 Y60.597 E1.08079
G1 X89.502 Y60.390 E1.10099
G1 X89.312 Y60.151 E1.12118
G1 X89.190 Y59.940 E1.13726
G1 X89.048 Y59.602 E1.16154
G1 X88.980 Y59.304 E1.18173
G1 X88.957 Y59.000 E1.20193
G1 X88.980 Y58.695 E1.22213
G1 X89.048 Y58.398 E1.24232
G1 X89.159 Y58.114 E1.26252
G1 X89.312 Y57.849 E1.28272
G1 X89.502 Y57.610 E1.30291
G1 X89.726 Y57.403 E1.32311
G1 X89.978 Y57.231 E1.34331
G1 X90.254 Y57.098 E1.36351
G1 X90.545 Y57.008 E1.38370
G1 X90.847 Y56.963 E1.40390
G1 X91.153 Y56.963 E1.42410
G1 X91.455 Y57.008 E1.44429
G1 X91.746 Y57.098 E1.46449
G1 X92.022 Y57.231 E1.48469
G1 X92.274 Y57.403 E1.50489
G1 X92.452 Y57.568 E1.52096
G1 X92.688 Y57.849 E1.54524
G1 X92.841 Y58.114 E1.56544
G1 X92.952 Y58.398 E1.58563
G1 X93.020 Y58.695 E1.60583
G1 X93.043 Y59.000 E1.62603
G1 X93.020 Y59.305 E1.64622
G1 X92.952 Y59.602 E1.66642
G1 X92.841 Y59.886 E1.68662
G1 X92.688 Y60.151 E1.70681
G1 X92.498 Y60.390 E1.72701
G1 X92.274 Y60.597 E1.74721
G1 X92.022 Y60.769 E1.76740
G1 X91.746 Y60.902 E1.78760
G1 X91.455 Y60.992 E1.80780
G1 X91.153 Y61.037 E1.82800
G1 X90.907 Y61.037 E1.84422
G1 X90.880 Y60.597 F6000.000
G1 X90.644 Y60.561 E1.86005 F1500
G1 X90.415 Y60.491 E1.87588
G1 X90.199 Y60.387 E1.89172
G1 X90.002 Y60.252 E1.90755
G1 X89.826 Y60.089 E1.92338
G1 X89.677 Y59.902 E1.93921
G1 X89.572 Y59.720 E1.95310
G1 X89.470 Y59.472 E1.97085
G1 X89.416 Y59.239 E1.98668
G1 X89.399 Y59.000 E2.00251
G1 X89.416 Y58.761 E2.01834
G1 X89.470 Y58.528 E2.03417
G1 X89.557 Y58.305 E2.05000
G1 X89.677 Y58.098 E2.06583
G1 X89.826 Y57.911 E2.08166
G1 X90.002 Y57.748 E2.09749
G1 X90.199 Y57.613 E2.11332
G1 X90.389 Y57.522 E2.12722
G1 X90.644 Y57.439 E2.14497
G1 X90.880 Y57.403 E2.16080
G1 X91.120 Y57.403 E2.17663
G1 X91.356 Y57.439 E2.19246
G1 X91.585 Y57.509 E2.20829
G1 X91.801 Y57.613 E2.22412
G1 X91.998 Y57.748 E2.23995
G1 X92.152 Y57.891 E2.25384
G1 X92.323 Y58.098 E2.27159
G1 X92.443 Y58.305 E2.28742
G1 X92.530 Y58.528 E2.30325
G1 X92.583 Y58.761 E2.31908
G1 X92.601 Y59.000 E2.33491
G1 X92.583 Y59.239 E2.35074
G1 X92.530 Y59.472 E2.36657
G1 X92.443 Y59.695 E2.38241
G1 X92.323 Y59.902 E2.39824
G1 X92.174 Y60.089 E2.41407
G1 X91.998 Y60.252 E2.42990
G1 X91.801 Y60.387 E2.44573
G1 X91.585 Y60.491 E2.46156
G1 X91.356 Y60.561 E2.47739
G1 X91.120 Y60.597 E2.49322
G1 X90.940 Y60.597 E2.50508
G1 X90.741 Y60.791 F6000.000
G1 F1800.000 E1.50508
G1 Z1.361 F6000.000
G92 E0
G1 X61.043 Y59.000 F6000.000
G1 Z0.361 F6000.000
G1 E1.00000 F1800.000
G1 X61.020 Y59.305 E1.02020 F1500
G1 X60.952 Y59.602 E1.04039
G1 X60.841 Y59.886 E1.06059
G1 X60.688 Y60.151 E1.08079
G1 X60.498 Y60.390 E1.10098
G1 X60.274 Y60.597 E1.12118
G1 X60.022 Y60.769 E1.14138
G1 X59.746 Y60.902 E1.16158
G1 X59.455 Y60.992 E1.18177
G1 X59.153 Y61.037 E1.20197
G1 X58.847 Y61.037 E1.22217
G1 X58.545 Y60.992 E1.24236
G1 X58.254 Y60.902 E1.26256
G1 X57.978 Y60.769 E1.28276
G1 X57.726 Y60.597 E1.30295
G1 X57.502 Y60.390 E1.32315
G1 X57.351 Y60.200 E1.33923
G1 X57.159 Y59.886 E1.36351
G1 X57.048 Y59.602 E1.38370
G1 X56.980 Y59.304 E1.40390
G1 X56.957 Y59.000 E1.42410
G1 X56.980 Y58.695 E1.44429
G1 X57.048 Y58.398 E1.46449
G1 X57.159 Y58.114 E1.48469
G1 X57.312 Y57.849 E1.50488
G1 X57.463 Y57.659 E1.52096
G1 X57.726 Y57.403 E1.54524
G1 X57.978 Y57.231 E1.56544
G1 X58.254 Y57.098 E1.58563
G1 X58.545 Y57.008 E1.60583
G1 X58.847 Y56.963 E1.62603
G1 X59.153 Y56.963 E1.64622
G1 X59.455 Y57.008 E1.66642
G1 X59.746 Y57.098 E1.68662
G1 X60.022 Y57.231 E1.70681
G1 X60.274 Y57.403 E1.72701
G1 X60.498 Y57.610 E1.74721
G1 X60.688 Y57.849 E1.76740
G1 X60.841 Y58.114 E1.78760
G1 X60.952 Y58.398 E1.80780
G1 X61.020 Y58.695 E1.82800
G1 X61.039 Y58.940 E1.84422
G1 X60.601 Y59.000 F6000.000
G1 X60.583 Y59.239 E1.86005 F1500
G1 X60.530 Y59.472 E1.87588
G1 X60.443 Y59.695 E1.89172
G1 X60.323 Y59.902 E1.90755
G1 X60.174 Y60.089 E1.92338
G1 X59.998 Y60.252 E1.93921
G1 X59.801 Y60.387 E1.95504
G1 X59.585 Y60.491 E1.97087
G1 X59.356 Y60.561 E1.98670
G1 X59.120 Y60.597 E2.00253
G1 X58.880 Y60.597 E2.01836
G1 X58.644 Y60.561 E2.03419
G1 X58.415 Y60.491 E2.05002
G1 X58.199 Y60.387 E2.06585
G1 X58.002 Y60.252 E2.08168
G1 X57.826 Y60.089 E2.09751
G1 X57.695 Y59.925 E2.11141
G1 X57.557 Y59.695 E2.12915
G1 X57.470 Y59.472 E2.14499
G1 X57.417 Y59.239 E2.16082
G1 X57.399 Y59.000 E2.17665
G1 X57.417 Y58.761 E2.19248
G1 X57.470 Y58.528 E2.20831
G1 X57.557 Y58.305 E2.22414
G1 X57.677 Y58.098 E2.23997
G1 X57.808 Y57.934 E2.25386
G1 X58.002 Y57.748 E2.27161
G1 X58.199 Y57.613 E2.28744
G1 X58.415 Y57.509 E2.30327
G1 X58.644 Y57.439 E2.31910
G1 X58.880 Y57.403 E2.33493
G1 X59.120 Y57.403 E2.35076
G1 X59.356 Y57.439 E2.36659
G1 X59.585 Y57.509 E2.38243
G1 X59.801 Y57.613 E2.39826
G1 X59.998 Y57.748 E2.41409
G1 X60.174 Y57.911 E2.42992
G1 X60.323 Y58.098 E2.44575
G1 X60.443 Y58.305 E2.46158
G1 X60.530 Y58.528 E2.47741
G1 X60.583 Y58.761 E2.49324
G1 X60.597 Y58.940 E2.50510
G1 X60.806 Y59.125 F6000.000
G1 F1800.000 E1.50510
G1 Z1.361 F6000.000
G92 E0
G1 X62.533 Y60.877 F6000.000
G1 Z0.361 F6000.000
G1 E1.00000 F1800.000
G1 X63.140 Y60.363 E1.05257 F600
G1 X63.767 Y59.877 E1.10508
G1 X64.369 Y59.448 E1.15396
G1 X64.987 Y59.043 E1.20284
G1 X65.650 Y58.646 E1.25392
G1 X66.357 Y58.261 E1.30718
G1 X67.020 Y57.935 E1.35609
G1 X67.750 Y57.612 E1.40886
G1 X68.492 Y57.322 E1.46153
G1 X69.162 Y57.089 E1.50846
G1 X69.883 Y56.870 E1.55831
G1 X70.654 Y56.669 E1.61097
G1 X71.433 Y56.502 E1.66368
G1 X72.175 Y56.374 E1.71353
G1 X72.964 Y56.272 E1.76614
G1 X73.715 Y56.205 E1.81601
G1 X74.427 Y56.170 E1.86311
G1 X75.222 Y56.163 E1.91570
G1 X76.017 Y56.189 E1.96834
G1 X76.769 Y56.244 E2.01820
G1 X77.558 Y56.336 E2.07077
G1 X78.304 Y56.453 E2.12068
G1 X79.005 Y56.592 E2.16793
G1 X79.777 Y56.777 E2.22046
G1 X80.541 Y56.995 E2.27303
G1 X81.294 Y57.244 E2.32549
G1 X81.964 Y57.496 E2.37284
G1 X82.660 Y57.789 E2.42280
G1 X83.378 Y58.127 E2.47526
G1 X84.082 Y58.495 E2.52778
G1 X84.727 Y58.867 E2.57701
G1 X85.374 Y59.275 E2.62763
G1 X86.043 Y59.738 E2.68146
G1 X86.617 Y60.169 E2.72892
G1 X87.210 Y60.654 E2.77956
G1 X87.780 Y61.159 E2.82994
G1 X88.360 Y61.719 E2.88328
G1 X88.886 Y62.270 E2.93367
G1 X89.418 Y62.876 E2.98698
G1 X89.869 Y63.433 E3.03441
G1 X90.325 Y64.043 E3.08480
G1 X90.755 Y64.672 E3.13519
G1 X91.183 Y65.356 E3.18854
G1 X91.560 Y66.018 E3.23893
G1 X91.909 Y66.695 E3.28933
G1 X92.213 Y67.345 E3.33678
G1 X92.525 Y68.088 E3.39009
G1 X92.790 Y68.803 E3.44049
G1 X93.026 Y69.527 E3.49089
G1 X93.246 Y70.310 E3.54469
G1 X93.421 Y71.056 E3.59534
G1 X93.566 Y71.808 E3.64600
G1 X93.681 Y72.565 E3.69665
G1 X93.764 Y73.326 E3.74731
G1 X93.814 Y74.042 E3.79475
G1 X93.838 Y74.856 E3.84860
G1 X93.829 Y75.621 E3.89924
G1 X93.788 Y76.385 E3.94985
G1 X93.710 Y77.196 E4.00375
G1 X93.613 Y77.906 E4.05113
G1 X93.480 Y78.660 E4.10177
G1 X93.316 Y79.408 E4.15242
G1 X93.107 Y80.197 E4.20637
G1 X92.897 Y80.881 E4.25370
G1 X92.643 Y81.603 E4.30433
G1 X92.361 Y82.314 E4.35495
G1 X92.028 Y83.059 E4.40892
G1 X91.686 Y83.744 E4.45956
G1 X91.317 Y84.415 E4.51020
G1 X90.948 Y85.027 E4.55745
G1 X90.499 Y85.709 E4.61150
G1 X90.051 Y86.330 E4.66215
G1 X89.578 Y86.933 E4.71279
G1 X89.081 Y87.515 E4.76342
G1 X88.597 Y88.038 E4.81058
G1 X88.019 Y88.616 E4.86463
G1 X87.455 Y89.134 E4.91524
G1 X86.871 Y89.628 E4.96584
G1 X86.243 Y90.116 E5.01850
G1 X85.614 Y90.564 E5.06955
G1 X84.995 Y90.969 E5.11848
G1 X84.359 Y91.349 E5.16749
G1 X83.654 Y91.734 E5.22062
G1 X82.978 Y92.066 E5.27044
G1 X82.246 Y92.389 E5.32332
G1 X81.502 Y92.680 E5.37617
G1 X80.790 Y92.927 E5.42604
G1 X80.068 Y93.144 E5.47589
G1 X79.384 Y93.321 E5.52263
G1 X78.603 Y93.491 E5.57549
G1 X77.814 Y93.627 E5.62847
G1 X77.067 Y93.725 E5.67825
G1 X76.269 Y93.796 E5.73124
G1 X75.517 Y93.832 E5.78105
G1 X74.813 Y93.837 E5.82761
G1 X74.013 Y93.813 E5.88056
G1 X73.213 Y93.754 E5.93363
G1 X72.417 Y93.660 E5.98666
G1 X71.723 Y93.551 E6.03311
G1 X70.985 Y93.406 E6.08287
G1 X70.204 Y93.218 E6.13595
G1 X69.481 Y93.012 E6.18566
G1 X68.719 Y92.761 E6.23879
G1 X67.968 Y92.476 E6.29187
G1 X67.323 Y92.203 E6.33821
G1 X66.642 Y91.883 E6.38795
G1 X65.931 Y91.512 E6.44106
G1 X65.227 Y91.105 E6.49479
G1 X64.604 Y90.710 E6.54358
G1 X64.029 Y90.314 E6.58980
G1 X63.409 Y89.850 E6.64101
G1 X62.770 Y89.329 E6.69550
G1 X62.212 Y88.833 E6.74491
G1 X61.637 Y88.279 E6.79770
G1 X61.088 Y87.702 E6.85040
G1 X60.595 Y87.140 E6.89988
G1 X60.155 Y86.598 E6.94602
G1 X59.678 Y85.960 E6.99873
G1 X59.227 Y85.301 E7.05154
G1 X58.831 Y84.668 E7.10091
G1 X58.436 Y83.974 E7.15373
G1 X58.072 Y83.265 E7.20646
G1 X57.777 Y82.633 E7.25255
G1 X57.488 Y81.944 E7.30200
