; generated by Slic3r 1.1.7 on 2014-12-01 at 23:04:59

; perimeters extrusion width = 0.40mm
; infill extrusion width = 0.42mm
; solid infill extrusion width = 0.42mm
; top infill extrusion width = 0.42mm
; support material extrusion width = 0.40mm

G21 ; set units to millimeters
M107
M104 S215 ; set temperature
G29; Calibrate Z-axis
G28 ; home all axes
G1 Z5 F5000 ; lift nozzle

M109 S215 ; wait for temperature to be reached
G90 ; use absolute coordinates
G92 E0
M82 ; use absolute distances for extrusion
M106 S89
G1 F1800.000 E-1.00000
G1 Z0.550 F5400.000
G92 E0
G1 X32.644 Y52.030 F5400.000
G1 Z0.350 F5400.000
G1 E1.00000 F1800.000
G1 X34.061 Y51.244 E1.07374 F1080.000
G1 X35.355 Y50.769 E1.13650
G1 X36.538 Y50.508 E1.19165
G1 X37.526 Y50.406 E1.23690
G1 X38.186 Y50.386 E1.26692
G1 X112.165 Y50.392 E4.63488
G1 X113.116 Y50.460 E4.67829
G1 X114.039 Y50.614 E4.72089
G1 X115.101 Y50.910 E4.77106
G1 X116.004 Y51.281 E4.81552
G1 X116.517 Y51.541 E4.84171
G1 X117.483 Y52.114 E4.89285
G1 X118.215 Y52.672 E4.93473
G1 X119.024 Y53.440 E4.98554
G1 X119.655 Y54.197 E5.03039
G1 X120.245 Y55.075 E5.07856
G1 X120.776 Y56.102 E5.13120
G1 X121.217 Y57.311 E5.18977
G1 X121.521 Y58.774 E5.25782
G1 X121.614 Y60.044 E5.31577
G1 X121.520 Y91.018 E6.72588
G1 X121.234 Y92.527 E6.79583
G1 X120.764 Y93.914 E6.86247
G1 X120.387 Y94.667 E6.90081
G1 X119.567 Y95.861 E6.96678
G1 X118.522 Y97.009 E7.03742
G1 X117.356 Y97.970 E7.10624
G1 X115.939 Y98.756 E7.17999
G1 X114.645 Y99.231 E7.24274
G1 X113.462 Y99.492 E7.29790
G1 X112.474 Y99.594 E7.34314
G1 X111.814 Y99.614 E7.37316
G1 X37.835 Y99.608 E10.74113
G1 X36.884 Y99.540 E10.78454
G1 X35.961 Y99.386 E10.82713
G1 X34.899 Y99.090 E10.87730
G1 X33.996 Y98.719 E10.92176
G1 X33.483 Y98.459 E10.94795
G1 X32.516 Y97.886 E10.99910
G1 X31.785 Y97.328 E11.04097
G1 X30.976 Y96.560 E11.09178
G1 X30.345 Y95.803 E11.13664
G1 X29.755 Y94.925 E11.18481
G1 X29.224 Y93.898 E11.23744
G1 X28.783 Y92.689 E11.29602
G1 X28.479 Y91.225 E11.36406
G1 X28.386 Y89.956 E11.42201
G1 X28.480 Y58.982 E12.83213
G1 X28.766 Y57.473 E12.90208
G1 X29.236 Y56.086 E12.96871
G1 X29.613 Y55.333 E13.00705
G1 X30.433 Y54.139 E13.07302
G1 X31.478 Y52.991 E13.14367
G1 X32.598 Y52.068 E13.20975
G1 X33.002 Y53.873 F5400.000
G1 X33.913 Y53.570 E13.25349 F1080.000
G1 X34.514 Y53.172 E13.28628
G1 X36.414 Y52.392 E13.37979
G1 X36.738 Y52.454 E13.39482
G1 X38.251 Y52.262 E13.46427
G1 X38.465 Y52.342 E13.47464
G1 X112.157 Y52.342 E16.82951
G1 X112.299 Y52.319 E16.83605
G1 X112.467 Y52.342 E16.84377
G1 X112.828 Y52.342 E16.86021
G1 X112.982 Y52.416 E16.86803
G1 X113.651 Y52.511 E16.89878
G1 X113.805 Y52.511 E16.90576
G1 X113.911 Y52.547 E16.91087
G1 X114.120 Y52.577 E16.92046
G1 X114.299 Y52.697 E16.93030
G1 X114.867 Y52.911 E16.95792
G1 X114.965 Y52.926 E16.96245
G1 X115.113 Y53.004 E16.97006
G1 X115.504 Y53.151 E16.98908
G1 X115.668 Y53.304 E16.99930
G1 X116.124 Y53.550 E17.02288
G1 X116.313 Y53.605 E17.03184
G1 X116.438 Y53.714 E17.03938
G1 X116.562 Y53.785 E17.04590
G1 X116.685 Y53.930 E17.05456
G1 X117.306 Y54.475 E17.09218
G1 X117.528 Y54.586 E17.10349
G1 X118.331 Y55.706 E17.16625
G1 X118.574 Y55.887 E17.18004
G1 X119.237 Y57.505 E17.25963
G1 X119.468 Y57.772 E17.27571
G1 X119.640 Y59.690 E17.36335
G1 X119.658 Y59.736 E17.36560
G1 X119.658 Y90.230 E18.75388
G1 X119.615 Y90.601 E18.77087
G1 X119.522 Y90.996 E18.78936
G1 X119.440 Y91.222 E18.80030
G1 X119.438 Y91.325 E18.80500
G1 X119.612 Y91.849 E18.83013
G1 X118.043 Y94.980 E18.98955
G1 X117.542 Y95.146 E19.01358
G1 X117.450 Y95.226 E19.01912
G1 X116.998 Y96.127 E19.06502
G1 X116.087 Y96.430 E19.10875
G1 X115.486 Y96.828 E19.14155
G1 X113.586 Y97.608 E19.23506
G1 X113.262 Y97.546 E19.25009
G1 X111.749 Y97.738 E19.31954
G1 X111.535 Y97.658 E19.32991
G1 X37.843 Y97.658 E22.68478
G1 X37.701 Y97.681 E22.69131
G1 X37.533 Y97.658 E22.69904
G1 X37.172 Y97.658 E22.71548
G1 X37.018 Y97.584 E22.72329
G1 X36.349 Y97.489 E22.75404
G1 X36.195 Y97.489 E22.76103
G1 X36.089 Y97.453 E22.76614
G1 X35.880 Y97.423 E22.77573
G1 X35.701 Y97.303 E22.78556
G1 X35.133 Y97.089 E22.81318
G1 X35.035 Y97.074 E22.81772
G1 X34.887 Y96.996 E22.82533
G1 X34.496 Y96.849 E22.84434
G1 X34.332 Y96.696 E22.85456
G1 X33.876 Y96.450 E22.87814
G1 X33.687 Y96.395 E22.88711
G1 X33.562 Y96.286 E22.89465
G1 X33.438 Y96.215 E22.90116
G1 X33.315 Y96.070 E22.90982
G1 X32.694 Y95.525 E22.94744
G1 X32.472 Y95.414 E22.95875
G1 X31.669 Y94.294 E23.02151
G1 X31.426 Y94.113 E23.03530
G1 X30.763 Y92.495 E23.11489
G1 X30.532 Y92.227 E23.13098
G1 X30.360 Y90.310 E23.21861
G1 X30.342 Y90.264 E23.22087
G1 X30.342 Y59.770 E24.60914
G1 X30.385 Y59.399 E24.62614
G1 X30.478 Y59.004 E24.64462
G1 X30.560 Y58.778 E24.65557
G1 X30.562 Y58.675 E24.66027
G1 X30.388 Y58.151 E24.68540
G1 X31.957 Y55.021 E24.84481
G1 X32.458 Y54.854 E24.86885
G1 X32.550 Y54.774 E24.87438
G1 X32.975 Y53.927 E24.91755
G1 X33.218 Y54.123 F5400.000
G1 X34.072 Y53.839 E24.95854 F1080.000
G1 X34.216 Y53.726 E24.96686
G1 X34.655 Y53.445 E24.99061
G1 X36.441 Y52.711 E25.07852
G1 X36.724 Y52.764 E25.09161
G1 X38.206 Y52.576 E25.15961
G1 X38.401 Y52.647 E25.16906
G1 X112.183 Y52.647 E28.52804
G1 X112.303 Y52.629 E28.53359
G1 X112.445 Y52.647 E28.54010
G1 X112.748 Y52.647 E28.55390
G1 X112.883 Y52.711 E28.56069
G1 X113.631 Y52.816 E28.59506
G1 X113.750 Y52.817 E28.60049
G1 X114.004 Y52.869 E28.61228
G1 X114.155 Y52.970 E28.62053
G1 X114.797 Y53.211 E28.65179
G1 X114.875 Y53.224 E28.65537
G1 X115.335 Y53.414 E28.67805
G1 X115.484 Y53.552 E28.68731
G1 X116.010 Y53.836 E28.71450
G1 X116.165 Y53.881 E28.72184
G1 X116.364 Y54.026 E28.73305
G1 X116.465 Y54.144 E28.74011
G1 X117.137 Y54.734 E28.78083
G1 X117.327 Y54.829 E28.79048
G1 X118.113 Y55.927 E28.85197
G1 X118.326 Y56.086 E28.86405
G1 X118.975 Y57.670 E28.94199
G1 X119.172 Y57.902 E28.95586
G1 X119.353 Y59.830 E29.04403
G1 X119.353 Y90.212 E30.42719
G1 X119.314 Y90.548 E30.44257
G1 X119.228 Y90.908 E30.45943
G1 X119.116 Y91.217 E30.47441
G1 X119.115 Y91.321 E30.47911
G1 X119.282 Y91.825 E30.50331
G1 X117.827 Y94.729 E30.65120
G1 X117.326 Y94.896 E30.67523
G1 X117.234 Y94.975 E30.68077
G1 X116.782 Y95.877 E30.72667
G1 X115.928 Y96.161 E30.76765
G1 X115.784 Y96.274 E30.77598
G1 X115.345 Y96.555 E30.79973
G1 X113.559 Y97.289 E30.88764
G1 X113.276 Y97.236 E30.90072
G1 X111.794 Y97.424 E30.96873
G1 X111.599 Y97.353 E30.97817
G1 X37.817 Y97.353 E34.33716
G1 X37.697 Y97.371 E34.34270
G1 X37.555 Y97.353 E34.34922
G1 X37.252 Y97.353 E34.36302
G1 X37.117 Y97.289 E34.36981
G1 X36.369 Y97.184 E34.40417
G1 X36.250 Y97.183 E34.40961
G1 X35.996 Y97.131 E34.42139
G1 X35.845 Y97.030 E34.42965
G1 X35.203 Y96.789 E34.46091
G1 X35.125 Y96.776 E34.46449
G1 X34.665 Y96.586 E34.48716
G1 X34.516 Y96.448 E34.49642
G1 X33.990 Y96.164 E34.52361
G1 X33.835 Y96.119 E34.53095
G1 X33.636 Y95.974 E34.54217
G1 X33.535 Y95.856 E34.54922
G1 X32.863 Y95.266 E34.58995
G1 X32.673 Y95.171 E34.59960
G1 X31.887 Y94.073 E34.66109
G1 X31.674 Y93.914 E34.67317
G1 X31.025 Y92.330 E34.75111
G1 X30.828 Y92.098 E34.76497
G1 X30.640 Y90.008 E34.86049
G1 X30.647 Y59.788 E36.23631
G1 X30.686 Y59.452 E36.25168
G1 X30.772 Y59.092 E36.26855
G1 X30.884 Y58.782 E36.28352
G1 X30.885 Y58.679 E36.28823
G1 X30.718 Y58.175 E36.31242
G1 X32.173 Y55.271 E36.46031
G1 X32.674 Y55.104 E36.48434
G1 X32.766 Y55.025 E36.48988
G1 X33.191 Y54.177 E36.53305
G1 X33.435 Y54.373 F5400.000
G1 X34.232 Y54.109 E36.57129 F1080.000
G1 X34.403 Y53.968 E36.58138
G1 X34.797 Y53.717 E36.60263
G1 X36.469 Y53.030 E36.68493
G1 X36.710 Y53.074 E36.69608
G1 X38.160 Y52.890 E36.76264
G1 X38.336 Y52.953 E36.77115
G1 X112.209 Y52.953 E40.13426
G1 X112.308 Y52.938 E40.13881
G1 X112.669 Y52.953 E40.15524
G1 X112.784 Y53.006 E40.16101
G1 X113.888 Y53.162 E40.21176
G1 X114.010 Y53.242 E40.21843
G1 X115.167 Y53.677 E40.27469
G1 X115.301 Y53.801 E40.28299
G1 X115.897 Y54.122 E40.31379
G1 X116.017 Y54.158 E40.31951
G1 X116.167 Y54.267 E40.32795
G1 X116.245 Y54.358 E40.33340
G1 X116.968 Y54.993 E40.37723
G1 X117.125 Y55.072 E40.38522
G1 X117.895 Y56.148 E40.44543
G1 X118.077 Y56.285 E40.45581
G1 X118.712 Y57.836 E40.53210
G1 X118.877 Y58.031 E40.54374
G1 X119.054 Y59.998 E40.63362
G1 X119.047 Y90.195 E42.00835
G1 X119.012 Y90.495 E42.02211
G1 X118.935 Y90.821 E42.03735
G1 X118.794 Y91.179 E42.05488
G1 X118.786 Y91.300 E42.06042
G1 X118.952 Y91.801 E42.08445
G1 X117.610 Y94.479 E42.22081
G1 X117.109 Y94.646 E42.24484
G1 X117.017 Y94.725 E42.25038
G1 X116.565 Y95.627 E42.29628
G1 X115.768 Y95.891 E42.33452
G1 X115.597 Y96.032 E42.34461
G1 X115.203 Y96.283 E42.36586
G1 X113.531 Y96.970 E42.44817
G1 X113.290 Y96.926 E42.45931
G1 X111.840 Y97.110 E42.52587
G1 X111.664 Y97.047 E42.53438
G1 X37.791 Y97.047 E45.89749
G1 X37.692 Y97.062 E45.90204
G1 X37.331 Y97.047 E45.91847
G1 X37.216 Y96.994 E45.92424
G1 X36.112 Y96.838 E45.97499
G1 X35.990 Y96.758 E45.98166
G1 X34.833 Y96.323 E46.03792
G1 X34.699 Y96.199 E46.04622
G1 X34.103 Y95.878 E46.07702
G1 X33.983 Y95.842 E46.08274
G1 X33.833 Y95.733 E46.09118
G1 X33.755 Y95.642 E46.09663
G1 X33.031 Y95.007 E46.14046
G1 X32.875 Y94.928 E46.14845
G1 X32.105 Y93.852 E46.20866
G1 X31.923 Y93.715 E46.21904
G1 X31.288 Y92.164 E46.29533
G1 X31.123 Y91.969 E46.30697
G1 X30.946 Y90.002 E46.39686
G1 X30.953 Y59.805 E47.77158
G1 X30.988 Y59.505 E47.78534
G1 X31.065 Y59.179 E47.80058
G1 X31.206 Y58.821 E47.81811
G1 X31.214 Y58.700 E47.82365
G1 X31.048 Y58.199 E47.84768
G1 X32.390 Y55.521 E47.98404
G1 X32.891 Y55.354 E48.00807
G1 X32.983 Y55.275 E48.01361
G1 X33.408 Y54.427 E48.05678
G1 X33.651 Y54.624 F5400.000
G1 X34.391 Y54.378 E48.09227 F1080.000
G1 X34.591 Y54.211 E48.10412
G1 X34.938 Y53.989 E48.12287
G1 X36.497 Y53.349 E48.19958
G1 X36.696 Y53.384 E48.20878
G1 X38.115 Y53.204 E48.27389
G1 X38.272 Y53.259 E48.28148
G1 X112.313 Y53.248 E51.65223
G1 X112.589 Y53.259 E51.66482
G1 X112.685 Y53.300 E51.66957
G1 X113.772 Y53.454 E51.71955
G1 X113.866 Y53.514 E51.72464
G1 X114.998 Y53.941 E51.77972
G1 X115.117 Y54.049 E51.78706
G1 X115.783 Y54.408 E51.82146
G1 X115.869 Y54.435 E51.82556
G1 X116.800 Y55.252 E51.88195
G1 X116.923 Y55.316 E51.88828
G1 X117.677 Y56.368 E51.94722
G1 X117.828 Y56.484 E51.95589
G1 X118.450 Y58.001 E52.03053
G1 X118.582 Y58.161 E52.03995
G1 X118.747 Y60.004 E52.12421
G1 X118.741 Y90.177 E53.49784
G1 X118.710 Y90.442 E53.50998
G1 X118.641 Y90.733 E53.52360
G1 X118.550 Y90.984 E53.53574
G1 X118.464 Y91.155 E53.54449
G1 X118.456 Y91.277 E53.55003
G1 X118.622 Y91.778 E53.57406
G1 X117.393 Y94.229 E53.69889
G1 X116.892 Y94.395 E53.72292
G1 X116.800 Y94.475 E53.72846
G1 X116.349 Y95.376 E53.77436
G1 X115.609 Y95.622 E53.80985
G1 X115.409 Y95.789 E53.82170
G1 X115.062 Y96.011 E53.84045
G1 X113.503 Y96.651 E53.91716
G1 X113.304 Y96.616 E53.92636
G1 X111.885 Y96.796 E53.99147
G1 X111.728 Y96.741 E53.99906
G1 X37.687 Y96.752 E57.36980
G1 X37.411 Y96.741 E57.38240
G1 X37.315 Y96.700 E57.38715
G1 X36.228 Y96.546 E57.43713
G1 X36.134 Y96.486 E57.44222
G1 X35.002 Y96.059 E57.49730
G1 X34.883 Y95.951 E57.50463
G1 X34.217 Y95.592 E57.53904
G1 X34.131 Y95.565 E57.54314
G1 X33.200 Y94.748 E57.59953
G1 X33.077 Y94.684 E57.60586
G1 X32.323 Y93.632 E57.66480
G1 X32.172 Y93.516 E57.67347
G1 X31.550 Y91.999 E57.74811
G1 X31.418 Y91.839 E57.75753
G1 X31.253 Y89.996 E57.84179
G1 X31.259 Y59.823 E59.21541
G1 X31.290 Y59.558 E59.22755
G1 X31.359 Y59.267 E59.24118
G1 X31.450 Y59.016 E59.25332
G1 X31.536 Y58.845 E59.26207
G1 X31.545 Y58.723 E59.26761
G1 X31.378 Y58.222 E59.29164
G1 X32.607 Y55.771 E59.41646
G1 X33.108 Y55.605 E59.44050
G1 X33.200 Y55.525 E59.44603
G1 X33.624 Y54.677 E59.48920
G1 X33.868 Y54.874 F5400.000
G1 X34.550 Y54.647 E59.52195 F1080.000
G1 X34.779 Y54.454 E59.53557
G1 X35.080 Y54.262 E59.55182
G1 X36.524 Y53.669 E59.62292
G1 X36.682 Y53.694 E59.63018
G1 X38.069 Y53.518 E59.69385
G1 X38.208 Y53.565 E59.70050
G1 X112.318 Y53.557 E63.07439
G1 X112.510 Y53.565 E63.08315
G1 X112.586 Y53.595 E63.08687
G1 X113.656 Y53.746 E63.13609
G1 X113.722 Y53.787 E63.13960
G1 X114.830 Y54.204 E63.19350
G1 X114.934 Y54.298 E63.19987
G1 X115.720 Y54.712 E63.24034
G1 X116.631 Y55.510 E63.29549
G1 X116.721 Y55.559 E63.30016
G1 X117.459 Y56.589 E63.35783
G1 X117.579 Y56.683 E63.36479
G1 X118.148 Y58.102 E63.43436
G1 X118.186 Y58.179 E63.43829
G1 X118.286 Y58.290 E63.44510
G1 X118.441 Y60.010 E63.52372
G1 X118.435 Y90.159 E64.89626
G1 X118.409 Y90.389 E64.90678
G1 X118.348 Y90.645 E64.91879
G1 X118.269 Y90.862 E64.92931
G1 X118.134 Y91.132 E64.94302
G1 X118.125 Y91.253 E64.94855
G1 X118.292 Y91.754 E64.97259
G1 X117.177 Y93.979 E65.08588
G1 X116.676 Y94.145 E65.10991
G1 X116.584 Y94.225 E65.11545
G1 X116.132 Y95.126 E65.16135
G1 X115.450 Y95.353 E65.19410
G1 X115.221 Y95.546 E65.20772
G1 X114.920 Y95.738 E65.22397
G1 X113.476 Y96.331 E65.29507
G1 X113.318 Y96.306 E65.30233
G1 X111.931 Y96.482 E65.36600
G1 X111.792 Y96.435 E65.37265
G1 X37.682 Y96.443 E68.74654
G1 X37.490 Y96.435 E68.75530
G1 X37.414 Y96.405 E68.75902
G1 X36.344 Y96.254 E68.80823
G1 X36.278 Y96.213 E68.81175
G1 X35.170 Y95.796 E68.86565
G1 X35.066 Y95.702 E68.87202
G1 X34.280 Y95.288 E68.91249
G1 X33.369 Y94.490 E68.96764
G1 X33.279 Y94.441 E68.97231
G1 X32.541 Y93.411 E69.02998
G1 X32.421 Y93.317 E69.03693
G1 X31.852 Y91.898 E69.10651
G1 X31.814 Y91.821 E69.11044
G1 X31.714 Y91.710 E69.11725
G1 X31.559 Y89.990 E69.19587
G1 X31.565 Y59.841 E70.56841
G1 X31.591 Y59.611 E70.57893
G1 X31.652 Y59.355 E70.59094
G1 X31.731 Y59.138 E70.60146
G1 X31.866 Y58.868 E70.61516
G1 X31.875 Y58.747 E70.62070
G1 X31.708 Y58.246 E70.64473
G1 X32.823 Y56.021 E70.75803
G1 X33.324 Y55.855 E70.78206
G1 X33.416 Y55.775 E70.78760
G1 X33.841 Y54.928 E70.83077
G1 X34.084 Y55.124 F5400.000
G1 X34.710 Y54.916 E70.86077 F1080.000
G1 X34.967 Y54.697 E70.87615
G1 X35.221 Y54.534 E70.88990
G1 X36.552 Y53.988 E70.95540
G1 X36.636 Y54.006 E70.95932
G1 X36.727 Y53.999 E70.96344
G1 X38.024 Y53.832 E71.02299
G1 X38.144 Y53.870 E71.02872
G1 X112.322 Y53.867 E74.40575
G1 X113.540 Y54.039 E74.46174
G1 X114.661 Y54.467 E74.51638
G1 X114.750 Y54.546 E74.52179
G1 X115.572 Y54.986 E74.56423
G1 X116.520 Y55.802 E74.62117
G1 X117.241 Y56.810 E74.67757
G1 X117.330 Y56.883 E74.68282
G1 X117.843 Y58.134 E74.74438
G1 X117.862 Y58.242 E74.74939
G1 X117.900 Y58.320 E74.75332
G1 X117.991 Y58.420 E74.75947
G1 X118.135 Y60.017 E74.83246
G1 X118.130 Y90.141 E76.20390
G1 X118.055 Y90.558 E76.22316
G1 X117.988 Y90.741 E76.23207
G1 X117.804 Y91.108 E76.25073
G1 X117.795 Y91.229 E76.25627
G1 X117.962 Y91.730 E76.28030
G1 X116.960 Y93.728 E76.38206
G1 X116.459 Y93.895 E76.40609
G1 X116.367 Y93.974 E76.41163
G1 X115.915 Y94.876 E76.45753
G1 X115.290 Y95.084 E76.48753
G1 X115.033 Y95.303 E76.50292
G1 X114.779 Y95.466 E76.51667
G1 X113.448 Y96.012 E76.58216
G1 X113.364 Y95.994 E76.58609
G1 X113.273 Y96.001 E76.59021
G1 X111.976 Y96.168 E76.64975
G1 X111.856 Y96.130 E76.65548
G1 X37.678 Y96.133 E80.03251
G1 X36.460 Y95.961 E80.08851
G1 X35.339 Y95.533 E80.14315
G1 X35.250 Y95.454 E80.14856
G1 X34.428 Y95.014 E80.19100
G1 X33.480 Y94.198 E80.24794
G1 X32.759 Y93.190 E80.30434
G1 X32.670 Y93.117 E80.30959
G1 X32.157 Y91.866 E80.37115
G1 X32.138 Y91.758 E80.37615
G1 X32.100 Y91.680 E80.38008
G1 X32.009 Y91.580 E80.38624
G1 X31.865 Y89.983 E80.45923
G1 X31.870 Y59.859 E81.83067
G1 X31.945 Y59.442 E81.84993
G1 X32.012 Y59.259 E81.85883
G1 X32.196 Y58.892 E81.87749
G1 X32.205 Y58.771 E81.88303
G1 X32.038 Y58.270 E81.90707
G1 X33.040 Y56.272 E82.00883
G1 X33.541 Y56.105 E82.03286
G1 X33.633 Y56.026 E82.03840
G1 X34.058 Y55.178 E82.08157
G1 X34.301 Y55.374 F5400.000
G1 X34.869 Y55.186 E82.10882 F1080.000
G1 X35.155 Y54.940 E82.12597
G1 X35.363 Y54.807 E82.13722
G1 X36.580 Y54.307 E82.19711
G1 X36.661 Y54.325 E82.20090
G1 X36.751 Y54.318 E82.20502
G1 X36.813 Y54.294 E82.20802
G1 X37.978 Y54.146 E82.26151
G1 X38.079 Y54.176 E82.26631
G1 X112.325 Y54.175 E85.64638
G1 X113.437 Y54.333 E85.69754
G1 X114.493 Y54.730 E85.74888
G1 X114.567 Y54.794 E85.75333
G1 X115.398 Y55.242 E85.79630
G1 X116.315 Y56.041 E85.85169
G1 X116.985 Y56.980 E85.90418
G1 X117.081 Y57.082 E85.91058
G1 X117.548 Y58.219 E85.96655
