; generated by Slic3r 1.1.7 on 2015-01-20 at 22:43:46

; perimeters extrusion width = 0.40mm
; infill extrusion width = 0.42mm
; solid infill extrusion width = 0.42mm
; top infill extrusion width = 0.42mm

G21 ; set units to millimeters
M107
M190 S35 ; wait for bed temperature to be reached
M104 S195 ; set temperature
G28 ; home all axes
G29 ;
G1 Z5 F5000 ; lift nozzle

M109 S195 ; wait for temperature to be reached
G90 ; use absolute coordinates
G92 E0
M82 ; use absolute distances for extrusion
G1 F1800.000 E-1.00000
G92 E0
G1 Z0.350 F7800.000
G1 X63.501 Y60.895 F7800.000
G1 E1.00000 F1800.000
G1 X63.769 Y60.626 E1.03512 F1080.000
G1 X64.465 Y60.070 E1.11746
G1 X65.136 Y59.654 E1.19058
G1 X65.943 Y59.277 E1.27292
G1 X66.791 Y59.005 E1.35527
G1 X67.666 Y58.841 E1.43760
G1 X68.655 Y58.790 E1.52917
G1 X69.542 Y58.861 E1.61151 F1080.000
G1 X70.324 Y59.019 E1.68526
G1 X71.467 Y59.420 E1.79734
G1 X72.444 Y59.879 E1.89717
G1 X73.373 Y60.428 E1.99700
G1 X74.247 Y61.061 E2.09682
G1 X75.004 Y61.722 E2.18974
G1 X75.798 Y62.559 E2.29648
G1 X76.418 Y63.350 E2.38940
G1 X77.004 Y64.257 E2.48923
G1 X77.533 Y65.282 E2.59597
G1 X77.932 Y66.285 E2.69580
G1 X78.218 Y67.248 E2.78872
G1 X78.441 Y68.380 E2.89545
G1 X78.545 Y69.455 E2.99528
G1 X78.551 Y70.459 E3.08820
G1 X78.460 Y71.535 E3.18803
G1 X78.255 Y72.653 E3.29320
G1 X76.107 Y80.669 E4.06075
G1 X74.967 Y81.327 E4.18251
G1 X71.958 Y80.521 E4.47068
G1 X71.335 Y79.851 E4.55523
G1 X71.092 Y78.579 E4.67503
G1 X70.880 Y77.826 E4.74743
G1 X70.603 Y77.093 E4.81983
G1 X70.264 Y76.388 E4.89223
G1 X69.849 Y75.692 E4.96720
G1 X69.390 Y75.057 E5.03960
G1 X68.897 Y74.486 E5.10944
G1 X68.316 Y73.920 E5.18440
G1 X67.732 Y73.442 E5.25424
G1 X67.085 Y73.001 E5.32664
G1 X66.485 Y72.664 E5.39028
G1 X65.806 Y72.422 E5.45700
G1 X65.094 Y72.078 E5.53012
G1 X64.264 Y71.539 E5.62168
G1 X63.660 Y71.029 E5.69480
G1 X63.053 Y70.378 E5.77714
G1 X62.479 Y69.571 E5.86870
G1 X62.064 Y68.783 E5.95105
G1 X61.751 Y67.950 E6.03339
G1 X61.562 Y67.182 E6.10651
G1 X61.448 Y66.199 E6.19807
G1 X61.464 Y65.309 E6.28041
G1 X61.591 Y64.428 E6.36275
G1 X61.796 Y63.664 E6.43587
G1 X62.126 Y62.837 E6.51822
G1 X62.612 Y61.975 E6.60978
G1 X63.084 Y61.340 E6.68290
G1 X63.460 Y60.939 E6.73379
G1 X63.960 Y61.335 F7800.000
G1 X64.184 Y61.107 E6.76338 F1080.000
G1 X64.816 Y60.600 E6.83833
G1 X65.454 Y60.204 E6.90776
G1 X66.190 Y59.864 E6.98272
G1 X67.020 Y59.603 E7.06321
G1 X67.818 Y59.464 E7.13816
G1 X68.568 Y59.424 E7.20759
G1 X69.377 Y59.480 E7.28255 F1080.000
G1 X70.176 Y59.637 E7.35788
G1 X71.171 Y59.986 E7.45539
G1 X72.096 Y60.414 E7.54969
G1 X72.977 Y60.928 E7.64399
G1 X73.840 Y61.550 E7.74243
G1 X74.607 Y62.222 E7.83673
G1 X75.278 Y62.929 E7.92689
G1 X75.934 Y63.767 E8.02533
G1 X76.461 Y64.587 E8.11549
G1 X76.930 Y65.492 E8.20979
G1 X77.327 Y66.480 E8.30823
G1 X77.615 Y67.458 E8.40253
G1 X77.803 Y68.414 E8.49269
G1 X77.907 Y69.429 E8.58699
G1 X77.916 Y70.448 E8.68128
G1 X77.822 Y71.508 E8.77973
G1 X77.638 Y72.501 E8.87308
G1 X75.561 Y80.250 E9.61512
G1 X74.877 Y80.645 E9.68817
G1 X72.299 Y79.954 E9.93509
G1 X71.925 Y79.552 E9.98582
G1 X71.711 Y78.433 E10.09127
G1 X71.484 Y77.626 E10.16880
G1 X71.188 Y76.842 E10.24633
G1 X70.824 Y76.086 E10.32386
G1 X70.381 Y75.343 E10.40394
G1 X69.890 Y74.663 E10.48147
G1 X69.360 Y74.049 E10.55644
G1 X68.740 Y73.445 E10.63653
G1 X68.112 Y72.933 E10.71149
G1 X67.420 Y72.460 E10.78902
G1 X66.744 Y72.080 E10.86070
G1 X66.064 Y71.841 E10.92737
G1 X65.388 Y71.515 E10.99680
G1 X64.659 Y71.041 E11.07729
G1 X64.085 Y70.556 E11.14671
G1 X63.534 Y69.962 E11.22167
G1 X63.030 Y69.253 E11.30216
G1 X62.650 Y68.537 E11.37712
G1 X62.363 Y67.779 E11.45207
G1 X62.184 Y67.050 E11.52150
G1 X62.084 Y66.186 E11.60199
G1 X62.096 Y65.375 E11.67695
G1 X62.210 Y64.573 E11.75190
G1 X62.404 Y63.848 E11.82133
G1 X62.707 Y63.096 E11.89629
G1 X63.134 Y62.338 E11.97678
G1 X63.582 Y61.735 E12.04621
G1 X63.919 Y61.379 E12.09156
G1 F1800.000 E11.09156
G92 E0
G1 X74.788 Y79.963 F7800.000
G1 E1.00000 F1800.000
G1 X72.640 Y79.388 E1.20566 F1080.000
G1 X72.515 Y79.254 E1.22256
G1 X72.324 Y78.259 E1.31624
G1 X72.079 Y77.400 E1.39889
G1 X71.761 Y76.565 E1.48154
G1 X71.384 Y75.785 E1.56164
G1 X70.928 Y75.017 E1.64429
G1 X70.389 Y74.269 E1.72950
G1 X69.824 Y73.613 E1.80960
G1 X69.184 Y72.989 E1.89225
G1 X68.471 Y72.406 E1.97747
G1 X67.755 Y71.919 E2.05756
G1 X67.003 Y71.497 E2.13729
G1 X66.323 Y71.260 E2.20390
G1 X65.683 Y70.951 E2.26963
G1 X65.054 Y70.542 E2.33905
G1 X64.511 Y70.084 E2.40478
G1 X64.015 Y69.547 E2.47235
G1 X63.591 Y68.952 E2.53993
G1 X63.245 Y68.309 E2.60750
G1 X62.976 Y67.608 E2.67692
G1 X62.803 Y66.898 E2.74450
G1 X62.721 Y66.192 E2.81023
G1 X62.729 Y65.442 E2.87964
G1 X62.829 Y64.718 E2.94722
G1 X63.013 Y64.032 E3.01295
G1 X63.297 Y63.337 E3.08237
G1 X63.646 Y62.717 E3.14810
G1 X64.080 Y62.130 E3.21567
G1 X64.600 Y61.588 E3.28509
G1 X65.152 Y61.141 E3.35082
G1 X65.772 Y60.755 E3.41840
G1 X66.436 Y60.450 E3.48597
G1 X67.133 Y60.230 E3.55355
G1 X67.852 Y60.100 E3.62112
G1 X68.601 Y60.060 E3.69054
G1 X69.330 Y60.115 E3.75811
G1 X70.050 Y60.262 E3.82606
G1 X70.944 Y60.580 E3.91381
G1 X71.814 Y60.984 E4.00258
G1 X72.655 Y61.477 E4.09273
G1 X73.434 Y62.038 E4.18150
G1 X74.156 Y62.670 E4.27027
G1 X74.816 Y63.367 E4.35904
G1 X75.399 Y64.111 E4.44643
G1 X75.917 Y64.918 E4.53520
G1 X76.358 Y65.771 E4.62398
G1 X76.722 Y66.675 E4.71413
G1 X76.994 Y67.595 E4.80290
G1 X77.177 Y68.522 E4.89029
G1 X77.274 Y69.492 E4.98044
G1 X77.280 Y70.437 E5.06783
G1 X77.196 Y71.393 E5.15660
G1 X77.021 Y72.348 E5.24644
G1 X75.016 Y79.831 E5.96295
G1 X74.839 Y79.933 E5.98176
G1 X74.495 Y79.193 F7800.000
G1 X73.113 Y78.823 E6.11411 F378.000
G1 X72.978 Y78.119 E6.18044
G1 X72.719 Y77.203 E6.26849
G1 X72.381 Y76.313 E6.35653
G1 X71.967 Y75.456 E6.44457
G1 X71.479 Y74.638 E6.53262
G1 X70.923 Y73.866 E6.62066
G1 X70.301 Y73.145 E6.70871
G1 X69.619 Y72.481 E6.79675
G1 X68.882 Y71.878 E6.88479
G1 X68.095 Y71.343 E6.97284
G1 X67.249 Y70.869 E7.06249
G1 X66.585 Y70.645 E7.12736
G1 X66.003 Y70.364 E7.18717
G1 X65.460 Y70.012 E7.24698
G1 X64.966 Y69.594 E7.30678
G1 X64.529 Y69.118 E7.36660
G1 X64.154 Y68.591 E7.42641
G1 X63.848 Y68.021 E7.48622
G1 X63.617 Y67.418 E7.54603
G1 X63.462 Y66.790 E7.60583
G1 X63.388 Y66.147 E7.66564
G1 X63.395 Y65.501 E7.72546
G1 X63.483 Y64.860 E7.78526
G1 X63.650 Y64.235 E7.84507
G1 X63.894 Y63.637 E7.90488
G1 X64.212 Y63.073 E7.96469
G1 X64.562 Y62.601 E8.01909
G1 X65.045 Y62.087 E8.08427
G1 X65.547 Y61.680 E8.14408
G1 X66.097 Y61.340 E8.20389
G1 X66.685 Y61.070 E8.26370
G1 X67.302 Y60.877 E8.32351
G1 X67.939 Y60.763 E8.38332
G1 X68.584 Y60.729 E8.44313
G1 X69.229 Y60.776 E8.50294
G1 X69.860 Y60.903 E8.56247
G1 X70.697 Y61.201 E8.64464
G1 X71.510 Y61.580 E8.72760
G1 X72.284 Y62.033 E8.81056
G1 X73.012 Y62.557 E8.89352
G1 X73.688 Y63.147 E8.97648
G1 X74.305 Y63.798 E9.05944
G1 X74.858 Y64.504 E9.14239
G1 X75.343 Y65.259 E9.22535
G1 X75.754 Y66.056 E9.30831
G1 X76.089 Y66.888 E9.39127
G1 X76.344 Y67.748 E9.47423
G1 X76.517 Y68.628 E9.55719
G1 X76.597 Y69.429 E9.63163
G1 X76.612 Y70.417 E9.72307
G1 X76.533 Y71.311 E9.80603
G1 X76.370 Y72.195 E9.88922
G1 X74.511 Y79.135 E10.55376
G1 X74.212 Y78.910 F7800.000
G1 X74.068 Y78.331 F7800.000
G1 X73.663 Y78.316 E10.59124 F540.000
G1 X73.597 Y77.972 E10.62366
G1 X73.323 Y77.003 E10.71683
G1 X72.965 Y76.061 E10.81000
G1 X72.527 Y75.154 E10.90317
G1 X72.011 Y74.289 E10.99634
G1 X71.422 Y73.472 E11.08951
G1 X70.764 Y72.709 E11.18268
G1 X70.043 Y72.006 E11.27585
G1 X69.263 Y71.369 E11.36902
G1 X68.430 Y70.802 E11.46219
G1 X67.508 Y70.285 E11.55989
G1 X66.825 Y70.056 E11.62654
G1 X66.315 Y69.809 E11.67896
G1 X65.840 Y69.500 E11.73137
G1 X65.407 Y69.135 E11.78378
G1 X65.024 Y68.717 E11.83619
G1 X64.695 Y68.256 E11.88860
G1 X64.428 Y67.756 E11.94102
G1 X64.224 Y67.227 E11.99343
G1 X64.089 Y66.677 E12.04584
G1 X64.024 Y66.114 E12.09826
G1 X64.030 Y65.547 E12.15067
G1 X64.107 Y64.986 E12.20308
G1 X64.254 Y64.438 E12.25549
G1 X64.468 Y63.914 E12.30790
G1 X64.746 Y63.420 E12.36031
G1 X65.073 Y62.980 E12.41101
G1 X65.476 Y62.556 E12.46513
G1 X65.916 Y62.200 E12.51754
G1 X66.398 Y61.901 E12.56995
G1 X66.913 Y61.665 E12.62236
G1 X67.454 Y61.496 E12.67478
G1 X68.012 Y61.395 E12.72719
G1 X68.578 Y61.366 E12.77960
G1 X69.143 Y61.407 E12.83201
G1 X69.690 Y61.517 E12.88365
G1 X70.456 Y61.790 E12.95885
G1 X71.215 Y62.143 E13.03627
G1 X71.937 Y62.566 E13.11369
G1 X72.617 Y63.055 E13.19112
G1 X73.247 Y63.606 E13.26854
G1 X73.823 Y64.213 E13.34596
G1 X74.339 Y64.872 E13.42339
G1 X74.791 Y65.577 E13.50081
G1 X75.175 Y66.321 E13.57823
G1 X75.488 Y67.097 E13.65566
G1 X75.726 Y67.900 E13.73308
G1 X75.887 Y68.721 E13.81051
G1 X75.965 Y69.492 E13.88219
G1 X75.976 Y70.391 E13.96533
G1 X75.903 Y71.225 E14.04275
G1 X75.750 Y72.055 E14.12083
G1 X74.084 Y78.273 E14.71623
G1 X74.020 Y76.055 F7800.000
G1 X73.650 Y76.074 E14.75046 F540.000
G1 X73.550 Y75.809 E14.77666
G1 X73.087 Y74.853 E14.87495
G1 X72.543 Y73.940 E14.97325
G1 X71.922 Y73.077 E15.07154
G1 X71.228 Y72.273 E15.16984
G1 X70.466 Y71.531 E15.26814
G1 X69.643 Y70.859 E15.36643
G1 X69.131 Y70.510 E15.42377
G1 X70.225 Y70.183 E15.52941
G1 X70.929 Y69.835 E15.60200
G1 X71.563 Y69.373 E15.67459
G1 X72.110 Y68.810 E15.74718
G1 X72.554 Y68.163 E15.81977
G1 X72.882 Y67.450 E15.89236
G1 X73.085 Y66.692 E15.96494
G1 X73.157 Y65.910 E16.03753
G1 X73.096 Y65.128 E16.11011
G1 X73.038 Y64.895 E16.13232
G1 X73.408 Y64.714 E16.17044
G1 X73.821 Y65.241 E16.23238
G1 X74.240 Y65.895 E16.30427
G1 X74.597 Y66.586 E16.37616
G1 X74.887 Y67.307 E16.44805
G1 X75.108 Y68.052 E16.51994
G1 X75.258 Y68.814 E16.59182
G1 X75.336 Y69.588 E16.66371
G1 X75.340 Y70.365 E16.73560
G1 X75.272 Y71.139 E16.80749
G1 X75.129 Y71.915 E16.88045
G1 X74.035 Y75.998 E17.27136
G1 X70.267 Y68.744 F7800.000
G1 X69.687 Y69.017 E17.33072 F378.000
G1 X69.213 Y69.159 E17.37642
G1 X68.649 Y69.227 E17.42899
G1 X68.081 Y69.199 E17.48156
G1 X67.458 Y69.047 E17.54092
G1 X67.000 Y68.859 E17.58662
G1 X66.519 Y68.558 E17.63920
G1 X66.095 Y68.179 E17.69177
G1 X65.741 Y67.735 E17.74434
G1 X65.467 Y67.236 E17.79691
G1 X65.281 Y66.699 E17.84949
G1 X65.189 Y66.138 E17.90206
G1 X65.206 Y65.497 E17.96142
G1 X65.293 Y65.010 E18.00712
G1 X65.486 Y64.476 E18.05969
G1 X65.767 Y63.981 E18.11227
G1 X66.127 Y63.542 E18.16484
G1 X66.557 Y63.169 E18.21741
G1 X67.043 Y62.875 E18.26999
G1 X67.572 Y62.666 E18.32256
G1 X68.203 Y62.548 E18.38192
G1 X68.696 Y62.531 E18.42762 F378.000
G1 X69.260 Y62.607 E18.48019
G1 X69.802 Y62.777 E18.53277
G1 X70.308 Y63.037 E18.58534
G1 X70.762 Y63.378 E18.63791
G1 X71.153 Y63.791 E18.69048
G1 X71.468 Y64.264 E18.74306
G1 X71.698 Y64.784 E18.79563
G1 X71.837 Y65.335 E18.84820
G1 X71.882 Y65.901 E18.90078
G1 X71.829 Y66.467 E18.95335
G1 X71.682 Y67.016 E19.00592
G1 X71.444 Y67.533 E19.05850
G1 X71.123 Y68.001 E19.11107
G1 X70.727 Y68.409 E19.16364
G1 X70.316 Y68.708 E19.21066
G1 F1800.000 E18.21066
G92 E0
G1 X68.139 Y62.153 F7800.000
G1 X70.642 Y69.257 F7800.000
G1 E1.00000 F1800.000
G1 X69.992 Y69.590 E1.06752 F540.000
G1 X69.343 Y69.783 E1.13010
G1 X68.671 Y69.864 E1.19268
G1 X68.543 Y69.858 E1.20456
G1 X67.996 Y69.831 E1.25526
G1 X67.335 Y69.684 E1.31784
G1 X66.709 Y69.427 E1.38042
G1 X66.136 Y69.068 E1.44300
G1 X65.631 Y68.618 E1.50558
G1 X65.210 Y68.088 E1.56816
G1 X64.884 Y67.495 E1.63074
G1 X64.663 Y66.856 E1.69332
G1 X64.553 Y66.188 E1.75590
G1 X64.558 Y65.511 E1.81848
G1 X64.677 Y64.845 E1.88106
G1 X64.907 Y64.209 E1.94365
G1 X65.241 Y63.621 E2.00623
G1 X65.670 Y63.097 E2.06880
G1 X66.181 Y62.654 E2.13139
G1 X66.291 Y62.587 E2.14326
G1 X66.760 Y62.303 E2.19397
G1 X67.389 Y62.055 E2.25655
G1 X68.052 Y61.917 E2.31913
G1 X68.728 Y61.893 E2.38171
G1 X68.855 Y61.911 E2.39359
G1 X69.398 Y61.984 E2.44429 F540.000
G1 X70.044 Y62.187 E2.50687
G1 X70.646 Y62.496 E2.56945
G1 X71.187 Y62.902 E2.63203
G1 X71.652 Y63.394 E2.69461
G1 X72.027 Y63.957 E2.75719
G1 X72.301 Y64.575 E2.81977
G1 X72.467 Y65.231 E2.88236
G1 X72.519 Y65.906 E2.94493
G1 X72.457 Y66.580 E3.00752
G1 X72.282 Y67.233 E3.07009
G1 X71.999 Y67.848 E3.13268
G1 X71.616 Y68.406 E3.19526
G1 X71.145 Y68.891 E3.25784
G1 X70.690 Y69.222 E3.30986
G1 X70.149 Y70.666 F7800.000
G1 X70.349 Y70.866 E3.33603 F1080.000
G1 X70.795 Y70.393 E3.39619
G1 X74.175 Y73.773 E3.83830
G1 X74.369 Y73.048 E3.90774
G1 X71.376 Y70.054 E4.29929
G1 X71.900 Y69.658 E4.36000
G1 X74.564 Y72.323 E4.70847
G1 X74.742 Y71.582 E4.77895
G1 X72.353 Y69.192 E5.09150
G1 X72.744 Y68.664 E5.15229
G1 X74.861 Y70.781 E5.42917
G1 X74.897 Y69.897 E5.51100
G1 X73.078 Y68.078 E5.74888
G1 X73.345 Y67.426 E5.81409
G1 X74.824 Y68.905 E6.00755
G1 X74.546 Y67.707 E6.12126
G1 X73.528 Y66.689 E6.25438
G1 X73.829 Y66.071 E6.31799
G1 X73.745 Y65.987 E6.32898
G1 X72.151 Y72.668 F7800.000
G1 X73.981 Y74.498 E6.56832 F1080.000
G1 X73.727 Y75.164 E6.63422
G1 X73.770 Y75.207 E6.63984
M106 S255
M104 S190 ; set temperature
M140 S34 ; set bed temperature
G1 F1800.000 E5.63984
G92 E0
G1 Z0.650 F7800.000
G1 X70.650 Y69.269 F7800.000
G1 E1.00000 F1800.000
G1 X69.997 Y69.603 E1.03660 F600.000
G1 X69.346 Y69.797 E1.07048
G1 X68.672 Y69.879 E1.10436
G1 X67.994 Y69.845 E1.13824
G1 X67.331 Y69.697 E1.17212
G1 X66.703 Y69.440 E1.20600
G1 X66.127 Y69.080 E1.23987
G1 X65.620 Y68.627 E1.27375
G1 X65.198 Y68.096 E1.30763
G1 X64.871 Y67.501 E1.34151
G1 X64.649 Y66.859 E1.37539
G1 X64.539 Y66.189 E1.40927
G1 X64.544 Y65.510 E1.44314
G1 X64.663 Y64.842 E1.47702
G1 X64.894 Y64.203 E1.51090
G1 X65.229 Y63.612 E1.54478
G1 X65.660 Y63.087 E1.57866
G1 X66.173 Y62.642 E1.61254
G1 X66.753 Y62.290 E1.64642
G1 X67.385 Y62.041 E1.68029
G1 X68.050 Y61.903 E1.71417
G1 X68.729 Y61.879 E1.74805
G1 X68.939 Y61.907 E1.75864
G1 X69.402 Y61.970 E1.78193 F600.000
G1 X70.049 Y62.173 E1.81581
G1 X70.654 Y62.483 E1.84969
G1 X71.197 Y62.891 E1.88356
G1 X71.663 Y63.385 E1.91744
G1 X72.039 Y63.950 E1.95132
G1 X72.315 Y64.571 E1.98520
G1 X72.481 Y65.229 E2.01908
G1 X72.534 Y65.906 E2.05296
G1 X72.472 Y66.582 E2.08683
G1 X72.296 Y67.238 E2.12071
G1 X72.012 Y67.855 E2.15459
G1 X71.627 Y68.415 E2.18847
G1 X71.154 Y68.902 E2.22235
G1 X70.699 Y69.234 E2.25047
G1 X70.414 Y68.946 F7800.000
G1 X69.850 Y69.230 E2.28200 F600.000
G1 X69.264 Y69.404 E2.31248
G1 X68.658 Y69.478 E2.34297
G1 X68.048 Y69.447 E2.37345
G1 X67.451 Y69.314 E2.40393
G1 X66.886 Y69.083 E2.43441
G1 X66.368 Y68.759 E2.46489
G1 X65.912 Y68.352 E2.49537
G1 X65.532 Y67.874 E2.52585
G1 X65.238 Y67.338 E2.55634
G1 X65.038 Y66.761 E2.58682
G1 X64.939 Y66.158 E2.61730
G1 X64.943 Y65.547 E2.64778
G1 X65.051 Y64.945 E2.67826
G1 X65.259 Y64.371 E2.70874
G1 X65.560 Y63.840 E2.73922
G1 X65.947 Y63.367 E2.76971
G1 X66.409 Y62.966 E2.80019
G1 X66.931 Y62.650 E2.83067
G1 X67.500 Y62.426 E2.86115
G1 X68.098 Y62.302 E2.89163
G1 X68.276 Y62.295 E2.90053
G1 X68.709 Y62.280 E2.92211 F600.000
G1 X69.314 Y62.362 E2.95259
G1 X69.897 Y62.545 E2.98308
G1 X70.441 Y62.824 E3.01356
G1 X70.929 Y63.191 E3.04404
G1 X71.349 Y63.635 E3.07452
G1 X71.687 Y64.143 E3.10500
G1 X71.935 Y64.702 E3.13548
G1 X72.085 Y65.294 E3.16596
G1 X72.132 Y65.903 E3.19645
G1 X72.076 Y66.512 E3.22693
G1 X71.918 Y67.102 E3.25741
G1 X71.663 Y67.657 E3.28789
G1 X71.317 Y68.160 E3.31837
G1 X70.891 Y68.599 E3.34885
G1 X70.463 Y68.910 E3.37528
G1 X70.189 Y68.615 F7800.000
G1 X69.703 Y68.856 E3.40236 F600.000
G1 X69.183 Y69.011 E3.42945
G1 X68.644 Y69.076 E3.45653
G1 X68.101 Y69.050 E3.48362
G1 X67.572 Y68.931 E3.51070
G1 X67.438 Y68.877 E3.51790
G1 X67.069 Y68.725 E3.53779
G1 X66.609 Y68.438 E3.56487
G1 X66.204 Y68.076 E3.59195
G1 X65.866 Y67.651 E3.61904
G1 X65.605 Y67.175 E3.64612
G1 X65.427 Y66.662 E3.67321
G1 X65.339 Y66.127 E3.70029
G1 X65.343 Y65.584 E3.72738
G1 X65.439 Y65.049 E3.75446
G1 X65.623 Y64.539 E3.78155
G1 X65.891 Y64.067 E3.80863
G1 X66.235 Y63.647 E3.83571
G1 X66.645 Y63.291 E3.86280
G1 X67.110 Y63.010 E3.88988
G1 X67.615 Y62.811 E3.91697
G1 X68.146 Y62.700 E3.94405
G1 X68.689 Y62.681 E3.97114
G1 X68.832 Y62.700 E3.97833
G1 X69.227 Y62.754 E3.99822 F600.000
G1 X69.745 Y62.916 E4.02531
G1 X70.228 Y63.164 E4.05239
G1 X70.662 Y63.490 E4.07947
G1 X71.035 Y63.885 E4.10656
G1 X71.336 Y64.337 E4.13364
