; generated by Slic3r 1.1.7 on 2015-01-20 at 22:46:03

; perimeters extrusion width = 0.40mm
; infill extrusion width = 0.42mm
; solid infill extrusion width = 0.42mm
; top infill extrusion width = 0.42mm

G21 ; set units to millimeters
M107
M190 S35 ; wait for bed temperature to be reached
M104 S195 ; set temperature
G28 ; home all axes
G29 ;
G1 Z5 F5000 ; lift nozzle

M109 S195 ; wait for temperature to be reached
G90 ; use absolute coordinates
G92 E0
M82 ; use absolute distances for extrusion
G1 F1800.000 E-1.00000
G92 E0
G1 Z0.350 F7800.000
G1 X56.411 Y51.842 F7800.000
G1 E1.00000 F1800.000
G1 X57.342 Y50.911 E1.12176 F1080.000
G1 X82.658 Y50.911 E3.46329
G1 X83.589 Y51.842 E3.58505
G1 X83.589 Y65.158 E4.81670 F1080.000
G1 X82.658 Y66.089 E4.93845
G1 X71.961 Y66.089 E5.92781
G1 X71.589 Y66.461 E5.97652
G1 X71.589 Y73.158 E6.59591
G1 X70.658 Y74.089 E6.71767
G1 X61.342 Y74.089 E7.57935
G1 X60.411 Y73.158 E7.70111
G1 X60.411 Y66.461 E8.32050
G1 X60.039 Y66.089 E8.36920
G1 X57.342 Y66.089 E8.61864
G1 X56.411 Y65.158 E8.74039
G1 X56.411 Y51.902 E9.96649
G1 X57.047 Y52.105 F7800.000
G1 X57.605 Y51.547 E10.03954 F1080.000
G1 X82.395 Y51.547 E12.33238
G1 X82.953 Y52.105 E12.40543 F1080.000
G1 X82.953 Y64.895 E13.58838
G1 X82.395 Y65.453 E13.66143
G1 X71.326 Y65.453 E14.68523
G1 X70.953 Y65.826 E14.73393
G1 X70.953 Y72.895 E15.38776
G1 X70.395 Y73.453 E15.46082
G1 X61.605 Y73.453 E16.27380
G1 X61.047 Y72.895 E16.34685
G1 X61.047 Y65.826 E17.00069
G1 X60.674 Y65.453 E17.04939
G1 X57.605 Y65.453 E17.33326
G1 X57.047 Y64.895 E17.40631
G1 X57.047 Y52.165 E18.58371
G1 X57.682 Y52.368 F7800.000
G1 X57.868 Y52.182 E18.60806 F1080.000
G1 X82.132 Y52.182 E20.85219
G1 X82.318 Y52.368 E20.87654
G1 X82.318 Y64.632 E22.01079
G1 X82.132 Y64.818 E22.03514
G1 X70.690 Y64.818 E23.09337
G1 X70.318 Y65.190 E23.14207
G1 X70.318 Y72.632 E23.83034
G1 X70.132 Y72.818 E23.85470
G1 X61.868 Y72.818 E24.61897
G1 X61.682 Y72.632 E24.64333
G1 X61.682 Y65.190 E25.33160
G1 X61.310 Y64.818 E25.38030
G1 X57.868 Y64.818 E25.69861
G1 X57.682 Y64.632 E25.72296
G1 X57.682 Y52.428 E26.85165
G1 F1800.000 E25.85165
G92 E0
G1 X69.650 Y64.150 F7800.000
G1 E1.00000 F1800.000
G1 X69.650 Y72.150 E1.73993 F378.000
G1 X62.350 Y72.150 E2.41511
G1 X62.350 Y64.150 E3.15504
G1 X58.350 Y64.150 E3.52500
G1 X58.350 Y52.850 E4.57015
G1 X81.650 Y52.850 E6.72519
G1 X81.650 Y64.150 E7.77034
G1 X69.710 Y64.150 E8.87468
G1 X69.250 Y64.150 F7800.000
G1 X69.014 Y63.514 F7800.000
G1 X69.014 Y71.514 E9.61461 F540.000
G1 X62.986 Y71.514 E10.17221
G1 X62.986 Y63.514 E10.91214
G1 X58.986 Y63.514 E11.28210
G1 X58.986 Y53.486 E12.20967
G1 X81.014 Y53.486 E14.24714
G1 X81.014 Y63.514 E15.17470
G1 X69.074 Y63.514 E16.27905
G1 X68.379 Y62.879 F7800.000
G1 X68.379 Y70.879 E17.01897 F540.000
G1 X63.621 Y70.879 E17.45900
G1 X63.621 Y62.879 E18.19893
G1 X59.621 Y62.879 E18.56889
G1 X59.621 Y54.121 E19.37889
G1 X80.379 Y54.121 E21.29877
G1 X80.379 Y62.879 E22.10876
G1 X68.439 Y62.879 E23.21310
G1 X74.309 Y59.477 F7800.000
G1 X74.114 Y59.005 E23.26026 F378.000
G1 X74.047 Y58.500 E23.30741
G1 X74.114 Y57.995 E23.35457
G1 X74.309 Y57.523 E23.40173
G1 X74.619 Y57.119 E23.44888
G1 X75.023 Y56.809 E23.49604
G1 X75.495 Y56.614 E23.54319
G1 X76.000 Y56.547 E23.59035
G1 X76.505 Y56.614 E23.63750
G1 X76.977 Y56.809 E23.68466 F378.000
G1 X77.381 Y57.119 E23.73181
G1 X77.691 Y57.523 E23.77897
G1 X77.886 Y57.995 E23.82613
G1 X77.953 Y58.500 E23.87328
G1 X77.886 Y59.005 E23.92044
G1 X77.691 Y59.477 E23.96759
G1 X77.381 Y59.881 E24.01475
G1 X76.977 Y60.191 E24.06190
G1 X76.505 Y60.386 E24.10906
G1 X76.000 Y60.453 E24.15621
G1 X75.495 Y60.386 E24.20337
G1 X75.023 Y60.191 E24.25053
G1 X74.619 Y59.881 E24.29768
G1 X74.345 Y59.524 E24.33929
G1 F1800.000 E23.33929
G92 E0
G1 X76.675 Y56.251 F7800.000
G1 X73.721 Y59.720 F7800.000
G1 E1.00000 F1800.000
G1 X73.494 Y59.171 E1.05489 F540.000
G1 X73.406 Y58.500 E1.11753
G1 X73.494 Y57.829 E1.18016
G1 X73.753 Y57.203 E1.24280
G1 X74.166 Y56.666 E1.30544
G1 X74.703 Y56.253 E1.36807
G1 X75.329 Y55.994 E1.43071
G1 X76.000 Y55.906 E1.49334 F540.000
G1 X76.671 Y55.994 E1.55598
G1 X77.297 Y56.253 E1.61861
G1 X77.834 Y56.666 E1.68125
G1 X78.247 Y57.203 E1.74388
G1 X78.506 Y57.829 E1.80652
G1 X78.594 Y58.500 E1.86915
G1 X78.506 Y59.171 E1.93179
G1 X78.247 Y59.797 E1.99442
G1 X77.834 Y60.334 E2.05706
G1 X77.297 Y60.747 E2.11969
G1 X76.671 Y61.006 E2.18233
G1 X76.000 Y61.094 E2.24496
G1 X75.329 Y61.006 E2.30760
G1 X74.703 Y60.747 E2.37023
G1 X74.166 Y60.334 E2.43287
G1 X73.744 Y59.775 E2.49762
G1 X73.134 Y59.963 F7800.000
G1 X72.875 Y59.337 E2.56025 F540.000
G1 X72.765 Y58.500 E2.63837
G1 X72.875 Y57.663 E2.71648
G1 X73.198 Y56.882 E2.79460
G1 X73.712 Y56.212 E2.87271
G1 X74.382 Y55.698 E2.95083
G1 X75.163 Y55.375 E3.02894
G1 X76.000 Y55.265 E3.10706
G1 X76.837 Y55.375 E3.18517
G1 X77.618 Y55.698 E3.26328 F540.000
G1 X78.288 Y56.212 E3.34140
G1 X78.802 Y56.882 E3.41951
G1 X79.125 Y57.663 E3.49763
G1 X79.235 Y58.500 E3.57574
G1 X79.125 Y59.337 E3.65386
G1 X78.802 Y60.118 E3.73197
G1 X78.288 Y60.788 E3.81009
G1 X77.618 Y61.302 E3.88820
G1 X76.837 Y61.625 E3.96632
G1 X76.000 Y61.735 E4.04443
G1 X75.163 Y61.625 E4.12254
G1 X74.382 Y61.302 E4.20066
G1 X73.712 Y60.788 E4.27877
G1 X73.198 Y60.118 E4.35689
G1 X73.157 Y60.018 E4.36682
G1 X72.564 Y59.738 F7800.000
G1 X67.388 Y54.562 E5.04382 F1080.000
G1 X68.300 Y54.562 E5.12821
G1 X72.333 Y58.594 E5.65562
G1 X72.417 Y57.766 E5.73261
G1 X69.213 Y54.562 E6.15169
G1 X70.125 Y54.562 E6.23608
G1 X72.640 Y57.077 E6.56505
G1 X72.953 Y56.477 E6.62760
G1 X71.038 Y54.562 E6.87814
G1 X71.950 Y54.562 E6.96254
G1 X73.349 Y55.961 E7.14555
G1 X73.851 Y55.550 E7.20552
G1 X72.863 Y54.562 E7.33478
G1 X73.775 Y54.562 E7.41918
G1 X74.419 Y55.206 E7.50339
G1 X74.729 Y54.603 E7.56605
G1 X74.688 Y54.562 E7.57147
G1 X72.527 Y62.438 F7800.000
G1 X64.651 Y54.562 E8.60166 F1080.000
G1 X65.563 Y54.562 E8.68605
G1 X73.439 Y62.438 E9.71624
G1 X74.351 Y62.438 E9.80063
G1 X66.476 Y54.562 E10.83082
G1 X63.738 Y54.562 F7800.000
G1 X71.614 Y62.438 E11.86100 F1080.000
G1 X70.702 Y62.438 E11.94540
G1 X62.826 Y54.562 E12.97558
G1 X61.913 Y54.562 E13.05998
G1 X69.789 Y62.438 E14.09017
G1 X68.877 Y62.438 E14.17456
G1 X61.001 Y54.562 E15.20475
G1 X60.095 Y54.569 E15.28851
G1 X67.964 Y62.438 E16.31779
G1 X67.938 Y63.324 E16.39980
G1 X60.062 Y55.448 E17.42998
G1 X60.062 Y56.361 E17.51438
G1 X67.938 Y64.237 E18.54456
G1 X67.938 Y65.149 E18.62896
G1 X60.062 Y57.273 E19.65914
G1 X60.062 Y58.186 E19.74354
G1 X67.938 Y66.062 E20.77372
G1 X67.938 Y66.974 E20.85812
G1 X64.062 Y63.098 E21.36509
G1 X64.062 Y64.011 E21.44949
G1 X67.938 Y67.887 E21.95647
G1 X67.938 Y68.799 E22.04086
G1 X64.062 Y64.923 E22.54784
G1 X64.062 Y65.836 E22.63223
G1 X67.938 Y69.712 E23.13921
G1 X67.752 Y70.438 E23.20857
G1 X64.062 Y66.748 E23.69121
G1 X64.062 Y67.661 E23.77561
G1 X66.839 Y70.438 E24.13890
G1 X65.927 Y70.438 E24.22329
G1 X64.062 Y68.573 E24.46723
G1 X64.062 Y69.485 E24.55163
G1 X65.015 Y70.438 E24.67621
G1 X64.102 Y70.438 E24.76061
G1 X64.062 Y70.398 E24.76584
G1 X63.402 Y62.438 F7800.000
G1 X60.062 Y59.098 E25.20269 F1080.000
G1 X60.062 Y60.011 E25.28708
G1 X62.489 Y62.438 E25.60458
G1 X61.577 Y62.438 E25.68897
G1 X60.062 Y60.923 E25.88712
G1 X60.062 Y61.836 E25.97151
G1 X60.664 Y62.438 E26.05030
G1 X75.180 Y54.744 F7800.000
G1 X76.033 Y54.693 E26.09515 F360.000
G1 X76.820 Y54.744 E26.13653
G1 X77.243 Y55.033 F7800.000
G1 X77.298 Y55.089 E26.14383 F1080.000
G1 X79.898 Y54.562 F7800.000
G1 X79.938 Y54.602 E26.14906 F1080.000
G1 X79.938 Y55.644 E26.24545
G1 X78.856 Y54.562 E26.38699
G1 X77.814 Y54.562 E26.48338
G1 X79.938 Y56.686 E26.76124
G1 X79.411 Y57.202 E26.82940
G1 X79.467 Y57.257 E26.83669
G1 X79.756 Y57.680 F7800.000
G1 X79.807 Y58.467 E26.87807 F360.000
G1 X79.756 Y59.320 E26.92293
G1 X79.897 Y59.771 F7800.000
G1 X79.938 Y59.812 E26.92835 F1080.000
G1 X79.254 Y60.178 E27.00012
G1 X79.938 Y60.863 E27.08961
G1 X79.938 Y61.913 E27.18676
G1 X78.830 Y60.805 E27.33167
G1 X78.305 Y61.330 E27.40036
G1 X79.413 Y62.438 E27.54528
G1 X78.363 Y62.438 E27.64242
G1 X77.678 Y61.754 E27.73192
G1 X77.271 Y62.397 E27.80231
G1 X77.312 Y62.438 E27.80773
G1 X76.820 Y62.256 F7800.000
G1 X75.967 Y62.307 E27.85258 F360.000
G1 X75.180 Y62.256 E27.89396
M106 S255
M104 S190 ; set temperature
M140 S34 ; set bed temperature
G1 F1800.000 E26.89396
G92 E0
G1 Z0.650 F7800.000
G1 X73.708 Y59.725 F7800.000
G1 E1.00000 F1800.000
G1 X73.480 Y59.175 E1.02971 F1235.156
G1 X73.391 Y58.500 E1.06368
G1 X73.480 Y57.825 E1.09765
G1 X73.741 Y57.196 E1.13163
G1 X74.155 Y56.655 E1.16560
G1 X74.696 Y56.241 E1.19958
G1 X75.325 Y55.980 E1.23355
G1 X76.000 Y55.891 E1.26753
G1 X76.532 Y55.961 E1.29432
G1 X76.675 Y55.980 E1.30150 F1235.156
G1 X77.304 Y56.241 E1.33548
G1 X77.845 Y56.655 E1.36945
G1 X78.259 Y57.196 E1.40343
G1 X78.520 Y57.825 E1.43740
G1 X78.609 Y58.500 E1.47138
G1 X78.520 Y59.175 E1.50535
G1 X78.259 Y59.804 E1.53932
G1 X77.845 Y60.345 E1.57330
G1 X77.304 Y60.759 E1.60728
G1 X76.675 Y61.020 E1.64125
G1 X76.000 Y61.109 E1.67523
G1 X75.325 Y61.020 E1.70920
G1 X74.696 Y60.759 E1.74317
G1 X74.155 Y60.345 E1.77715
G1 X73.731 Y59.781 E1.81236
G1 X74.078 Y59.572 F7800.000
G1 X73.870 Y59.071 E1.83944 F1235.156
G1 X73.795 Y58.500 E1.86816
G1 X73.870 Y57.929 E1.89688
G1 X74.090 Y57.397 E1.92560
G1 X74.441 Y56.941 E1.95432
G1 X74.897 Y56.590 E1.98304
G1 X75.429 Y56.370 E2.01176
G1 X75.909 Y56.307 E2.03592
G1 X76.000 Y56.295 E2.04048 F1235.156
G1 X76.571 Y56.370 E2.06920
G1 X77.103 Y56.590 E2.09792
G1 X77.559 Y56.941 E2.12664
G1 X77.910 Y57.397 E2.15536
G1 X78.130 Y57.929 E2.18408
G1 X78.205 Y58.500 E2.21280
G1 X78.130 Y59.071 E2.24152
G1 X77.910 Y59.603 E2.27024
G1 X77.559 Y60.059 E2.29896
G1 X77.103 Y60.410 E2.32768
G1 X76.571 Y60.630 E2.35640
G1 X76.000 Y60.705 E2.38512
G1 X75.429 Y60.630 E2.41384
G1 X74.897 Y60.410 E2.44256
G1 X74.441 Y60.059 E2.47128
G1 X74.107 Y59.624 E2.49865
G1 X74.440 Y59.401 F7800.000
G1 X74.260 Y58.966 E2.52211 F864.609
G1 X74.198 Y58.500 E2.54558
G1 X74.260 Y58.034 E2.56904
G1 X74.440 Y57.599 E2.59251
G1 X74.726 Y57.226 E2.61597
G1 X75.099 Y56.940 E2.63944
G1 X75.534 Y56.760 E2.66291
G1 X76.000 Y56.698 E2.68637
G1 X76.428 Y56.755 E2.70791
G1 X76.901 Y56.940 E2.73324 F864.609
G1 X77.274 Y57.226 E2.75671
G1 X77.560 Y57.599 E2.78017
G1 X77.740 Y58.034 E2.80364
G1 X77.802 Y58.500 E2.82710
G1 X77.740 Y58.966 E2.85057
G1 X77.560 Y59.401 E2.87404
G1 X77.274 Y59.774 E2.89750
G1 X76.901 Y60.060 E2.92097
G1 X76.466 Y60.240 E2.94443
G1 X76.000 Y60.302 E2.96790
G1 X75.534 Y60.240 E2.99136
G1 X75.099 Y60.060 E3.01483
G1 X74.726 Y59.774 E3.03829
G1 X74.476 Y59.448 E3.05877
G1 F1800.000 E2.05877
G92 E0
G1 X76.591 Y56.389 F7800.000
G1 X69.000 Y63.500 F7800.000
G1 E1.00000 F1800.000
G1 X69.000 Y71.500 E1.39912 F1235.156
G1 X63.000 Y71.500 E1.69846
G1 X63.000 Y63.500 E2.09758
G1 X59.000 Y63.500 E2.29715
G1 X59.000 Y53.500 E2.79605
G1 X81.000 Y53.500 E3.89363
G1 X81.000 Y63.500 E4.39253
G1 X69.060 Y63.500 E4.98822
G1 X69.400 Y63.900 F7800.000
G1 X69.400 Y71.900 E5.38734 F1235.156
G1 X62.600 Y71.900 E5.72660
G1 X62.600 Y63.900 E6.12572
G1 X58.600 Y63.900 E6.32528
G1 X58.600 Y53.100 E6.86409
G1 X81.400 Y53.100 E8.00159
G1 X81.400 Y63.900 E8.54041
G1 X69.460 Y63.900 E9.13609
G1 X69.800 Y64.300 F7800.000
G1 X69.800 Y72.300 E9.53522 F864.609
G1 X62.200 Y72.300 E9.91438
G1 X62.200 Y64.300 E10.31350
G1 X58.200 Y64.300 E10.51306
G1 X58.200 Y52.700 E11.09179
G1 X81.800 Y52.700 E12.26920
G1 X81.800 Y64.300 E12.84793
G1 X69.860 Y64.300 E13.44361
G1 X69.400 Y64.300 F7800.000
G1 X68.726 Y63.923 F7800.000
G1 X63.274 Y69.375 E13.84640 F2470.311
G1 X63.274 Y69.968 E13.87737
G1 X68.726 Y64.516 E14.28016
G1 X68.726 Y65.109 E14.31113
G1 X63.274 Y70.561 E14.71392
G1 X63.274 Y71.153 E14.74489
G1 X68.726 Y65.702 E15.14768
G1 X68.726 Y66.294 E15.17865
G1 X63.794 Y71.226 E15.54300
G1 X64.387 Y71.226 E15.57397
G1 X68.726 Y66.887 E15.89452
G1 X68.726 Y67.480 E15.92549
G1 X64.980 Y71.226 E16.20225
G1 X65.573 Y71.226 E16.23321
G1 X68.726 Y68.073 E16.46618
G1 X68.726 Y68.666 E16.49714
G1 X66.166 Y71.226 E16.68631
G1 X66.758 Y71.226 E16.71728
G1 X68.726 Y69.258 E16.86265
G1 X68.726 Y69.851 E16.89362
G1 X67.351 Y71.226 E16.99519
G1 X67.944 Y71.226 E17.02616
G1 X68.726 Y70.444 E17.08394
G1 X68.726 Y71.037 E17.11491
G1 X68.537 Y71.226 E17.12889
G1 X63.274 Y66.411 F7800.000
G1 X75.911 Y53.774 E18.06259 F2470.311
G1 X76.504 Y53.774 E18.09356
G1 X63.274 Y67.004 E19.07105
G1 X63.274 Y67.597 E19.10201
G1 X73.281 Y57.590 E19.84133
G1 X73.138 Y58.326 E19.88048
G1 X63.274 Y68.190 E20.60925
G1 X63.274 Y68.782 E20.64022
G1 X73.166 Y58.890 E21.37109
G1 X73.269 Y59.381 E21.39726
G1 X69.423 Y63.226 E21.68135
G1 X70.016 Y63.226 E21.71232
G1 X73.442 Y59.800 E21.96545
G1 X73.671 Y60.164 E21.98791
G1 X70.609 Y63.226 E22.21415
G1 X71.202 Y63.226 E22.24511
G1 X73.928 Y60.499 E22.44657
G1 X74.254 Y60.766 E22.46858
G1 X71.794 Y63.226 E22.65032
G1 X72.387 Y63.226 E22.68128
G1 X74.598 Y61.015 E22.84460
G1 X75.017 Y61.189 E22.86830
G1 X72.980 Y63.226 E23.01879
G1 X73.573 Y63.226 E23.04976
G1 X75.482 Y61.317 E23.19079
G1 X76.007 Y61.384 E23.21847
G1 X74.166 Y63.226 E23.35453
G1 X74.758 Y63.226 E23.38550
G1 X76.690 Y61.294 E23.52819
G1 X80.726 Y63.186 F7800.000
G1 X80.686 Y63.226 E23.53115 F2470.311
G1 X80.093 Y63.226 E23.56212
G1 X80.726 Y62.593 E23.60887
G1 X80.726 Y62.000 E23.63984
G1 X79.500 Y63.226 E23.73038
G1 X78.908 Y63.226 E23.76135
G1 X80.726 Y61.408 E23.89569
G1 X80.726 Y60.815 E23.92666
G1 X78.315 Y63.226 E24.10480
G1 X77.722 Y63.226 E24.13577
G1 X80.726 Y60.222 E24.35770
G1 X80.726 Y59.629 E24.38867
G1 X77.129 Y63.226 E24.65440
G1 X76.537 Y63.226 E24.68537
G1 X80.726 Y59.037 E24.99490
G1 X80.726 Y58.444 E25.02586
G1 X75.944 Y63.226 E25.37919
G1 X75.351 Y63.226 E25.41015
G1 X80.726 Y57.851 E25.80727
G1 X80.726 Y57.258 E25.83824
G1 X78.794 Y59.190 E25.98094
G1 X78.884 Y58.507 E26.01691
G1 X80.726 Y56.666 E26.15296
G1 X80.726 Y56.073 E26.18393
G1 X78.817 Y57.982 E26.32497
G1 X78.689 Y57.517 E26.35015
G1 X80.726 Y55.480 E26.50064
G1 X80.726 Y54.887 E26.53161
G1 X78.515 Y57.098 E26.69493
G1 X78.266 Y56.754 E26.71710
G1 X80.726 Y54.294 E26.89884
G1 X80.653 Y53.774 E26.92628
G1 X77.999 Y56.428 E27.12238
G1 X77.664 Y56.171 E27.14447
G1 X80.061 Y53.774 E27.32156
G1 X79.468 Y53.774 E27.35252
G1 X77.300 Y55.942 E27.51270
G1 X76.881 Y55.769 E27.53641
G1 X78.875 Y53.774 E27.68376
G1 X78.282 Y53.774 E27.71473
G1 X76.390 Y55.666 E27.85451
G1 X75.826 Y55.638 E27.88403
G1 X77.690 Y53.774 E28.02171
G1 X77.097 Y53.774 E28.05268
G1 X75.090 Y55.781 E28.20092
G1 X75.319 Y53.774 F7800.000
G1 X63.274 Y65.819 E29.09082 F2470.311
G1 X63.274 Y65.226 E29.12178
G1 X74.726 Y53.774 E29.96789
G1 X74.133 Y53.774 E29.99885
G1 X63.274 Y64.633 E30.80116
G1 X63.274 Y64.040 E30.83213
G1 X73.540 Y53.774 E31.59064
G1 X72.948 Y53.774 E31.62161
G1 X63.274 Y63.448 E32.33632
G1 X62.903 Y63.226 E32.35891
G1 X72.355 Y53.774 E33.05724
G1 X71.762 Y53.774 E33.08821
G1 X62.310 Y63.226 E33.78654
G1 X61.718 Y63.226 E33.81751
G1 X71.169 Y53.774 E34.51584
G1 X70.577 Y53.774 E34.54681
G1 X61.125 Y63.226 E35.24514
G1 X60.532 Y63.226 E35.27611
G1 X69.984 Y53.774 E35.97444
G1 X69.391 Y53.774 E36.00540
G1 X59.939 Y63.226 E36.70374
G1 X59.347 Y63.226 E36.73470
G1 X68.798 Y53.774 E37.43304
G1 X68.206 Y53.774 E37.46400
G1 X59.274 Y62.706 E38.12390
G1 X59.274 Y62.113 E38.15486
G1 X67.613 Y53.774 E38.77096
G1 X67.020 Y53.774 E38.80193
G1 X59.274 Y61.520 E39.37423
G1 X59.274 Y60.927 E39.40520
G1 X66.427 Y53.774 E39.93370
G1 X65.834 Y53.774 E39.96467
G1 X59.274 Y60.334 E40.44938
G1 X59.274 Y59.742 E40.48034
G1 X65.242 Y53.774 E40.92126
G1 X64.649 Y53.774 E40.95223
G1 X59.274 Y59.149 E41.34934
G1 X59.274 Y58.556 E41.38031
G1 X64.056 Y53.774 E41.73363
G1 X63.463 Y53.774 E41.76460
G1 X59.274 Y57.963 E42.07413
G1 X59.274 Y57.371 E42.10509
G1 X62.871 Y53.774 E42.37082
G1 X62.278 Y53.774 E42.40179
G1 X59.274 Y56.778 E42.62373
G1 X59.274 Y56.185 E42.65469
G1 X61.685 Y53.774 E42.83283
G1 X61.092 Y53.774 E42.86380
G1 X59.274 Y55.592 E42.99814
G1 X59.274 Y55.000 E43.02911
G1 X60.500 Y53.774 E43.11966
