; generated by Slic3r 1.1.7 on 2015-01-24 at 02:27:57

; perimeters extrusion width = 0.40mm
; infill extrusion width = 0.67mm
; solid infill extrusion width = 0.67mm
; top infill extrusion width = 0.67mm
; support material extrusion width = 0.40mm

G21 ; set units to millimeters
M107
M190 S50 ; wait for bed temperature to be reached
M104 S195 ; set temperature
G28 ; home all axes
G29 ;
G1 Z5 F5000 ; lift nozzle

M109 S195 ; wait for temperature to be reached
G90 ; use absolute coordinates
G92 E0
M82 ; use absolute distances for extrusion
G1 F1800.000 E-1.00000
G92 E0
G1 Z0.300 F7800.000
G1 X49.815 Y50.340 F7800.000
G1 E1.00000 F1800.000
G1 X48.797 Y52.371 E1.11335 F1080.000
G1 X48.680 Y54.389 F7800.000
G1 X51.288 Y49.184 E1.40378 F1080.000
G1 X52.378 Y48.795 E1.46153
G1 X48.680 Y56.174 E1.87333
G1 X48.680 Y57.959 E1.96240
G1 X53.331 Y48.681 E2.48021
G1 X54.226 Y48.680 E2.52487
G1 X48.680 Y59.745 E3.14235
G1 X48.680 Y61.530 E3.23143
G1 X55.121 Y48.680 E3.94854
G1 X56.015 Y48.680 E3.99319
G1 X48.680 Y63.316 E4.80994
G1 X48.680 Y65.101 E4.89902
G1 X56.910 Y48.680 E5.81541
G1 X57.805 Y48.680 E5.86006
G1 X48.680 Y66.887 E6.87608
G1 X48.680 Y68.672 E6.96516
G1 X58.700 Y48.680 E8.08083
G1 X59.595 Y48.680 E8.12547
G1 X48.680 Y70.457 E9.34077
G1 X48.680 Y72.243 E9.42985
G1 X60.490 Y48.680 E10.74479
G1 X61.385 Y48.680 E10.78943
G1 X48.680 Y74.028 E12.20401
G1 X48.680 Y75.814 E12.29308
G1 X62.279 Y48.680 E13.80730
G1 X63.174 Y48.680 E13.85194
G1 X48.680 Y77.599 E15.46579
G1 X48.680 Y79.384 E15.55487
G1 X64.069 Y48.680 E17.26835
G1 X64.964 Y48.680 E17.31300
G1 X48.680 Y81.170 E19.12612
G1 X48.680 Y82.955 E19.21520
G1 X65.859 Y48.680 E21.12796
G1 X66.754 Y48.680 E21.17260
G1 X48.680 Y84.741 E23.18500
G1 X48.680 Y86.526 E23.27408
G1 X67.649 Y48.680 E25.38611
G1 X68.543 Y48.680 E25.43075
G1 X48.874 Y87.925 E27.62087
G1 X49.282 Y88.896 E27.67341
G1 X69.438 Y48.680 E29.91769
G1 X70.333 Y48.680 E29.96233
G1 X49.801 Y89.645 E32.24842
G1 X50.400 Y90.236 E32.29039
G1 X71.228 Y48.680 E34.60947
G1 X72.123 Y48.680 E34.65411
G1 X51.065 Y90.696 E36.99883
G1 X51.790 Y91.033 E37.03876
G1 X73.018 Y48.680 E39.40230
G1 X73.913 Y48.680 E39.44694
G1 X52.579 Y91.246 E41.82235
G1 X53.436 Y91.320 E41.86529
G1 X74.807 Y48.680 E44.24485
G1 X75.702 Y48.680 E44.28950
G1 X54.331 Y91.320 E46.66906
G1 X55.226 Y91.320 E46.71370
G1 X76.597 Y48.680 E49.09326
G1 X77.492 Y48.680 E49.13791
G1 X56.121 Y91.320 E51.51747
G1 X57.016 Y91.320 E51.56211
G1 X78.387 Y48.680 E53.94167
G1 X79.282 Y48.680 E53.98631
G1 X57.910 Y91.320 E56.36587
G1 X58.805 Y91.320 E56.41052
G1 X80.177 Y48.680 E58.79008
G1 X81.071 Y48.680 E58.83472
G1 X59.700 Y91.320 E61.21428
G1 X60.595 Y91.320 E61.25893
G1 X81.966 Y48.680 E63.63849
G1 X82.861 Y48.680 E63.68313
G1 X61.490 Y91.320 E66.06269
G1 X62.385 Y91.320 E66.10734
G1 X83.756 Y48.680 E68.48689
G1 X84.651 Y48.680 E68.53154
G1 X63.280 Y91.320 E70.91110
G1 X64.174 Y91.320 E70.95574
G1 X85.546 Y48.680 E73.33530
G1 X86.441 Y48.680 E73.37995
G1 X65.069 Y91.320 E75.75951
G1 X65.964 Y91.320 E75.80415
G1 X87.308 Y48.735 E78.18062
G1 X88.105 Y48.930 E78.22156
G1 X66.859 Y91.320 E80.58714
G1 X67.754 Y91.320 E80.63179
G1 X88.831 Y49.267 E82.97862
G1 X89.512 Y49.693 E83.01871
G1 X68.649 Y91.320 E85.34174
G1 X69.544 Y91.320 E85.38638
G1 X90.120 Y50.265 E87.67749
G1 X90.652 Y50.990 E87.72234
G1 X70.438 Y91.320 E89.97299
G1 X71.333 Y91.320 E90.01764
G1 X91.079 Y51.923 E92.21620
G1 X91.317 Y53.235 E92.28269
G1 X72.228 Y91.320 E94.40806
G1 X73.123 Y91.320 E94.45271
G1 X91.320 Y55.013 E96.47883
G1 X91.320 Y56.799 E96.56790
G1 X74.018 Y91.320 E98.49438
G1 X74.913 Y91.320 E98.53903
G1 X91.320 Y58.584 E100.36587
G1 X91.320 Y60.370 E100.45494
G1 X75.808 Y91.320 E102.18215
G1 X76.702 Y91.320 E102.22680
G1 X91.320 Y62.155 E103.85437
G1 X91.320 Y63.941 E103.94344
G1 X77.597 Y91.320 E105.47137
G1 X78.492 Y91.320 E105.51602
G1 X91.320 Y65.726 E106.94432
G1 X91.320 Y67.511 E107.03339
G1 X79.387 Y91.320 E108.36205
G1 X80.282 Y91.320 E108.40670
G1 X91.320 Y69.297 E109.63572
G1 X91.320 Y71.082 E109.72479
G1 X81.177 Y91.320 E110.85418
G1 X82.072 Y91.320 E110.89882
G1 X91.320 Y72.868 E111.92857
G1 X91.320 Y74.653 E112.01765
G1 X82.966 Y91.320 E112.94776
G1 X83.861 Y91.320 E112.99241
G1 X91.320 Y76.438 E113.82288
G1 X91.320 Y78.224 E113.91196
G1 X84.756 Y91.320 E114.64279
G1 X85.651 Y91.320 E114.68744
G1 X91.320 Y80.009 E115.31864
G1 X91.320 Y81.795 E115.40772
G1 X86.546 Y91.320 E115.93928
G1 X87.484 Y91.234 E115.98627
G1 X91.320 Y83.580 E116.41340
G1 X91.320 Y85.366 E116.50248
G1 X88.549 Y90.893 E116.81096
G1 X89.918 Y89.949 E116.89391
G1 X91.274 Y87.242 E117.04496
M106 S255
M104 S190 ; set temperature
M140 S45 ; set bed temperature
G1 F1800.000 E116.04496
G92 E0
G1 Z0.500 F7800.000
G1 X55.812 Y88.349 F7800.000
G1 E1.00000 F1800.000
G1 X54.369 Y85.849 E1.09601 F2016.061
G1 X50.789 Y85.849 E1.21507
G1 X49.421 Y88.218 E1.30608
G1 X49.473 Y88.341 E1.31050
G1 X49.723 Y88.820 E1.32847
G1 X50.061 Y89.301 E1.34804
G1 X50.472 Y89.741 E1.36805
G1 X50.890 Y90.084 E1.38603
G1 X51.389 Y90.395 E1.40561
G1 X51.939 Y90.640 E1.42561
G1 X52.457 Y90.792 E1.44359
G1 X53.038 Y90.884 E1.46315
G1 X53.339 Y90.899 E1.47316
G1 X54.570 Y90.900 E1.51411
G1 X55.812 Y88.749 E1.59673
G1 X59.391 Y88.749 E1.71579
G1 X60.634 Y90.900 E1.79841
G1 X64.616 Y90.900 E1.93086
G1 X65.858 Y88.749 E2.01348
G1 X69.437 Y88.749 E2.13254
G1 X70.679 Y90.900 E2.21517
G1 X74.662 Y90.900 E2.34761
G1 X75.904 Y88.749 E2.43024
G1 X79.483 Y88.749 E2.54929
G1 X80.725 Y90.900 E2.63192
G1 X84.707 Y90.900 E2.76436
G1 X85.950 Y88.749 E2.84699
G1 X89.529 Y88.749 E2.96605
G1 X89.885 Y89.365 E2.98973
G1 X90.120 Y89.060 E3.00253
G1 X90.359 Y88.677 E3.01754
G1 X90.557 Y88.272 E3.03257
G1 X90.712 Y87.847 E3.04759
G1 X90.821 Y87.409 E3.06261
G1 X90.876 Y87.037 E3.07512
G1 X90.899 Y86.661 E3.08764
G1 X90.900 Y85.974 E3.11049
G1 X89.529 Y88.349 E3.20168
G1 X85.950 Y88.349 E3.32073
G1 X84.506 Y85.849 E3.41675
G1 X80.927 Y85.849 E3.53580
G1 X79.483 Y88.349 E3.63182
G1 X75.904 Y88.349 E3.75087
G1 X74.460 Y85.849 E3.84689
G1 X70.881 Y85.849 E3.96595
G1 X69.437 Y88.349 E4.06196
G1 X65.858 Y88.349 E4.18102
G1 X64.414 Y85.849 E4.27703
G1 X60.835 Y85.849 E4.39609
G1 X59.391 Y88.349 E4.49210
G1 X55.812 Y88.349 E4.61116
G1 X55.812 Y82.549 F7800.000
G1 X54.369 Y80.049 E4.70717 F2016.061
G1 X50.789 Y80.049 E4.82623
G1 X49.346 Y82.549 E4.92224
G1 X49.100 Y82.549 E4.93041
G1 X49.100 Y82.949 E4.94371
G1 X49.346 Y82.949 E4.95188
G1 X50.789 Y85.449 E5.04790
G1 X54.369 Y85.449 E5.16695
G1 X55.812 Y82.949 E5.26297
G1 X59.391 Y82.949 E5.38202
G1 X60.835 Y85.449 E5.47804
G1 X64.414 Y85.449 E5.59709
G1 X65.858 Y82.949 E5.69311
G1 X69.437 Y82.949 E5.81217
G1 X70.881 Y85.449 E5.90818
G1 X74.460 Y85.449 E6.02724
G1 X75.904 Y82.949 E6.12325
G1 X79.483 Y82.949 E6.24231
G1 X80.927 Y85.449 E6.33832
G1 X84.506 Y85.449 E6.45738
G1 X85.950 Y82.949 E6.55339
G1 X89.529 Y82.949 E6.67245
G1 X90.900 Y85.323 E6.76364
G1 X90.900 Y80.174 E6.93489
G1 X89.529 Y82.549 E7.02607
G1 X85.950 Y82.549 E7.14513
G1 X84.506 Y80.049 E7.24114
G1 X80.927 Y80.049 E7.36020
G1 X79.483 Y82.549 E7.45622
G1 X75.904 Y82.549 E7.57527
G1 X74.460 Y80.049 E7.67129
G1 X70.881 Y80.049 E7.79034
G1 X69.437 Y82.549 E7.88636
G1 X65.858 Y82.549 E8.00541
G1 X64.414 Y80.049 E8.10143
G1 X60.835 Y80.049 E8.22048
G1 X59.391 Y82.549 E8.31650
G1 X55.812 Y82.549 E8.43556
G1 X55.812 Y76.749 F7800.000
G1 X54.369 Y74.249 E8.53157 F2016.061
G1 X50.789 Y74.249 E8.65063
G1 X49.346 Y76.749 E8.74664
G1 X49.100 Y76.749 E8.75481
G1 X49.100 Y77.149 E8.76811
G1 X49.346 Y77.149 E8.77628
G1 X50.789 Y79.649 E8.87229
G1 X54.369 Y79.649 E8.99135
G1 X55.812 Y77.149 E9.08736
G1 X59.391 Y77.149 E9.20642
G1 X60.835 Y79.649 E9.30244
G1 X64.414 Y79.649 E9.42149
G1 X65.858 Y77.149 E9.51751
G1 X69.437 Y77.149 E9.63656
G1 X70.881 Y79.649 E9.73258
G1 X74.460 Y79.649 E9.85163
G1 X75.904 Y77.149 E9.94765
G1 X79.483 Y77.149 E10.06671
G1 X80.927 Y79.649 E10.16272
G1 X84.506 Y79.649 E10.28178
G1 X85.950 Y77.149 E10.37779
G1 X89.529 Y77.149 E10.49685
G1 X90.900 Y79.523 E10.58804
G1 X90.900 Y74.374 E10.75928
G1 X89.529 Y76.749 E10.85047
G1 X85.950 Y76.749 E10.96953
G1 X84.506 Y74.249 E11.06554
G1 X80.927 Y74.249 E11.18460
G1 X79.483 Y76.749 E11.28061
G1 X75.904 Y76.749 E11.39967
G1 X74.460 Y74.249 E11.49568
G1 X70.881 Y74.249 E11.61474
G1 X69.437 Y76.749 E11.71075
G1 X65.858 Y76.749 E11.82981
G1 X64.414 Y74.249 E11.92583
G1 X60.835 Y74.249 E12.04488
G1 X59.391 Y76.749 E12.14090
G1 X55.812 Y76.749 E12.25995
G1 X55.812 Y70.949 F7800.000
G1 X54.369 Y68.449 E12.35597 F2016.061
G1 X50.789 Y68.449 E12.47502
G1 X49.346 Y70.949 E12.57104
G1 X49.100 Y70.949 E12.57921
G1 X49.100 Y71.349 E12.59251
G1 X49.346 Y71.349 E12.60068
G1 X50.789 Y73.849 E12.69669
G1 X54.369 Y73.849 E12.81575
G1 X55.812 Y71.349 E12.91176
G1 X59.391 Y71.349 E13.03082
G1 X60.835 Y73.849 E13.12683
G1 X64.414 Y73.849 E13.24589
G1 X65.858 Y71.349 E13.34190
G1 X69.437 Y71.349 E13.46096
G1 X70.881 Y73.849 E13.55698
G1 X74.460 Y73.849 E13.67603
G1 X75.904 Y71.349 E13.77205
G1 X79.483 Y71.349 E13.89110
G1 X80.927 Y73.849 E13.98712
G1 X84.506 Y73.849 E14.10617
G1 X85.950 Y71.349 E14.20219
G1 X89.529 Y71.349 E14.32124
G1 X90.900 Y73.723 E14.41243
G1 X90.900 Y68.574 E14.58368
G1 X89.529 Y70.949 E14.67487
G1 X85.950 Y70.949 E14.79393
G1 X84.506 Y68.449 E14.88994
G1 X80.927 Y68.449 E15.00900
G1 X79.483 Y70.949 E15.10501
G1 X75.904 Y70.949 E15.22407
G1 X74.460 Y68.449 E15.32008
G1 X70.881 Y68.449 E15.43914
G1 X69.437 Y70.949 E15.53515
G1 X65.858 Y70.949 E15.65421
G1 X64.414 Y68.449 E15.75022
G1 X60.835 Y68.449 E15.86928
G1 X59.391 Y70.949 E15.96529
G1 X55.812 Y70.949 E16.08435
G1 X55.812 Y65.149 F7800.000
G1 X54.369 Y62.649 E16.18037 F2016.061
G1 X50.789 Y62.649 E16.29942
G1 X49.346 Y65.149 E16.39544
G1 X49.100 Y65.149 E16.40360
G1 X49.100 Y65.549 E16.41691
G1 X49.346 Y65.549 E16.42508
G1 X50.789 Y68.049 E16.52109
G1 X54.369 Y68.049 E16.64015
G1 X55.812 Y65.549 E16.73616
G1 X59.391 Y65.549 E16.85522
G1 X60.835 Y68.049 E16.95123
G1 X64.414 Y68.049 E17.07029
G1 X65.858 Y65.549 E17.16630
G1 X69.437 Y65.549 E17.28536
G1 X70.881 Y68.049 E17.38137
G1 X74.460 Y68.049 E17.50043
G1 X75.904 Y65.549 E17.59644
G1 X79.483 Y65.549 E17.71550
G1 X80.927 Y68.049 E17.81151
G1 X84.506 Y68.049 E17.93057
G1 X85.950 Y65.549 E18.02659
G1 X89.529 Y65.549 E18.14564
G1 X90.900 Y67.923 E18.23683
G1 X90.900 Y62.774 E18.40808
G1 X89.529 Y65.149 E18.49927
G1 X85.950 Y65.149 E18.61832
G1 X84.506 Y62.649 E18.71434
G1 X80.927 Y62.649 E18.83340
G1 X79.483 Y65.149 E18.92941
G1 X75.904 Y65.149 E19.04847
G1 X74.460 Y62.649 E19.14448
G1 X70.881 Y62.649 E19.26354
G1 X69.437 Y65.149 E19.35955
G1 X65.858 Y65.149 E19.47861
G1 X64.414 Y62.649 E19.57462
G1 X60.835 Y62.649 E19.69368
G1 X59.391 Y65.149 E19.78969
G1 X55.812 Y65.149 E19.90875
G1 X55.812 Y59.349 F7800.000
G1 X54.369 Y56.849 E20.00476 F2016.061
G1 X50.789 Y56.849 E20.12382
G1 X49.346 Y59.349 E20.21983
G1 X49.100 Y59.349 E20.22800
G1 X49.100 Y59.749 E20.24131
G1 X49.346 Y59.749 E20.24947
G1 X50.789 Y62.249 E20.34549
G1 X54.369 Y62.249 E20.46454
G1 X55.812 Y59.749 E20.56056
G1 X59.391 Y59.749 E20.67962
G1 X60.835 Y62.249 E20.77563
G1 X64.414 Y62.249 E20.89469
G1 X65.858 Y59.749 E20.99070
G1 X69.437 Y59.749 E21.10976
G1 X70.881 Y62.249 E21.20577
G1 X74.460 Y62.249 E21.32483
G1 X75.904 Y59.749 E21.42084
G1 X79.483 Y59.749 E21.53990
G1 X80.927 Y62.249 E21.63591
G1 X84.506 Y62.249 E21.75497
G1 X85.950 Y59.749 E21.85098
G1 X89.529 Y59.749 E21.97004
G1 X90.900 Y62.123 E22.06123
G1 X90.900 Y56.974 E22.23248
G1 X89.529 Y59.349 E22.32367
G1 X85.950 Y59.349 E22.44272
G1 X84.506 Y56.849 E22.53874
G1 X80.927 Y56.849 E22.65779
G1 X79.483 Y59.349 E22.75381
G1 X75.904 Y59.349 E22.87286
G1 X74.460 Y56.849 E22.96888
G1 X70.881 Y56.849 E23.08793
G1 X69.437 Y59.349 E23.18395
G1 X65.858 Y59.349 E23.30301
G1 X64.414 Y56.849 E23.39902
G1 X60.835 Y56.849 E23.51808
G1 X59.391 Y59.349 E23.61409
G1 X55.812 Y59.349 E23.73315
G1 X55.812 Y53.549 F7800.000
G1 X54.369 Y51.049 E23.82916 F2016.061
G1 X50.789 Y51.049 E23.94822
G1 X49.346 Y53.549 E24.04423
G1 X49.100 Y53.549 E24.05240
G1 X49.100 Y53.949 E24.06570
G1 X49.346 Y53.949 E24.07387
G1 X50.789 Y56.449 E24.16989
G1 X54.369 Y56.449 E24.28894
G1 X55.812 Y53.949 E24.38496
G1 X59.391 Y53.949 E24.50401
G1 X60.835 Y56.449 E24.60003
G1 X64.414 Y56.449 E24.71908
G1 X65.858 Y53.949 E24.81510
G1 X69.437 Y53.949 E24.93415
G1 X70.881 Y56.449 E25.03017
G1 X74.460 Y56.449 E25.14923
G1 X75.904 Y53.949 E25.24524
G1 X79.483 Y53.949 E25.36430
G1 X80.927 Y56.449 E25.46031
G1 X84.506 Y56.449 E25.57937
G1 X85.950 Y53.949 E25.67538
G1 X89.529 Y53.949 E25.79444
G1 X90.900 Y56.323 E25.88563
G1 X90.890 Y53.113 E25.99239
G1 X90.847 Y52.739 E26.00490
G1 X90.789 Y52.444 E26.01492
G1 X90.689 Y52.081 E26.02744
G1 X90.567 Y51.752 E26.03912
G1 X89.529 Y53.549 E26.10814
G1 X85.950 Y53.549 E26.22719
G1 X84.506 Y51.049 E26.32321
G1 X80.927 Y51.049 E26.44226
G1 X79.483 Y53.549 E26.53828
G1 X75.904 Y53.549 E26.65733
G1 X74.460 Y51.049 E26.75335
G1 X70.881 Y51.049 E26.87241
G1 X69.437 Y53.549 E26.96842
G1 X65.858 Y53.549 E27.08748
G1 X64.414 Y51.049 E27.18349
G1 X60.835 Y51.049 E27.30255
G1 X59.391 Y53.549 E27.39856
G1 X55.812 Y53.549 E27.51762
G1 X54.369 Y50.649 F7800.000
G1 X55.263 Y49.100 E27.57709 F2016.061
G1 X53.263 Y49.103 E27.64359
G1 X52.814 Y49.142 E27.65860
G1 X52.444 Y49.211 E27.67112
G1 X51.939 Y49.360 E27.68864
G1 X51.456 Y49.570 E27.70616
G1 X51.002 Y49.838 E27.72368
G1 X50.532 Y50.204 E27.74349
G1 X50.789 Y50.649 E27.76057
G1 X54.369 Y50.649 E27.87962
G1 X64.414 Y50.649 F7800.000
G1 X65.309 Y49.100 E27.93910 F2016.061
G1 X59.941 Y49.100 E28.11763
G1 X60.835 Y50.649 E28.17711
G1 X64.414 Y50.649 E28.29617
G1 X74.460 Y50.649 F7800.000
G1 X75.354 Y49.100 E28.35564 F2016.061
G1 X69.987 Y49.100 E28.53418
G1 X70.881 Y50.649 E28.59365
G1 X74.460 Y50.649 E28.71271
G1 X84.506 Y50.649 F7800.000
G1 X85.400 Y49.100 E28.77219 F2016.061
G1 X80.033 Y49.100 E28.95072
G1 X80.927 Y50.649 E29.01019
G1 X84.506 Y50.649 E29.12925
G1 X86.651 Y48.701 F7800.000
G1 X53.168 Y48.706 E30.24291 F2016.061
G1 X52.758 Y48.746 E30.25660
G1 X52.273 Y48.840 E30.27303
G1 X51.802 Y48.984 E30.28942
G1 X51.348 Y49.177 E30.30582
G1 X50.916 Y49.416 E30.32225
G1 X50.564 Y49.660 E30.33649
G1 X50.199 Y49.967 E30.35235
G1 X49.857 Y50.321 E30.36874
G1 X49.601 Y50.643 E30.38241
G1 X49.373 Y50.986 E30.39611
G1 X49.214 Y51.274 E30.40707
G1 X49.043 Y51.648 E30.42073
G1 X48.906 Y52.035 E30.43440
G1 X48.803 Y52.434 E30.44808
G1 X48.735 Y52.840 E30.46178
G1 X48.703 Y53.249 E30.47543
G1 X48.701 Y86.668 E31.58694
G1 X48.735 Y87.160 E31.60335
G1 X48.821 Y87.646 E31.61978
G1 X48.957 Y88.121 E31.63620
G1 X49.142 Y88.578 E31.65261
G1 X49.373 Y89.014 E31.66900
G1 X49.649 Y89.423 E31.68541
G1 X49.967 Y89.801 E31.70184
G1 X50.321 Y90.144 E31.71824
G1 X50.643 Y90.400 E31.73192
G1 X50.986 Y90.627 E31.74561
G1 X51.347 Y90.823 E31.75928
G1 X51.725 Y90.987 E31.77297
G1 X52.115 Y91.117 E31.78665
G1 X52.515 Y91.213 E31.80032
G1 X52.921 Y91.274 E31.81399
G1 X53.250 Y91.297 E31.82494
G1 X86.668 Y91.299 E32.93644
G1 X87.160 Y91.265 E32.95286
G1 X87.646 Y91.179 E32.96927
G1 X88.121 Y91.043 E32.98569
G1 X88.578 Y90.858 E33.00209
G1 X89.014 Y90.627 E33.01851
G1 X89.423 Y90.351 E33.03492
G1 X89.801 Y90.034 E33.05133
G1 X90.144 Y89.679 E33.06774
G1 X90.400 Y89.357 E33.08142
G1 X90.627 Y89.014 E33.09510
G1 X90.823 Y88.653 E33.10877
G1 X90.987 Y88.275 E33.12246
G1 X91.117 Y87.885 E33.13614
G1 X91.213 Y87.485 E33.14981
G1 X91.274 Y87.079 E33.16349
G1 X91.297 Y86.750 E33.17444
G1 X91.300 Y53.409 E34.28339
G1 X91.282 Y53.003 E34.29688
G1 X91.228 Y52.595 E34.31056
G1 X91.135 Y52.178 E34.32481
G1 X90.987 Y51.725 E34.34065
G1 X90.823 Y51.348 E34.35433
G1 X90.627 Y50.986 E34.36801
G1 X90.351 Y50.577 E34.38442
G1 X90.089 Y50.260 E34.39810
G1 X89.801 Y49.966 E34.41178
G1 X89.488 Y49.699 E34.42546
G1 X89.153 Y49.460 E34.43914
G1 X88.784 Y49.244 E34.45339
G1 X88.352 Y49.043 E34.46922
G1 X87.948 Y48.901 E34.48347
G1 X87.486 Y48.787 E34.49930
G1 X87.078 Y48.726 E34.51300
G1 X86.651 Y48.701 E34.52723
G1 F1800.000 E33.52723
G92 E0
G1 Z0.700 F7800.000
