; generated by Slic3r 1.1.7 on 2015-01-20 at 19:57:56

; perimeters extrusion width = 0.40mm
; infill extrusion width = 0.42mm
; solid infill extrusion width = 0.42mm
; top infill extrusion width = 0.42mm

G21 ; set units to millimeters
M107
M190 S35 ; wait for bed temperature to be reached
M104 S195 ; set temperature
G28 ; home all axes
G29 ;
G1 Z5 F5000 ; lift nozzle

M109 S195 ; wait for temperature to be reached
G90 ; use absolute coordinates
G92 E0
M82 ; use absolute distances for extrusion
G1 F1800.000 E-1.00000
G92 E0
G1 Z0.350 F7800.000
G1 X57.482 Y67.707 F7800.000
G1 E1.00000 F1800.000
G1 X56.434 Y67.210 E1.10727 F1080.000
G1 X55.799 Y66.946 E1.17089
G1 X55.273 Y65.860 E1.28247
G1 X57.307 Y58.647 E1.97556
G1 X57.644 Y58.168 E2.02979
G1 X58.592 Y55.521 E2.28989
G1 X60.001 Y55.012 E2.42843
G1 X60.594 Y55.363 E2.49214
G1 X61.131 Y55.199 E2.54405
G1 X61.201 Y55.052 E2.55916
G1 X62.051 Y54.556 E2.65019
G1 X63.155 Y54.637 E2.75257
G1 X63.797 Y55.123 E2.82703
G1 X64.095 Y55.177 E2.85506
G1 X64.450 Y55.072 E2.88925
G1 X65.437 Y55.148 E2.98083
G1 X66.279 Y56.035 E3.09403
G1 X66.370 Y59.805 E3.44274
G1 X66.739 Y60.166 E3.49050
G1 X69.257 Y60.175 E3.72342
G1 X69.407 Y60.139 E3.73764
G1 X69.613 Y60.032 E3.75913
G1 X70.387 Y60.032 E3.83076
G1 X70.593 Y60.139 E3.85224
G1 X70.743 Y60.175 E3.86647
G1 X73.261 Y60.166 E4.09939
G1 X73.630 Y59.805 E4.14714
G1 X73.721 Y56.035 E4.49586
G1 X74.563 Y55.148 E4.60906
G1 X75.551 Y55.072 E4.70064
G1 X75.905 Y55.177 E4.73482
G1 X76.203 Y55.123 E4.76286
G1 X76.845 Y54.637 E4.83731
G1 X77.949 Y54.556 E4.93969
G1 X78.799 Y55.052 E5.03073
G1 X78.869 Y55.199 E5.04584
G1 X79.406 Y55.363 E5.09775
G1 X79.999 Y55.012 E5.16145
G1 X81.408 Y55.521 E5.30000
G1 X82.356 Y58.168 E5.56010
G1 X82.693 Y58.647 E5.61432
G1 X84.727 Y65.860 E6.30741
G1 X84.201 Y66.946 E6.41900
G1 X83.566 Y67.210 E6.48261
G1 X82.518 Y67.707 E6.58989
G1 X82.708 Y68.677 E6.68129
G1 X83.057 Y68.696 E6.71360
G1 X83.383 Y69.353 E6.78141
G1 X83.897 Y69.516 E6.83126
G1 X84.182 Y69.362 E6.86129
G1 X84.982 Y69.360 E6.93523
G1 X85.734 Y69.763 E7.01413
G1 X86.339 Y70.550 E7.10592
G1 X86.739 Y70.666 E7.14445
G1 X86.855 Y70.624 E7.15591
G1 X87.583 Y70.698 E7.22360
G1 X88.430 Y71.223 E7.31576
G1 X88.810 Y72.239 E7.41610
G1 X86.905 Y78.405 E8.01303
G1 X86.821 Y79.114 E8.07909
G1 X86.463 Y79.711 E8.14352
G1 X78.638 Y85.044 E9.01931
G1 X78.504 Y85.118 E9.03349
G1 X77.948 Y85.363 E9.08968
G1 X77.401 Y85.402 E9.14035
G1 X70.085 Y83.414 E9.84161
G1 X69.915 Y83.414 E9.85730
G1 X62.599 Y85.402 E10.55856
G1 X62.052 Y85.363 E10.60923
G1 X61.362 Y85.044 E10.67955
G1 X53.537 Y79.711 E11.55534
G1 X53.179 Y79.114 E11.61977
G1 X53.095 Y78.405 E11.68583
G1 X51.190 Y72.239 E12.28276
G1 X51.570 Y71.223 E12.38310
G1 X52.417 Y70.698 E12.47526
G1 X53.145 Y70.624 E12.54294
G1 X53.261 Y70.666 E12.55440
G1 X53.661 Y70.550 E12.59293
G1 X54.266 Y69.763 E12.68473
G1 X55.018 Y69.360 E12.76363
G1 X55.818 Y69.362 E12.83757
G1 X56.103 Y69.516 E12.86760
G1 X56.617 Y69.353 E12.91745
G1 X56.943 Y68.696 E12.98526
G1 X57.292 Y68.677 E13.01756
G1 X57.471 Y67.766 E13.10342
G1 F1800.000 E12.10342
G92 E0
G1 X62.737 Y66.036 F7800.000
G1 E1.00000 F1800.000
G1 X63.598 Y66.585 E1.09451 F1080.000
G1 X62.170 Y70.487 E1.47879
G1 X62.110 Y70.588 E1.48963
G1 X61.285 Y71.530 E1.60546
G1 X60.653 Y71.484 E1.66409
G1 X59.188 Y69.212 E1.91415
G1 X59.458 Y68.588 E1.97699
G1 X60.380 Y68.420 E2.06367
G1 X62.694 Y66.078 E2.36817
G1 F1800.000 E1.36817
G92 E0
G1 X76.402 Y66.585 F7800.000
G1 E1.00000 F1800.000
G1 X77.263 Y66.036 E1.09451 F1080.000
G1 X79.620 Y68.420 E1.40455
G1 X80.542 Y68.588 E1.49123
G1 X80.812 Y69.212 E1.55407
G1 X79.347 Y71.484 E1.80414
G1 X78.715 Y71.530 E1.86276
G1 X77.890 Y70.588 E1.97859
G1 X77.830 Y70.487 E1.98943
G1 X76.422 Y66.642 E2.36816
G1 F1800.000 E1.36816
G92 E0
G1 X74.812 Y64.093 F7800.000
G1 E1.00000 F1800.000
G1 X77.274 Y70.816 E1.66225 F1080.000
G1 X77.334 Y70.917 E1.67309
G1 X78.792 Y72.584 E1.87788
G1 X79.424 Y72.537 E1.93650
G1 X81.544 Y69.248 E2.29843
G1 X82.652 Y69.310 E2.40104
G1 X83.106 Y70.224 E2.49543
G1 X83.620 Y70.387 E2.54528
G1 X84.343 Y69.997 E2.62131
G1 X84.823 Y69.996 E2.66567
G1 X85.313 Y70.259 E2.71711
G1 X85.564 Y70.585 E2.75513
G1 X85.722 Y71.259 E2.81920
G1 X86.225 Y71.531 E2.87210
G1 X86.936 Y71.271 E2.94209
G1 X87.373 Y71.315 E2.98270
G1 X87.911 Y71.649 E3.04125
G1 X88.139 Y72.258 E3.10146
G1 X86.280 Y78.275 E3.68392
G1 X86.205 Y78.906 E3.74269
G1 X85.990 Y79.264 E3.78135
G1 X78.301 Y84.504 E4.64192
G1 X77.793 Y84.737 E4.69362
G1 X77.465 Y84.760 E4.72401
G1 X70.085 Y82.755 E5.43134
G1 X69.915 Y82.755 E5.44703
G1 X62.535 Y84.760 E6.15436
G1 X62.207 Y84.737 E6.18475
G1 X61.780 Y84.549 E6.22798
G1 X54.010 Y79.264 E7.09702
G1 X53.795 Y78.906 E7.13568
G1 X53.720 Y78.275 E7.19446
G1 X51.861 Y72.258 E7.77691
G1 X52.089 Y71.649 E7.83712
G1 X52.627 Y71.315 E7.89567
G1 X53.064 Y71.271 E7.93628
G1 X53.775 Y71.531 E8.00627
G1 X54.278 Y71.259 E8.05917
G1 X54.436 Y70.585 E8.12324
G1 X54.687 Y70.259 E8.16126
G1 X55.177 Y69.996 E8.21270
G1 X55.657 Y69.997 E8.25706
G1 X56.380 Y70.387 E8.33309
G1 X56.894 Y70.224 E8.38294
G1 X57.348 Y69.310 E8.47733
G1 X58.456 Y69.248 E8.57994
G1 X60.576 Y72.537 E8.94187
G1 X61.208 Y72.584 E9.00049
G1 X62.666 Y70.917 E9.20528
G1 X62.726 Y70.816 E9.21612
G1 X65.188 Y64.093 E9.87837
G1 X64.326 Y63.543 E9.97288
G1 X60.065 Y67.832 E10.53201
G1 X59.461 Y67.942 E10.58878
G1 X56.692 Y66.629 E10.87219
G1 X56.266 Y66.451 E10.91491
G1 X55.950 Y65.800 E10.98187
G1 X57.886 Y58.933 E11.64177
G1 X58.211 Y58.471 E11.69401
G1 X59.090 Y56.017 E11.93509
G1 X59.935 Y55.712 E12.01821
G1 X60.870 Y56.265 E12.11868
G1 X61.407 Y56.101 E12.17059
G1 X61.691 Y55.502 E12.23196
G1 X62.201 Y55.204 E12.28658
G1 X62.921 Y55.257 E12.35338
G1 X63.371 Y55.597 E12.40552
G1 X63.402 Y55.685 E12.41410
G1 X63.853 Y55.912 E12.46076
G1 X64.518 Y55.715 E12.52493
G1 X65.144 Y55.763 E12.58303
G1 X65.650 Y56.295 E12.65095
G1 X65.756 Y60.694 E13.05794
G1 X66.420 Y61.041 E13.12727
G1 X66.782 Y60.802 E13.16747
G1 X69.411 Y60.811 E13.41057
G1 X69.560 Y60.775 E13.42479
G1 X69.768 Y60.668 E13.44639
G1 X70.232 Y60.668 E13.48937
G1 X70.440 Y60.775 E13.51097
G1 X70.589 Y60.811 E13.52519
G1 X73.218 Y60.802 E13.76829
G1 X73.580 Y61.041 E13.80849
G1 X74.244 Y60.694 E13.87782
G1 X74.350 Y56.295 E14.28481
G1 X74.856 Y55.763 E14.35273
G1 X75.482 Y55.715 E14.41083
G1 X76.147 Y55.912 E14.47500
G1 X76.598 Y55.685 E14.52166
G1 X76.629 Y55.597 E14.53025
G1 X77.079 Y55.257 E14.58238
G1 X77.799 Y55.204 E14.64918
G1 X78.309 Y55.502 E14.70380
G1 X78.593 Y56.101 E14.76517
G1 X79.130 Y56.265 E14.81708
G1 X80.065 Y55.712 E14.91755
G1 X80.910 Y56.017 E15.00067
G1 X81.789 Y58.471 E15.24175
G1 X82.114 Y58.933 E15.29399
G1 X84.050 Y65.800 E15.95389
G1 X83.734 Y66.451 E16.02085
G1 X83.308 Y66.629 E16.06357
G1 X80.539 Y67.942 E16.34698
G1 X79.935 Y67.832 E16.40375
G1 X75.674 Y63.543 E16.96288
G1 X74.863 Y64.061 E17.05184
G1 F1800.000 E16.05184
G92 E0
G1 X65.020 Y56.555 F7800.000
G1 E1.00000 F1800.000
G1 X65.133 Y61.237 E1.43311 F1080.000
G1 X65.231 Y61.612 E1.46902
G1 X65.188 Y61.781 E1.48508
G1 X59.750 Y67.243 E2.19794
G1 X59.549 Y67.280 E2.21687
G1 X56.733 Y65.957 E2.50458
G1 X56.628 Y65.740 E2.52690
G1 X58.466 Y59.218 E3.15363
G1 X58.725 Y58.922 E3.18997
G1 X59.587 Y56.513 E3.42666
G1 X59.869 Y56.411 E3.45436
G1 X61.146 Y57.168 E3.59160
G1 X61.682 Y57.004 E3.64350
G1 X62.181 Y55.952 E3.75114
G1 X62.351 Y55.853 E3.76935
G1 X62.687 Y55.877 E3.80056
G1 X62.837 Y55.991 E3.81794
G1 X63.120 Y56.772 E3.89479
G1 X63.739 Y56.953 E3.95436
G1 X64.474 Y56.391 E4.03998
G1 X64.586 Y56.358 E4.05081
G1 X64.852 Y56.378 E4.07544
G1 X64.979 Y56.512 E4.09253
G1 F1800.000 E3.09253
G92 E0
G1 X74.980 Y56.555 F7800.000
G1 E1.00000 F1800.000
G1 X75.148 Y56.378 E1.02264 F1080.000
G1 X75.414 Y56.358 E1.04727
G1 X75.526 Y56.391 E1.05810
G1 X76.261 Y56.953 E1.14372
G1 X76.880 Y56.772 E1.20329
G1 X77.163 Y55.991 E1.28014
G1 X77.313 Y55.877 E1.29752
G1 X77.649 Y55.853 E1.32873
G1 X77.819 Y55.952 E1.34694
G1 X78.318 Y57.004 E1.45458
G1 X78.854 Y57.168 E1.50648
G1 X80.131 Y56.411 E1.64372
G1 X80.413 Y56.513 E1.67142
G1 X81.275 Y58.922 E1.90811
G1 X81.534 Y59.218 E1.94445
G1 X83.372 Y65.740 E2.57118
G1 X83.267 Y65.957 E2.59350
G1 X80.451 Y67.280 E2.88121
G1 X80.250 Y67.243 E2.90013
G1 X74.812 Y61.781 E3.61300
G1 X74.769 Y61.612 E3.62906
G1 X74.867 Y61.237 E3.66497
G1 X74.978 Y56.615 E4.09253
G1 F1800.000 E3.09253
G92 E0
G1 X73.188 Y61.544 F7800.000
G1 E1.00000 F1800.000
G1 X73.298 Y61.807 E1.02640 F1080.000
G1 X76.670 Y71.045 E1.93591
G1 X76.746 Y71.211 E1.95288
G1 X78.869 Y73.637 E2.25098
G1 X79.501 Y73.591 E2.30961
G1 X81.878 Y69.904 E2.71535
G1 X82.247 Y69.924 E2.74956
G1 X82.829 Y71.095 E2.87052
G1 X83.343 Y71.259 E2.92037
G1 X84.504 Y70.632 E3.04239
G1 X84.664 Y70.632 E3.05718
G1 X84.893 Y70.755 E3.08116
G1 X84.976 Y70.863 E3.09383
G1 X85.267 Y72.102 E3.21156
G1 X85.770 Y72.374 E3.26446
G1 X87.017 Y71.918 E3.38725
G1 X87.162 Y71.933 E3.40078
G1 X87.392 Y72.075 E3.42573
G1 X87.468 Y72.278 E3.44580
G1 X85.655 Y78.145 E4.01378
G1 X85.588 Y78.698 E4.06527
G1 X85.517 Y78.818 E4.07816
G1 X77.964 Y83.964 E4.92350
G1 X77.637 Y84.111 E4.95659
G1 X77.528 Y84.119 E4.96672
G1 X70.085 Y82.096 E5.68011
G1 X69.915 Y82.096 E5.69579
G1 X62.472 Y84.119 E6.40918
G1 X62.363 Y84.111 E6.41932
G1 X62.036 Y83.964 E6.45240
G1 X54.483 Y78.818 E7.29774
G1 X54.412 Y78.698 E7.31063
G1 X54.345 Y78.145 E7.36212
G1 X52.532 Y72.278 E7.93011
G1 X52.608 Y72.075 E7.95018
G1 X52.838 Y71.933 E7.97512
G1 X52.983 Y71.918 E7.98866
G1 X54.230 Y72.374 E8.11144
G1 X54.733 Y72.102 E8.16435
G1 X55.024 Y70.863 E8.28207
G1 X55.107 Y70.755 E8.29474
G1 X55.336 Y70.632 E8.31872
G1 X55.496 Y70.632 E8.33351
G1 X56.657 Y71.259 E8.45553
G1 X57.171 Y71.095 E8.50538
G1 X57.753 Y69.924 E8.62635
G1 X58.122 Y69.904 E8.66055
G1 X60.499 Y73.591 E9.06629
G1 X61.131 Y73.637 E9.12492
G1 X63.254 Y71.211 E9.42303
G1 X63.330 Y71.045 E9.43999
G1 X66.702 Y61.807 E10.34950
G1 X66.812 Y61.544 E10.37590
G1 X66.973 Y61.438 E10.39370
G1 X69.565 Y61.447 E10.63344
G1 X69.714 Y61.411 E10.64767
G1 X69.923 Y61.303 E10.66938
G1 X70.077 Y61.303 E10.68370
G1 X70.286 Y61.411 E10.70541
G1 X70.435 Y61.447 E10.71964
G1 X73.027 Y61.438 E10.95938
G1 X73.138 Y61.511 E10.97163
G1 F1800.000 E9.97163
G92 E0
G1 X82.896 Y72.259 F7800.000
G1 E1.00000 F1800.000
G1 X84.424 Y71.434 E1.16064 F378.000
G1 X84.813 Y73.092 E1.31810
G1 X85.182 Y73.300 E1.35731
G1 X86.615 Y72.776 E1.49844
G1 X84.989 Y78.038 E2.00783
G1 X84.950 Y78.396 E2.04109
G1 X77.556 Y83.434 E2.86860
G1 X70.000 Y81.381 E3.59283
G1 X62.444 Y83.434 E4.31706
G1 X55.050 Y78.396 E5.14457
G1 X55.011 Y78.038 E5.17783
G1 X53.385 Y72.776 E5.68721
G1 X54.818 Y73.300 E5.82834
G1 X55.187 Y73.092 E5.86755
G1 X55.576 Y71.434 E6.02502
G1 X57.104 Y72.259 E6.18566
G1 X57.430 Y72.073 E6.22032
G1 X57.994 Y70.938 E6.33756
G1 X60.257 Y74.447 E6.72370
G1 X60.465 Y74.616 E6.74848
G1 X60.719 Y75.122 E6.80087
G1 X64.015 Y71.355 E7.26380
G1 X64.001 Y71.125 E7.28516
G1 X67.303 Y62.107 E8.17337
G1 X69.805 Y62.116 E8.40483
G1 X70.000 Y62.015 E8.42510
G1 X70.195 Y62.116 E8.44537
G1 X72.697 Y62.107 E8.67682
G1 X75.999 Y71.125 E9.56503
G1 X75.985 Y71.355 E9.58639
G1 X79.281 Y75.122 E10.04932
G1 X79.535 Y74.616 E10.10171
G1 X79.743 Y74.447 E10.12649
G1 X82.006 Y70.938 E10.51264
G1 X82.570 Y72.073 E10.62987
G1 X82.843 Y72.229 E10.65899
G1 X83.147 Y72.569 F7800.000
G1 X79.425 Y76.252 F7800.000
G1 X80.041 Y75.024 E10.78608 F540.000
G1 X80.222 Y74.878 E10.80759
G1 X81.830 Y72.384 E11.08199
G1 X82.887 Y72.985 E11.19450
G1 X83.995 Y72.388 E11.31087
G1 X84.258 Y73.508 E11.41731
G1 X85.125 Y73.998 E11.50944
G1 X85.629 Y73.814 E11.55910
G1 X84.364 Y77.908 E11.95548
G1 X84.350 Y78.035 E11.96728
G1 X77.438 Y82.743 E12.74077
G1 X70.000 Y80.723 E13.45369
G1 X62.562 Y82.743 E14.16660
G1 X55.650 Y78.035 E14.94010
G1 X55.636 Y77.908 E14.95189
G1 X54.371 Y73.814 E15.34828
G1 X54.875 Y73.998 E15.39794
G1 X55.742 Y73.508 E15.49006
G1 X56.005 Y72.388 E15.59650
G1 X57.113 Y72.985 E15.71287
G1 X58.170 Y72.384 E15.82539
G1 X59.778 Y74.878 E16.09979
G1 X59.959 Y75.024 E16.12129
G1 X60.575 Y76.252 E16.24839
G1 X64.665 Y71.578 E16.82288
G1 X64.644 Y71.219 E16.85612
G1 X67.747 Y62.744 E17.69083
G1 X72.253 Y62.744 E18.10769
G1 X75.356 Y71.219 E18.94240
G1 X75.335 Y71.578 E18.97564
G1 X79.386 Y76.207 E19.54458
G1 X79.569 Y77.382 F7800.000
G1 X80.548 Y75.432 E19.74639 F540.000
G1 X80.701 Y75.308 E19.76461
G1 X82.038 Y73.234 E19.99287
G1 X82.879 Y73.712 E20.08234
G1 X83.566 Y73.342 E20.15446
G1 X83.702 Y73.925 E20.20987
G1 X84.747 Y74.515 E20.32085
G1 X83.777 Y77.657 E20.62500
G1 X77.323 Y82.053 E21.34728
G1 X70.000 Y80.064 E22.04909
G1 X62.677 Y82.053 E22.75090
G1 X56.223 Y77.657 E23.47317
G1 X55.253 Y74.515 E23.77732
G1 X56.298 Y73.925 E23.88830
G1 X56.434 Y73.342 E23.94372
G1 X57.121 Y73.712 E24.01583
G1 X57.962 Y73.234 E24.10530
G1 X59.299 Y75.308 E24.33356
G1 X59.452 Y75.432 E24.35179
G1 X60.431 Y77.382 E24.55359
G1 X65.315 Y71.800 E25.23965
G1 X65.286 Y71.313 E25.28475
G1 X68.190 Y63.381 E26.06598
G1 X71.810 Y63.381 E26.40078
G1 X74.714 Y71.313 E27.18201
G1 X74.685 Y71.800 E27.22712
G1 X79.530 Y77.337 E27.90762
G1 X84.145 Y74.681 F7800.000
G1 X84.213 Y74.749 E27.91661 F1080.000
G1 X83.997 Y75.449 E27.98433
G1 X82.619 Y74.071 E28.16461
G1 X81.898 Y74.265 E28.23369
G1 X83.781 Y76.148 E28.48004
G1 X83.565 Y76.848 E28.54775
G1 X81.539 Y74.822 E28.81277
G1 X81.180 Y75.378 E28.87404
G1 X83.270 Y77.468 E29.14740
G1 X82.725 Y77.839 E29.20835
G1 X80.799 Y75.913 E29.46027
G1 X80.493 Y76.523 E29.52337
G1 X82.181 Y78.210 E29.74407
G1 X81.636 Y78.581 E29.80501
G1 X80.188 Y77.133 E29.99449
G1 X79.882 Y77.742 E30.05758
G1 X81.092 Y78.952 E30.21582
G1 X80.547 Y79.323 E30.27677
G1 X67.573 Y66.349 E31.97380
G1 X67.327 Y67.019 E32.03981
G1 X80.002 Y79.694 E33.69771
G1 X79.458 Y80.065 E33.75865
G1 X67.082 Y67.690 E35.37740
G1 X66.837 Y68.360 E35.44342
G1 X78.913 Y80.436 E37.02303
G1 X78.368 Y80.807 E37.08398
G1 X66.591 Y69.030 E38.62445
G1 X66.346 Y69.700 E38.69046
G1 X77.824 Y81.178 E40.19179
G1 X77.279 Y81.549 E40.25274
G1 X66.101 Y70.370 E41.71493
G1 X65.855 Y71.041 E41.78095
G1 X76.071 Y81.256 E43.11715
G1 X74.814 Y80.915 E43.23763
G1 X65.761 Y71.862 E44.42179
G1 X65.379 Y72.396 E44.48251
G1 X73.557 Y80.573 E45.55211
G1 X72.300 Y80.232 E45.67259
G1 X64.952 Y72.884 E46.63366
G1 X64.525 Y73.373 E46.69367
G1 X71.043 Y79.890 E47.54621
G1 X69.877 Y79.641 E47.65645
G1 X64.097 Y73.861 E48.41244
G1 X63.670 Y74.349 E48.47245
G1 X69.157 Y79.836 E49.19016
G1 X68.437 Y80.032 E49.25916
G1 X63.243 Y74.837 E49.93858
G1 X62.816 Y75.326 E49.99859
G1 X67.717 Y80.227 E50.63972
G1 X66.997 Y80.423 E50.70873
G1 X62.388 Y75.814 E51.31156
G1 X61.961 Y76.302 E51.37158
G1 X66.277 Y80.618 E51.93612
G1 X65.557 Y80.814 E52.00513
G1 X61.534 Y76.791 E52.53139
G1 X61.106 Y77.279 E52.59141
G1 X64.837 Y81.010 E53.07938
G1 X64.117 Y81.205 E53.14838
G1 X60.679 Y77.767 E53.59807
G1 X59.579 Y76.667 F7800.000
G1 X57.127 Y74.215 E53.91876 F1080.000
G1 X57.711 Y73.883 E53.98087
G1 X58.120 Y74.292 E54.03434
G1 X56.381 Y74.384 E54.19541
G1 X63.397 Y81.401 E55.11317
G1 X62.435 Y81.355 E55.20221
G1 X55.808 Y74.728 E56.06905
G1 X56.176 Y76.011 E56.19256
G1 X59.564 Y79.399 E56.63562
G1 X56.692 Y77.442 F7800.000
G1 X56.586 Y77.336 E56.64951 F1080.000
G1 F1800.000 E55.64951
G92 E0
G1 X67.818 Y65.679 F7800.000
G1 E1.00000 F1800.000
G1 X75.219 Y73.080 E1.96809 F1080.000
G1 X74.173 Y71.119 F7800.000
G1 X68.064 Y65.009 E2.76726 F1080.000
G1 X68.309 Y64.339 E2.83327
G1 X73.645 Y69.674 E3.53116
G1 X73.116 Y68.230 F7800.000
G1 X68.708 Y63.822 E4.10766 F1080.000
G1 X69.624 Y63.822 E4.19234
G1 X72.587 Y66.785 E4.57991
G1 X72.058 Y65.341 F7800.000
G1 X70.539 Y63.822 E4.77853 F1080.000
G1 X71.455 Y63.822 E4.86322
G1 X71.529 Y63.896 E4.87290
G1 F1800.000 E3.87290
G92 E0
G1 X77.011 Y58.367 F7800.000
G1 E1.00000 F1800.000
G1 X77.537 Y56.917 E1.14271 F378.000
G1 X78.117 Y58.140 E1.26794
G1 X78.622 Y58.081 E1.31498
G1 X79.977 Y57.279 E1.46064
G1 X80.760 Y59.464 E1.67533
G1 X80.944 Y59.583 E1.69563
G1 X82.615 Y65.515 E2.26562
G1 X80.485 Y66.525 E2.48364
