; generated by Slic3r 1.1.7 on 2015-01-26 at 00:22:28

; perimeters extrusion width = 0.40mm
; infill extrusion width = 0.67mm
; solid infill extrusion width = 0.67mm
; top infill extrusion width = 0.67mm
; support material extrusion width = 0.40mm

G21 ; set units to millimeters
M107
M190 S40 ; wait for bed temperature to be reached
M104 S195 ; set temperature
G28 ; home all axes
G29 ;
G1 Z5 F5000 ; lift nozzle

M109 S195 ; wait for temperature to be reached
G90 ; use absolute coordinates
G92 E0
M82 ; use absolute distances for extrusion
G1 F1800.000 E-1.00000
G92 E0
G1 Z0.300 F7800.000
G1 X58.884 Y55.530 F7800.000
G1 E1.00000 F1800.000
G1 X59.210 Y54.878 E1.03634 F1080.000
G1 X59.900 Y55.287 E1.07635
G1 X56.746 Y61.581 E1.42760
G1 X55.597 Y65.658 F7800.000
G1 X60.590 Y55.696 E1.98358 F1080.000
G1 F1800.000 E0.98358
G92 E0
G1 X63.575 Y55.097 F7800.000
G1 E1.00000 F1800.000
G1 X57.415 Y67.387 E1.68588 F1080.000
G1 X56.692 Y67.045 E1.72580
G1 X62.772 Y54.914 E2.40276
G1 X61.909 Y54.851 E2.44594
G1 X55.955 Y66.729 E3.10882
G1 F1800.000 E2.10882
G92 E0
G1 X58.536 Y68.721 F7800.000
G1 E1.00000 F1800.000
G1 X53.423 Y78.923 E1.56937 F1080.000
G1 X53.943 Y79.672 E1.61483
G1 X59.040 Y69.502 E2.18238
G1 X59.543 Y70.282 E2.22873
G1 X54.610 Y80.126 E2.77806
G1 X55.277 Y80.581 E2.81833
G1 X60.047 Y71.063 E3.34944
G1 X60.550 Y71.844 E3.39580
G1 X55.944 Y81.035 E3.90869
G1 X56.611 Y81.489 E3.94896
G1 X61.550 Y71.635 E4.49887
G1 F1800.000 E3.49887
G92 E0
G1 X63.280 Y68.184 F7800.000
G1 E1.00000 F1800.000
G1 X67.163 Y60.435 E1.43244 F1080.000
G1 X68.057 Y60.438 E1.47700
G1 X57.278 Y81.944 E2.67713
G1 X57.945 Y82.398 E2.71740
G1 X68.950 Y60.442 E3.94271
G1 X70.008 Y60.116 E3.99793
G1 X58.612 Y82.853 E5.26675
G1 X59.279 Y83.307 E5.30702
G1 X70.739 Y60.443 E6.58298
G1 X71.636 Y60.439 E6.62771
G1 X59.947 Y83.761 E7.92921
G1 X60.614 Y84.216 E7.96948
G1 X72.532 Y60.436 E9.29652
G1 X73.428 Y60.433 E9.34125
G1 X61.281 Y84.670 E10.69383
G1 X61.986 Y85.048 E10.73375
G1 X77.084 Y54.925 E12.41481
G1 X78.013 Y54.857 E12.46129
G1 X62.867 Y85.076 E14.14770
G1 F1800.000 E13.14770
G92 E0
G1 X73.240 Y84.019 F7800.000
G1 E1.00000 F1800.000
G1 X79.084 Y72.360 E1.65064 F1080.000
G1 X78.515 Y71.709 E1.69374
G1 X72.453 Y83.805 E2.36873
G1 X71.665 Y83.591 E2.40945
G1 X77.946 Y71.059 E3.10878
G1 X77.468 Y70.227 E3.15665
G1 X70.878 Y83.377 E3.89049
G1 X70.090 Y83.163 E3.93121
G1 X77.091 Y69.195 E4.71069
G1 X76.713 Y68.163 E4.76550
G1 X69.082 Y83.388 E5.61510
G1 X68.047 Y83.669 E5.66866
G1 X76.335 Y67.132 E6.59153
G1 X75.957 Y66.100 E6.64635
G1 X67.011 Y83.950 E7.64250
G1 X65.975 Y84.232 E7.69606
G1 X75.580 Y65.068 E8.76549
G1 X75.270 Y63.901 E8.82573
G1 X79.371 Y55.719 E9.28235
G1 X78.649 Y55.373 F7800.000
G1 X63.903 Y84.795 E10.92425 F1080.000
G1 X64.939 Y84.513 E10.97780
G1 X75.202 Y64.037 E12.12051
G1 X75.947 Y64.336 F7800.000
G1 X80.643 Y54.965 E12.64344 F1080.000
G1 X81.174 Y55.691 E12.68832
G1 X76.543 Y64.932 E13.20402
G1 X77.138 Y65.529 E13.24609
G1 X81.547 Y56.733 E13.73698
G1 X81.920 Y57.774 E13.79217
G1 X77.734 Y66.126 E14.25825
G1 X78.330 Y66.723 E14.30032
G1 X82.408 Y58.586 E14.75444
G1 X82.732 Y59.726 E14.81356
G1 X78.925 Y67.320 E15.23738
G1 X79.516 Y67.926 E15.27962
G1 X83.054 Y60.868 E15.67349
G1 X83.376 Y62.011 E15.73274
G1 X80.105 Y68.537 E16.09688
G1 X81.262 Y68.015 E16.16019
G1 X83.698 Y63.154 E16.43142
G1 X84.020 Y64.297 E16.49066
G1 X74.028 Y84.233 E17.60316
G1 X74.816 Y84.446 E17.64388
G1 X82.732 Y68.652 E18.52530
G1 X83.178 Y69.548 E18.57525
G1 X75.603 Y84.660 E19.41858
G1 X76.391 Y84.874 E19.45930
G1 X83.950 Y69.793 E20.30094
G1 X84.916 Y69.652 E20.34963
G1 X77.179 Y85.088 E21.21110
G1 X78.116 Y85.003 E21.25807
G1 X85.621 Y70.029 E22.09372
G1 X86.028 Y71.003 E22.14636
G1 X79.416 Y84.196 E22.88263
G1 X80.774 Y83.270 E22.96465
G1 X86.994 Y70.860 E23.65720
G1 X87.749 Y71.141 E23.69735
G1 X82.133 Y82.345 E24.32261
G1 X83.492 Y81.419 E24.40463
G1 X88.431 Y71.564 E24.95463
G1 X87.773 Y74.664 F7800.000
G1 X84.851 Y80.494 E25.27999 F1080.000
G1 X86.209 Y79.568 E25.36201
G1 X86.590 Y78.809 E25.40438
G1 F1800.000 E24.40438
G92 E0
G1 X83.604 Y66.913 F7800.000
G1 E1.00000 F1800.000
G1 X84.342 Y65.440 E1.08217 F1080.000
G1 X73.919 Y59.455 F7800.000
G1 X75.927 Y55.447 E1.30581 F1080.000
G1 X75.051 Y55.410 E1.34957
G1 X73.964 Y57.579 E1.47061
G1 X74.009 Y55.704 F7800.000
G1 X74.120 Y55.482 E1.48301 F1080.000
G1 F1800.000 E0.48301
G92 E0
G1 X65.989 Y55.636 F7800.000
G1 E1.00000 F1800.000
G1 X59.584 Y68.416 E1.71317 F1080.000
G1 X58.861 Y68.073 E1.75310
G1 X65.198 Y55.429 E2.45867
G1 X64.336 Y55.363 E2.50180
G1 X53.156 Y77.670 E3.74662
G1 X52.815 Y76.565 E3.80430
G1 X56.175 Y69.860 E4.17847
G1 X55.471 Y69.481 E4.21840
G1 X52.474 Y75.461 E4.55213
G1 X52.132 Y74.356 E4.60981
G1 X53.748 Y71.132 E4.78974
G1 X52.992 Y70.855 E4.82991
G1 X51.791 Y73.252 E4.96364
G1 X51.450 Y72.147 E5.02132
G1 X51.820 Y71.408 E5.06258
G1 F1800.000 E4.06258
G92 E0
G1 X54.111 Y70.408 F7800.000
G1 E1.00000 F1800.000
G1 X54.273 Y70.086 E1.01798 F1080.000
G1 F1800.000 E0.01798
G92 E0
G1 X60.981 Y67.414 F7800.000
G1 E1.00000 F1800.000
G1 X66.030 Y57.340 E1.56220 F1080.000
G1 X66.071 Y59.043 E1.64722
G1 X62.779 Y65.613 E2.01383
G1 X64.576 Y63.811 F7800.000
G1 X66.270 Y60.432 E2.20241 F1080.000
M106 S255
M104 S190 ; set temperature
M140 S35 ; set bed temperature
G1 F1800.000 E1.20241
G92 E0
G1 Z0.500 F7800.000
G1 X68.641 Y64.127 F7800.000
G1 E1.00000 F1800.000
G1 X67.198 Y61.627 E1.09601 F1176.475
G1 X63.618 Y61.627 E1.21507
G1 X62.175 Y64.127 E1.31108
G1 X58.595 Y64.127 E1.43014
G1 X57.163 Y61.647 E1.52539
G1 X55.870 Y66.239 E1.68406
G1 X56.708 Y66.588 E1.71427
G1 X57.256 Y66.847 E1.73442
G1 X58.595 Y64.527 E1.82352
G1 X62.175 Y64.527 E1.94257
G1 X62.576 Y65.222 E1.96924
G1 X64.523 Y63.271 E2.06091
G1 X65.336 Y63.789 E2.09300
G1 X64.150 Y67.027 E2.20768
G1 X67.198 Y67.027 E2.30903
G1 X68.641 Y64.527 E2.40504
G1 X72.221 Y64.527 E2.52410
G1 X73.664 Y67.027 E2.62011
G1 X75.850 Y67.027 E2.69280
G1 X74.664 Y63.789 E2.80749
G1 X75.477 Y63.271 E2.83957
G1 X77.970 Y65.769 E2.95695
G1 X78.687 Y64.527 E3.00462
G1 X82.267 Y64.527 E3.12368
G1 X83.424 Y66.533 E3.20070
G1 X84.130 Y66.239 E3.22613
G1 X83.119 Y62.650 E3.35013
G1 X82.267 Y64.127 E3.40686
G1 X78.687 Y64.127 E3.52591
G1 X77.244 Y61.627 E3.62193
G1 X73.664 Y61.627 E3.74098
G1 X72.221 Y64.127 E3.83700
G1 X68.641 Y64.127 E3.95605
G1 X68.641 Y69.927 F7800.000
G1 X67.198 Y67.427 E4.05207 F1176.475
G1 X64.004 Y67.427 E4.15829
G1 X62.719 Y70.937 E4.28261
G1 X62.603 Y71.069 E4.28845
G1 X63.618 Y72.827 E4.35596
G1 X67.198 Y72.827 E4.47502
G1 X68.641 Y70.327 E4.57104
G1 X72.221 Y70.327 E4.69009
G1 X73.664 Y72.827 E4.78611
G1 X77.244 Y72.827 E4.90516
G1 X77.916 Y71.663 E4.94989
G1 X77.281 Y70.937 E4.98195
G1 X75.996 Y67.427 E5.10627
G1 X73.664 Y67.427 E5.18383
G1 X72.221 Y69.927 E5.27985
G1 X68.641 Y69.927 E5.39891
G1 F1800.000 E4.39891
G92 E0
G1 X60.889 Y67.478 F7800.000
G1 E1.00000 F1800.000
G1 X64.579 Y63.781 E1.17374 F1176.475
G1 X64.850 Y63.954 E1.18444
G1 X62.369 Y70.730 E1.42444
G1 X60.894 Y72.415 E1.49892
G1 X58.036 Y67.981 E1.67439
G1 X58.235 Y67.754 E1.68443
G1 X59.873 Y68.530 E1.74473
G1 X60.889 Y67.478 E1.79336
G1 F1800.000 E0.79336
G92 E0
G1 X58.595 Y69.927 F7800.000
G1 E1.00000 F1800.000
G1 X57.793 Y68.538 E1.05334 F1176.475
G1 X56.746 Y70.645 E1.13159
G1 X55.437 Y69.939 E1.18108
G1 X54.540 Y70.419 E1.21490
G1 X54.227 Y71.754 E1.26052
G1 X52.864 Y71.256 E1.30881
G1 X52.717 Y71.346 E1.31453
G1 X53.572 Y72.827 E1.37141
G1 X57.152 Y72.827 E1.49047
G1 X58.595 Y70.327 E1.58648
G1 X59.072 Y70.327 E1.60235
G1 X58.815 Y69.927 E1.61818
G1 X58.595 Y69.927 E1.62547
G1 X58.595 Y75.727 F7800.000
G1 X57.152 Y73.227 E1.72149 F1176.475
G1 X53.572 Y73.227 E1.84055
G1 X52.693 Y74.749 E1.89901
G1 X53.769 Y78.231 E2.02020
G1 X53.813 Y78.627 E2.03346
G1 X57.152 Y78.627 E2.14452
G1 X58.595 Y76.127 E2.24054
G1 X62.175 Y76.127 E2.35959
G1 X63.618 Y78.627 E2.45561
G1 X67.198 Y78.627 E2.57466
G1 X68.641 Y76.127 E2.67068
G1 X72.221 Y76.127 E2.78973
G1 X73.664 Y78.627 E2.88575
G1 X77.244 Y78.627 E3.00481
G1 X78.687 Y76.127 E3.10082
G1 X82.267 Y76.127 E3.21988
G1 X83.710 Y78.627 E3.31589
G1 X86.187 Y78.627 E3.39829
G1 X86.231 Y78.231 E3.41155
G1 X87.607 Y73.777 E3.56659
G1 X87.290 Y73.227 E3.58771
G1 X83.710 Y73.227 E3.70677
G1 X82.267 Y75.727 E3.80278
G1 X78.687 Y75.727 E3.92184
G1 X77.244 Y73.227 E4.01785
G1 X73.664 Y73.227 E4.13691
G1 X72.221 Y75.727 E4.23292
G1 X68.641 Y75.727 E4.35198
G1 X67.198 Y73.227 E4.44799
G1 X63.618 Y73.227 E4.56705
G1 X62.175 Y75.727 E4.66306
G1 X58.595 Y75.727 E4.78212
G1 X58.595 Y81.527 F7800.000
G1 X57.152 Y79.027 E4.87813 F1176.475
G1 X53.857 Y79.027 E4.98773
G1 X53.866 Y79.111 E4.99055
G1 X58.427 Y82.218 E5.17410
G1 X58.595 Y81.927 E5.18528
G1 X62.175 Y81.927 E5.30434
G1 X63.618 Y84.427 E5.40035
G1 X67.857 Y83.285 E5.54636
G1 X68.641 Y81.927 E5.59852
G1 X72.221 Y81.927 E5.71758
G1 X73.165 Y83.563 E5.78040
G1 X76.347 Y84.427 E5.89006
G1 X77.244 Y84.427 E5.91989
G1 X78.687 Y81.927 E6.01590
G1 X82.000 Y81.927 E6.12610
G1 X86.134 Y79.111 E6.29245
G1 X86.143 Y79.027 E6.29527
G1 X83.710 Y79.027 E6.37620
G1 X82.267 Y81.527 E6.47222
G1 X78.687 Y81.527 E6.59127
G1 X77.244 Y79.027 E6.68729
G1 X73.664 Y79.027 E6.80634
G1 X72.221 Y81.527 E6.90236
G1 X68.641 Y81.527 E7.02142
G1 X67.198 Y79.027 E7.11743
G1 X63.618 Y79.027 E7.23649
G1 X62.175 Y81.527 E7.33250
G1 X58.595 Y81.527 E7.45156
G1 X75.150 Y63.954 F7800.000
G1 X75.421 Y63.781 E7.46226 F1176.475
G1 X79.111 Y67.478 E7.63600
G1 X80.127 Y68.530 E7.68463
G1 X81.765 Y67.754 E7.74493
G1 X81.964 Y67.981 E7.75498
G1 X79.106 Y72.415 E7.93044
G1 X77.631 Y70.730 E8.00492
G1 X75.150 Y63.954 E8.24492
G1 X78.687 Y58.327 F7800.000
G1 X77.244 Y55.827 E8.34093 F1176.475
G1 X76.607 Y55.827 E8.36211
G1 X76.417 Y56.350 E8.38062
G1 X75.733 Y55.827 E8.40927
G1 X75.109 Y55.827 E8.43004
G1 X74.425 Y55.879 E8.45284
G1 X74.305 Y60.850 E8.61820
G1 X73.448 Y60.853 E8.64672
G1 X73.664 Y61.227 E8.66110
G1 X77.244 Y61.227 E8.78015
G1 X78.687 Y58.727 E8.87617
G1 X81.933 Y58.727 E8.98413
G1 X81.779 Y58.627 E8.99024
G1 X81.672 Y58.327 E9.00084
G1 X78.687 Y58.327 E9.10011
G1 X78.927 Y56.005 F7800.000
G1 X78.379 Y54.850 E9.14264 F1176.475
G1 X76.486 Y54.989 E9.20579
G1 X76.227 Y55.701 E9.23101
G1 X75.798 Y55.373 E9.24898
G1 X74.034 Y55.508 E9.30782
G1 X73.915 Y60.451 E9.47228
G1 X70.634 Y60.463 E9.58141
G1 X70.000 Y60.135 E9.60515
G1 X69.366 Y60.463 E9.62889
G1 X66.085 Y60.451 E9.73802
G1 X65.966 Y55.508 E9.90247
G1 X64.202 Y55.373 E9.96132
G1 X63.773 Y55.701 E9.97929
G1 X63.514 Y54.989 E10.00451
G1 X61.621 Y54.850 E10.06766
G1 X61.073 Y56.005 E10.11018
G1 X59.144 Y54.862 E10.18477
G1 X57.890 Y58.365 E10.30851
G1 X57.627 Y58.536 E10.31893
G1 X55.388 Y66.472 E10.59320
G1 X56.546 Y66.953 E10.63489
G1 X57.832 Y67.563 E10.68221
G1 X56.572 Y70.097 E10.77634
G1 X55.438 Y69.485 E10.81922
G1 X54.192 Y70.152 E10.86620
G1 X53.941 Y71.224 E10.90282
G1 X52.818 Y70.813 E10.94257
G1 X51.341 Y71.728 E11.00036
G1 X53.376 Y78.313 E11.22957
G1 X53.489 Y79.338 E11.26390
G1 X61.559 Y84.839 E11.58875
G1 X62.366 Y85.193 E11.61806
G1 X70.000 Y83.118 E11.88117
G1 X77.634 Y85.193 E12.14428
G1 X78.441 Y84.839 E12.17359
G1 X86.511 Y79.338 E12.49845
G1 X86.624 Y78.313 E12.53277
G1 X88.659 Y71.728 E12.76199
G1 X87.182 Y70.813 E12.81978
G1 X86.059 Y71.224 E12.85952
G1 X85.808 Y70.152 E12.89614
G1 X84.562 Y69.485 E12.94313
G1 X83.428 Y70.097 E12.98600
G1 X82.168 Y67.563 E13.08013
G1 X83.454 Y66.953 E13.12745
G1 X84.612 Y66.472 E13.16915
G1 X82.373 Y58.536 E13.44341
G1 X82.110 Y58.365 E13.45383
G1 X80.856 Y54.862 E13.57758
G1 X78.927 Y56.005 E13.65216
G1 X77.244 Y55.427 F7800.000
G1 X77.300 Y55.330 E13.65590 F1176.475
G1 X76.773 Y55.369 E13.67345
G1 X76.752 Y55.427 E13.67552
G1 X77.244 Y55.427 E13.69188
G1 F1800.000 E12.69188
G92 E0
G1 X65.575 Y55.879 F7800.000
G1 E1.00000 F1800.000
G1 X64.892 Y55.827 E1.02280 F1176.475
G1 X64.267 Y55.827 E1.04357
G1 X63.583 Y56.350 E1.07222
G1 X63.480 Y56.067 E1.08226
G1 X62.175 Y58.327 E1.16908
G1 X58.595 Y58.327 E1.28813
G1 X58.431 Y58.042 E1.29909
G1 X58.221 Y58.627 E1.31977
G1 X57.970 Y58.790 E1.32970
G1 X57.405 Y60.788 E1.39877
G1 X58.595 Y58.727 E1.47792
G1 X62.175 Y58.727 E1.59697
G1 X63.618 Y61.227 E1.69299
G1 X67.198 Y61.227 E1.81204
G1 X67.412 Y60.856 E1.82630
G1 X65.695 Y60.850 E1.88342
G1 X65.575 Y55.879 E2.04878
G1 F1800.000 E1.04878
G92 E0
G1 X83.254 Y70.645 F7800.000
G1 E1.00000 F1800.000
G1 X82.605 Y69.341 E1.04846 F1176.475
G1 X82.267 Y69.927 E1.07099
G1 X81.185 Y69.927 E1.10695
G1 X80.928 Y70.327 E1.12278
G1 X82.267 Y70.327 E1.16731
G1 X83.710 Y72.827 E1.26332
G1 X87.290 Y72.827 E1.38238
G1 X87.918 Y71.739 E1.42416
G1 X87.136 Y71.256 E1.45472
G1 X85.773 Y71.754 E1.50300
G1 X85.460 Y70.419 E1.54862
G1 X84.563 Y69.939 E1.58244
G1 X83.254 Y70.645 E1.63193
G1 F1800.000 E0.63193
G92 E0
G1 Z0.700 F7800.000
G1 E1.00000 F1800.000
G1 X84.563 Y69.939 E1.04949 F1176.475
G1 X85.460 Y70.419 E1.08331
G1 X85.773 Y71.754 E1.12893
G1 X87.136 Y71.256 E1.17721
G1 X87.918 Y71.739 E1.20778
G1 X87.290 Y72.827 E1.24955
G1 X83.710 Y72.827 E1.36861
G1 X82.267 Y70.327 E1.46462
G1 X80.928 Y70.327 E1.50915
G1 X81.185 Y69.927 E1.52498
G1 X82.267 Y69.927 E1.56094
G1 X82.605 Y69.341 E1.58347
G1 X83.254 Y70.645 E1.63193
G1 F1800.000 E0.63193
G92 E0
G1 X75.150 Y63.954 F7800.000
G1 E1.00000 F1800.000
G1 X75.421 Y63.781 E1.01070 F1176.475
G1 X79.111 Y67.478 E1.18444
G1 X80.127 Y68.530 E1.23308
G1 X81.765 Y67.754 E1.29337
G1 X81.964 Y67.981 E1.30342
G1 X79.106 Y72.415 E1.47888
G1 X77.631 Y70.730 E1.55336
G1 X75.150 Y63.954 E1.79336
G1 X68.641 Y64.127 F7800.000
G1 X67.198 Y61.627 E1.88938 F1176.475
G1 X63.618 Y61.627 E2.00843
G1 X62.175 Y64.127 E2.10445
G1 X58.595 Y64.127 E2.22351
G1 X57.163 Y61.647 E2.31875
G1 X55.870 Y66.239 E2.47742
G1 X56.708 Y66.588 E2.50764
G1 X57.256 Y66.847 E2.52778
G1 X58.595 Y64.527 E2.61688
G1 X62.175 Y64.527 E2.73594
G1 X62.576 Y65.222 E2.76260
G1 X64.523 Y63.271 E2.85427
G1 X65.336 Y63.789 E2.88636
G1 X64.150 Y67.027 E3.00104
G1 X67.198 Y67.027 E3.10239
G1 X68.641 Y64.527 E3.19841
G1 X72.221 Y64.527 E3.31746
G1 X73.664 Y67.027 E3.41348
G1 X75.850 Y67.027 E3.48617
G1 X74.664 Y63.789 E3.60085
G1 X75.477 Y63.271 E3.63294
G1 X77.970 Y65.769 E3.75031
G1 X78.687 Y64.527 E3.79799
G1 X82.267 Y64.527 E3.91704
G1 X83.424 Y66.533 E3.99406
G1 X84.130 Y66.239 E4.01949
G1 X83.119 Y62.650 E4.14350
G1 X82.267 Y64.127 E4.20022
G1 X78.687 Y64.127 E4.31928
G1 X77.244 Y61.627 E4.41529
G1 X73.664 Y61.627 E4.53435
G1 X72.221 Y64.127 E4.63036
G1 X68.641 Y64.127 E4.74942
G1 X68.641 Y69.927 F7800.000
G1 X67.198 Y67.427 E4.84543 F1176.475
G1 X64.004 Y67.427 E4.95165
G1 X62.719 Y70.937 E5.07598
G1 X62.603 Y71.069 E5.08182
G1 X63.618 Y72.827 E5.14933
G1 X67.198 Y72.827 E5.26839
G1 X68.641 Y70.327 E5.36440
G1 X72.221 Y70.327 E5.48346
G1 X73.664 Y72.827 E5.57947
G1 X77.244 Y72.827 E5.69853
G1 X77.916 Y71.663 E5.74325
G1 X77.281 Y70.937 E5.77531
G1 X75.996 Y67.427 E5.89964
G1 X73.664 Y67.427 E5.97720
G1 X72.221 Y69.927 E6.07321
G1 X68.641 Y69.927 E6.19227
G1 F1800.000 E5.19227
G92 E0
G1 X60.889 Y67.478 F7800.000
G1 E1.00000 F1800.000
G1 X64.579 Y63.781 E1.17374 F1176.475
G1 X64.850 Y63.954 E1.18444
G1 X62.369 Y70.730 E1.42444
G1 X60.894 Y72.415 E1.49892
G1 X58.036 Y67.981 E1.67439
G1 X58.235 Y67.754 E1.68443
G1 X59.873 Y68.530 E1.74473
G1 X60.889 Y67.478 E1.79336
G1 F1800.000 E0.79336
G92 E0
G1 X58.595 Y69.927 F7800.000
G1 E1.00000 F1800.000
G1 X57.793 Y68.538 E1.05334 F1176.475
G1 X56.746 Y70.645 E1.13159
G1 X55.437 Y69.939 E1.18108
G1 X54.540 Y70.419 E1.21490
G1 X54.227 Y71.754 E1.26052
G1 X52.864 Y71.256 E1.30881
G1 X52.717 Y71.346 E1.31453
G1 X53.572 Y72.827 E1.37141
G1 X57.152 Y72.827 E1.49047
G1 X58.595 Y70.327 E1.58648
G1 X59.072 Y70.327 E1.60235
G1 X58.815 Y69.927 E1.61818
G1 X58.595 Y69.927 E1.62547
G1 X58.595 Y75.727 F7800.000
G1 X57.152 Y73.227 E1.72149 F1176.475
G1 X53.572 Y73.227 E1.84055
G1 X52.693 Y74.749 E1.89901
G1 X53.769 Y78.231 E2.02020
G1 X53.813 Y78.627 E2.03346
G1 X57.152 Y78.627 E2.14452
G1 X58.595 Y76.127 E2.24054
G1 X62.175 Y76.127 E2.35959
G1 X63.618 Y78.627 E2.45561
