; generated by Slic3r 1.1.7 on 2014-11-29 at 19:03:50

; perimeters extrusion width = 0.40mm
; infill extrusion width = 0.42mm
; solid infill extrusion width = 0.42mm
; top infill extrusion width = 0.42mm

G21 ; set units to millimeters
M107
M104 S215 ; set temperature
G28 ; home all axes
G1 Z5 F5000 ; lift nozzle

M109 S215 ; wait for temperature to be reached
G90 ; use absolute coordinates
G92 E0
M82 ; use absolute distances for extrusion
G1 F1800.000 E-1.00000
G92 E0
G1 Z0.400 F7800.000
G1 X53.078 Y56.937 F7800.000
G1 E1.00000 F1800.000
G1 X55.047 Y55.922 E1.26314 F1080.000
G1 X64.857 Y52.778 E2.48661
G1 X66.119 Y52.504 E2.63993
G1 X79.985 Y50.865 E4.29827
G1 X81.840 Y50.903 E4.51853
G1 X85.151 Y51.504 E4.91828 F1080.000
G1 X96.285 Y55.020 E6.30494
G1 X96.441 Y55.090 E6.32524
G1 X98.870 Y56.964 E6.68961
G1 X102.381 Y61.278 E7.35014
G1 X103.631 Y63.678 E7.67157
G1 X103.663 Y63.792 E7.68563
G1 X103.904 Y66.089 E7.95986
G1 X103.555 Y67.813 E8.16875
G1 X101.466 Y73.837 E8.92598
G1 X101.433 Y73.916 E8.93623
G1 X100.362 Y75.647 E9.17790
G1 X92.466 Y84.903 E10.62290
G1 X90.688 Y86.376 E10.89712
G1 X88.576 Y87.148 E11.16415
G1 X72.412 Y89.925 E13.11196
G1 X70.997 Y90.015 E13.28039
G1 X70.401 Y89.991 E13.35127
G1 X68.145 Y89.499 E13.62550
G1 X66.142 Y88.230 E13.90705
G1 X58.674 Y81.377 E15.11080
G1 X57.253 Y79.522 E15.38834
G1 X53.005 Y71.244 E16.49336
G1 X50.616 Y65.068 E17.27979
G1 X50.166 Y62.804 E17.55402
G1 X50.510 Y60.520 E17.82824
G1 X51.275 Y58.948 E18.03597
G1 X51.493 Y58.617 E18.08301
G1 X53.037 Y56.981 E18.35011
G1 F1800.000 E17.35011
G92 E0
G1 X63.115 Y69.044 F7800.000
G1 E1.00000 F1800.000
G1 X59.619 Y63.491 E1.77934 F540.000
G1 X65.594 Y61.765 E2.51789
G1 X66.393 Y61.956 E2.61544
G1 X67.545 Y61.382 E2.76832
G1 X67.906 Y60.894 E2.84044
G1 X80.713 Y59.381 E4.37205
G1 X82.689 Y59.745 E4.61069
G1 X92.611 Y62.807 E5.84385
G1 X95.164 Y65.944 E6.32423
G1 X93.798 Y69.919 E6.82347
G1 X86.579 Y72.365 E7.72861
G1 X85.576 Y73.361 E7.89647
G1 X85.539 Y79.008 E8.56712
G1 X71.400 Y81.431 E10.27091
G1 X66.199 Y76.383 E11.13176
G1 X65.819 Y75.260 E11.27252
G1 X64.471 Y74.883 E11.43880
G1 X61.577 Y69.306 E12.18504
G1 X63.056 Y69.054 E12.36323
G1 X61.941 Y68.519 F7800.000
G1 X58.509 Y63.068 E13.12829 F540.000
G1 X65.576 Y61.027 E14.00192
G1 X66.307 Y61.201 E14.09106
G1 X67.073 Y60.820 E14.19278
G1 X67.516 Y60.221 E14.28117
G1 X80.737 Y58.659 E15.86228
G1 X82.828 Y59.041 E16.11472
G1 X93.028 Y62.188 E17.38254
G1 X95.968 Y65.801 E17.93574
G1 X94.359 Y70.483 E18.52375
G1 X86.965 Y72.988 E19.45091
G1 X86.289 Y73.660 E19.56414
G1 X86.250 Y79.610 E20.27085
G1 X71.163 Y82.197 E22.08877
G1 X65.577 Y76.775 E23.01322
G1 X65.263 Y75.846 E23.12968
G1 X63.980 Y75.487 E23.28798
G1 X60.493 Y68.766 E24.18728
G1 X61.882 Y68.529 E24.35468
G1 X60.767 Y67.995 F7800.000
G1 X57.399 Y62.645 E25.10546 F378.000
G1 X65.559 Y60.289 E26.11417
G1 X66.220 Y60.446 E26.19491
G1 X66.601 Y60.257 E26.24547
G1 X67.125 Y59.548 E26.35011
G1 X80.760 Y57.937 E27.98073
G1 X82.864 Y58.325 E28.23479
G1 X83.037 Y58.320 E28.25535
G1 X83.132 Y58.387 E28.26917
G1 X93.266 Y61.514 E29.52874
G1 X93.345 Y61.520 E29.53816
G1 X93.548 Y61.695 E29.56991
G1 X96.773 Y65.658 E30.17675
G1 X94.950 Y70.961 E30.84273
G1 X94.822 Y71.081 E30.86355
G1 X87.351 Y73.612 E31.80034
G1 X87.001 Y73.959 E31.85895
G1 X86.960 Y80.213 E32.60171
G1 X71.252 Y82.906 E34.49443
G1 X70.851 Y82.889 E34.54216
G1 X64.956 Y77.167 E35.51779
G1 X64.708 Y76.432 E35.60994
G1 X63.488 Y76.092 E35.76028
G1 X59.703 Y68.794 E36.73665
G1 X59.941 Y68.135 E36.81986
G1 X60.708 Y68.005 E36.91222
G1 X61.131 Y67.828 F7800.000
G1 X62.327 Y66.857 F7800.000
G1 X75.665 Y80.195 E39.15246 F1080.000
G1 X74.796 Y80.344 E39.25715
G1 X63.872 Y69.420 E41.09199
G1 X63.002 Y69.568 E41.19676
G1 X73.928 Y80.493 E43.03175
G1 X73.059 Y80.642 E43.13643
G1 X62.586 Y70.169 E44.89547
G1 X63.683 Y72.284 F7800.000
G1 X72.190 Y80.791 E46.32434 F1080.000
G1 X64.855 Y74.474 F7800.000
G1 X64.780 Y74.398 E46.33705 F1080.000
G1 X60.597 Y64.110 F7800.000
G1 X76.534 Y80.046 E49.01371 F1080.000
G1 X77.403 Y79.897 E49.11840
G1 X61.089 Y63.584 E51.85835
G1 X61.879 Y63.356 E51.95597
G1 X78.271 Y79.748 E54.70921
G1 X79.140 Y79.599 E54.81390
G1 X62.669 Y63.128 E57.58043
G1 X63.458 Y62.900 E57.67804
G1 X80.009 Y79.451 E60.45787
G1 X80.878 Y79.302 E60.56255
G1 X64.248 Y62.672 E63.35566
G1 X65.037 Y62.444 E63.45327
G1 X81.746 Y79.153 E66.25967
G1 X82.615 Y79.004 E66.36435
G1 X65.980 Y62.369 E69.15832
G1 X66.892 Y62.263 E69.26734
G1 X83.484 Y78.855 E72.05407
G1 X84.353 Y78.706 E72.15875
G1 X67.572 Y61.925 E74.97723
G1 X68.114 Y61.450 E75.06288
G1 X85.046 Y78.381 E77.90665
G1 X85.052 Y77.370 E78.02673
G1 X68.954 Y61.272 E80.73067
G1 X69.864 Y61.164 E80.83951
G1 X85.059 Y76.359 E83.39170
G1 X85.066 Y75.348 E83.51178
G1 X70.774 Y61.057 E85.91222
G1 X71.684 Y60.949 E86.02106
G1 X85.072 Y74.337 E88.26976
G1 X85.079 Y73.326 E88.38984
G1 X72.594 Y60.841 E90.48679
G1 X73.504 Y60.734 E90.59563
G1 X85.503 Y72.733 E92.61091
G1 X86.013 Y72.225 E92.69637
G1 X74.414 Y60.626 E94.64456
G1 X75.324 Y60.519 E94.75340
G1 X86.628 Y71.823 E96.65202
G1 X87.388 Y71.565 E96.74733
G1 X76.234 Y60.411 E98.62076
G1 X77.145 Y60.304 E98.72961
G1 X88.149 Y71.308 E100.57785
G1 X88.909 Y71.050 E100.67317
G1 X78.055 Y60.196 E102.49622
G1 X78.965 Y60.089 E102.60506
G1 X89.669 Y70.793 E104.40293
G1 X90.429 Y70.535 E104.49825
G1 X79.875 Y59.981 E106.27093
G1 X80.818 Y59.906 E106.38324
G1 X91.189 Y70.278 E108.12526
G1 X91.949 Y70.020 E108.22058
G1 X82.066 Y60.136 E109.88065
G1 X83.447 Y60.500 E110.05029
G1 X92.709 Y69.763 E111.60602
G1 X93.428 Y69.464 E111.69846
G1 X84.919 Y60.954 E113.12767
G1 X86.391 Y61.408 E113.31061
G1 X93.688 Y68.706 E114.53633
G1 X93.949 Y67.949 E114.63144
G1 X87.863 Y61.863 E115.65367
G1 X89.334 Y62.317 E115.83661
G1 X94.209 Y67.191 E116.65536
G1 X94.469 Y66.434 E116.75047
G1 X90.806 Y62.771 E117.36572
G1 X92.278 Y63.225 F7800.000
G1 X92.447 Y63.394 E117.39407 F1080.000
M106 S227
M104 S210 ; set temperature
G1 F1800.000 E116.39407
G92 E0
G1 Z0.700 F7800.000
G1 X62.495 Y68.583 F7800.000
G1 E1.00000 F1800.000
G1 X59.178 Y63.314 E1.31059 F1800.000
G1 X58.584 Y62.533 E1.35956
G1 X58.758 Y62.270 E1.37530
G1 X64.119 Y60.722 E1.65370
G1 X66.107 Y61.196 E1.75567
G1 X67.149 Y60.678 E1.81371
G1 X68.556 Y58.775 E1.93179
G1 X76.726 Y57.809 F7800.000
G1 X82.296 Y58.838 E2.21439 F1800.000
G1 X82.874 Y58.820 E2.24322
G1 X83.194 Y59.047 E2.26282
G1 X92.700 Y61.981 E2.75910
G1 X93.013 Y62.005 E2.77480
G1 X93.391 Y62.330 E2.79967
G1 X93.488 Y62.319 E2.80457
G1 X96.322 Y65.801 E3.02855
G1 X94.715 Y70.476 E3.27519
G1 X94.276 Y70.885 E3.30515
G1 X87.509 Y73.178 E3.66161
G1 X86.463 Y74.217 E3.73516
G1 X86.427 Y79.696 E4.00853
G1 X71.553 Y82.251 E4.76145
G1 X70.223 Y82.196 E4.82784
G1 X65.924 Y78.022 E5.12679
G1 X65.229 Y75.967 E5.23501
G1 X62.327 Y75.156 E5.38533
M106 S255
G1 X61.771 Y75.000 E5.41552 F3600.000
G1 X59.624 Y70.861 E5.65912
G1 X59.819 Y70.321 E5.68913
M106 S227
G1 X68.556 Y58.775 F7800.000
M106 S255
G1 X68.765 Y58.493 E5.70747 F3600.000
G1 X75.875 Y57.652 E6.08152
G1 X76.726 Y57.809 E6.12672
M106 S227
G1 X59.819 Y70.321 F7800.000
G1 X60.315 Y68.954 E6.19927 F1800.000
G1 X62.436 Y68.593 E6.30664
G1 X61.838 Y68.289 F7800.000
G1 X58.849 Y63.542 E6.58647 F1800.000
G1 X58.094 Y62.550 E6.64871
G1 X58.505 Y61.927 E6.68595
G1 X64.109 Y60.308 E6.97696
G1 X66.059 Y60.773 E7.07696
G1 X66.885 Y60.363 E7.12296
G1 X68.011 Y58.839 E7.21748
G1 X78.069 Y57.651 F7800.000
G1 X82.327 Y58.437 E7.43348 F1800.000
G1 X82.996 Y58.417 E7.46686
G1 X83.373 Y58.684 E7.48995
G1 X92.775 Y61.585 E7.98082
G1 X93.175 Y61.616 E8.00084
G1 X93.518 Y61.912 E8.02345
G1 X93.659 Y61.895 E8.03054
G1 X96.773 Y65.721 E8.27662
G1 X95.061 Y70.700 E8.53933
G1 X94.485 Y71.236 E8.57857
G1 X87.725 Y73.527 E8.93469
G1 X86.861 Y74.384 E8.99539
G1 X86.824 Y80.029 E9.27702
G1 X71.579 Y82.653 E10.04882
G1 X70.054 Y82.589 E10.12494
G1 X65.576 Y78.242 E10.43632
G1 X64.918 Y76.296 E10.53882
G1 X62.579 Y75.642 E10.65996
M106 S255
G1 X61.496 Y75.339 E10.71875 F3600.000
G1 X59.188 Y70.890 E10.98058
G1 X59.569 Y69.838 E11.03901
M106 S227
G1 F1800.000 E10.03901
G92 E0
G1 X68.011 Y58.839 F7800.000
G1 E1.00000 F1800.000
M106 S255
G1 X68.547 Y58.116 E1.04702 F3600.000
G1 X75.889 Y57.248 E1.43327
G1 X78.069 Y57.651 E1.54914
M106 S227
G1 X59.569 Y69.838 F7800.000
G1 X60.018 Y68.599 E1.61492 F1800.000
G1 X61.779 Y68.299 E1.70403
G1 X61.180 Y67.995 F7800.000
G1 X58.520 Y63.771 E1.95309 F1260.000
G1 X57.604 Y62.566 E2.02860
G1 X58.097 Y61.819 E2.07325
G1 F1800.000 E1.07325
G92 E0
G1 X87.599 Y74.215 F7800.000
G1 E1.00000 F1800.000
G1 X87.260 Y74.552 E1.02382 F1260.000
G1 X87.222 Y80.362 E1.31372
G1 X86.112 Y80.567 E1.37006
G1 X71.604 Y83.054 E2.10439
G1 X70.094 Y82.991 E2.17979
M106 S255
G1 X69.885 Y82.982 E2.19074 F3600.000
G1 X65.228 Y78.462 E2.52984
G1 X65.130 Y78.172 E2.54579
M106 S227
G1 X64.606 Y76.624 E2.62733 F1260.000
G1 X62.831 Y76.128 E2.71929
M106 S255
G1 X61.220 Y75.677 E2.80667 F3600.000
G1 X58.752 Y70.919 E3.08675
G1 X59.318 Y69.356 E3.17360
M106 S227
G1 F1800.000 E2.17360
G92 E0
G1 X58.097 Y61.819 F7800.000
G1 E1.00000 F1800.000
M106 S255
G1 X58.253 Y61.583 E1.01476 F3600.000
G1 X64.100 Y59.895 E1.33271
G1 X64.462 Y59.981 E1.35215
M106 S227
G1 X66.011 Y60.350 E1.43161 F1260.000
G1 X66.620 Y60.047 E1.46557
G1 X67.466 Y58.904 E1.53653
M106 S255
G1 X68.328 Y57.739 E1.61223 F3600.000
G1 X75.902 Y56.844 E2.01068
G1 X79.413 Y57.492 E2.19722
M106 S227
G1 X82.358 Y58.036 E2.34662 F1260.000
G1 X83.118 Y58.013 E2.38455
G1 X83.553 Y58.321 E2.41114
G1 X92.850 Y61.190 E2.89659
G1 X93.337 Y61.227 E2.92094
G1 X93.646 Y61.494 E2.94128
G1 X93.830 Y61.471 E2.95056
G1 X97.123 Y65.517 E3.21079
G1 X97.188 Y65.745 E3.22260
G1 X95.322 Y71.145 E3.50765
G1 X95.167 Y71.148 E3.51540
G1 X94.695 Y71.588 E3.54757
G1 X87.941 Y73.876 E3.90335
G1 X87.682 Y74.133 E3.92154
M106 S255
G1 X87.599 Y74.215 E3.92766 F3600.000
M106 S227
G1 X59.318 Y69.356 F7800.000
G1 X59.721 Y68.244 E3.98666 F1260.000
G1 X61.121 Y68.005 E4.05751
G1 F1800.000 E3.05751
G92 E0
G1 X59.576 Y69.662 F7800.000
G1 X58.975 Y62.493 F7800.000
G1 E1.00000 F1800.000
G1 X58.931 Y62.536 E1.00322 F3600.000
G1 X59.189 Y62.875 E1.02544
G1 X59.813 Y62.251 E1.07156
G1 X60.651 Y62.009 E1.11714
G1 X59.442 Y63.218 E1.20649
G1 X59.672 Y63.584 E1.22907
G1 X61.489 Y61.767 E1.36333
G1 X62.328 Y61.525 E1.40892
G1 X59.902 Y63.950 E1.58809
G1 X60.133 Y64.315 E1.61068
G1 X63.166 Y61.282 E1.83476
G1 X64.004 Y61.040 E1.88035
G1 X60.363 Y64.681 E2.14935
G1 X60.593 Y65.047 E2.17193
G1 X64.537 Y61.103 E2.46332
G1 X65.018 Y61.218 E2.48917
G1 X60.824 Y65.413 E2.79910
G1 X61.118 Y65.715 E2.82113
G1 X65.500 Y61.333 E3.14488
G1 X65.981 Y61.448 E3.17073
G1 X61.322 Y66.107 E3.51500
G1 X61.525 Y66.500 E3.53811
G1 X65.604 Y62.421 E3.83947
G1 X66.280 Y62.341 E3.87503
G1 X61.745 Y66.876 E4.21011
G1 X61.975 Y67.242 E4.23269
G1 X66.956 Y62.261 E4.60070
G1 X67.632 Y62.181 E4.63627
G1 X62.206 Y67.608 E5.03721
G1 X62.436 Y67.974 E5.05980
G1 X68.308 Y62.101 E5.49367
G1 X68.984 Y62.021 E5.52923
G1 X62.666 Y68.339 E5.99604
G1 X62.747 Y68.855 E6.02330
G1 X69.660 Y61.942 E6.53408
G1 X70.336 Y61.862 E6.56965
G1 X62.951 Y69.247 E7.11534
G1 X63.154 Y69.640 E7.13844
G1 X71.012 Y61.782 E7.71904
G1 X71.688 Y61.702 E7.75461
G1 X63.358 Y70.032 E8.37011
G1 X63.561 Y70.425 E8.39321
G1 X72.364 Y61.622 E9.04362
G1 X73.040 Y61.542 E9.07918
G1 X63.765 Y70.817 E9.76449
G1 X63.969 Y71.210 E9.78760
G1 X73.716 Y61.462 E10.50781
G1 X74.392 Y61.382 E10.54338
G1 X64.172 Y71.602 E11.29850
G1 X64.376 Y71.995 E11.32160
G1 X75.069 Y61.302 E12.11162
G1 X75.745 Y61.222 E12.14719
G1 X64.580 Y72.387 E12.97212
G1 X64.783 Y72.780 E12.99522
G1 X76.421 Y61.143 E13.85505
G1 X77.097 Y61.063 E13.89062
G1 X64.987 Y73.172 E14.78536
G1 X65.190 Y73.565 E14.80846
G1 X77.773 Y60.983 E15.73810
G1 X78.449 Y60.903 E15.77367
G1 X65.394 Y73.958 E16.73822
G1 X65.598 Y74.350 E16.76132
G1 X79.125 Y60.823 E17.76077
G1 X79.763 Y58.992 F7800.000
G1 X80.053 Y58.702 E17.78216 F3600.000
G1 X80.556 Y58.795 E17.80889
G1 X79.743 Y59.608 E17.86894
G1 X79.723 Y60.224 E17.90115
G1 X81.059 Y58.888 E17.99985
G1 X81.563 Y58.981 E18.02659
G1 X65.801 Y74.743 E19.19113
G1 X66.005 Y75.135 E19.21423
G1 X82.066 Y59.074 E20.40090
G1 X82.634 Y59.102 E20.43063
G1 X66.209 Y75.528 E21.64424
G1 X66.412 Y75.920 E21.66734
G1 X83.051 Y59.282 E22.89668
G1 X83.500 Y59.429 E22.92137
G1 X66.616 Y76.313 E24.16885
G1 X66.819 Y76.705 E24.19195
G1 X83.955 Y59.569 E25.45805
G1 X84.411 Y59.710 E25.48295
G1 X66.220 Y77.901 E26.82699
G1 X66.518 Y78.199 E26.84901
G1 X84.866 Y59.850 E28.20469
G1 X85.322 Y59.991 E28.22960
G1 X66.816 Y78.497 E29.59691
G1 X67.114 Y78.795 E29.61893
G1 X85.778 Y60.132 E30.99788
G1 X86.233 Y60.272 E31.02278
G1 X67.416 Y79.089 E32.41307
G1 X67.719 Y79.383 E32.43510
G1 X86.689 Y60.413 E33.83669
G1 X87.144 Y60.553 E33.86160
G1 X68.021 Y79.676 E35.27451
G1 X68.324 Y79.970 E35.29653
G1 X87.600 Y60.694 E36.72074
G1 X88.055 Y60.834 E36.74565
G1 X68.626 Y80.263 E38.18117
G1 X68.929 Y80.557 E38.20320
G1 X88.511 Y60.975 E39.65002
G1 X88.966 Y61.116 E39.67493
G1 X69.231 Y80.851 E41.13307
G1 X69.534 Y81.144 E41.15509
G1 X89.422 Y61.256 E42.62454
G1 X89.878 Y61.397 E42.64944
G1 X69.836 Y81.438 E44.13019
G1 X70.139 Y81.732 E44.15222
G1 X90.333 Y61.537 E45.64428
G1 X90.789 Y61.678 E45.66919
G1 X70.532 Y81.934 E47.16583
G1 X71.105 Y81.958 E47.19575
G1 X91.244 Y61.818 E48.68377
G1 X91.700 Y61.959 E48.70868
G1 X71.713 Y81.946 E50.18539
G1 X72.433 Y81.822 E50.22355
G1 X92.155 Y62.100 E51.68074
G1 X92.611 Y62.240 E51.70565
G1 X73.153 Y81.698 E53.14331
G1 X73.873 Y81.575 E53.18147
G1 X93.049 Y62.398 E54.59835
G1 X93.388 Y62.655 E54.62057
G1 X74.592 Y81.451 E56.00928
G1 X75.312 Y81.327 E56.04744
G1 X93.667 Y62.972 E57.40359
G1 X93.935 Y63.301 E57.42573
G1 X76.032 Y81.203 E58.74845
G1 X76.752 Y81.080 E58.78661
G1 X94.202 Y63.630 E60.07592
G1 X94.469 Y63.958 E60.09806
G1 X77.472 Y80.956 E61.35394
G1 X78.192 Y80.832 E61.39210
G1 X94.737 Y64.287 E62.61456
G1 X95.004 Y64.616 E62.63670
G1 X78.911 Y80.709 E63.82574
G1 X79.631 Y80.585 E63.86390
G1 X95.272 Y64.944 E65.01952
G1 X95.539 Y65.273 E65.04165
G1 X88.137 Y72.675 E65.58857
G1 X89.039 Y72.370 F7800.000
G1 X95.807 Y65.602 E66.08863 F3600.000
G1 X95.942 Y66.062 E66.11371
G1 X89.940 Y72.064 E66.55718
G1 X90.842 Y71.759 F7800.000
G1 X95.630 Y66.971 E66.91096 F3600.000
G1 X95.318 Y67.879 F7800.000
G1 X91.743 Y71.453 E67.17505 F3600.000
G1 X92.645 Y71.148 F7800.000
G1 X95.006 Y68.787 E67.34947 F3600.000
G1 X94.693 Y69.696 F7800.000
G1 X93.547 Y70.843 E67.43420 F3600.000
G1 X86.186 Y74.627 F7800.000
G1 X80.351 Y80.461 E67.86529 F3600.000
G1 X81.071 Y80.338 E67.90345
G1 X86.182 Y75.227 E68.28107
G1 X86.178 Y75.827 E68.31242
G1 X81.791 Y80.214 E68.63657
G1 X82.510 Y80.090 E68.67473
G1 X86.174 Y76.427 E68.94540
G1 X86.170 Y77.027 E68.97675
G1 X83.230 Y79.967 E69.19395
G1 X83.950 Y79.843 E69.23210
G1 X86.166 Y77.627 E69.39583
G1 X86.162 Y78.227 E69.42718
G1 X84.670 Y79.719 E69.53742
G1 X85.390 Y79.596 E69.57558
G1 X86.158 Y78.827 E69.63235
G1 X86.110 Y79.472 E69.66613
G1 X86.154 Y79.427 E69.66943
G1 X79.563 Y60.602 F7800.000
M106 S255
G1 X65.605 Y62.251 E70.40374 F3600.000
G1 X65.995 Y61.690 E70.43943
G1 X79.579 Y60.085 E71.15410
G1 X79.596 Y59.568 E71.18111
G1 X67.004 Y61.056 E71.84358
G1 X67.647 Y60.466 E71.88922
G1 X79.613 Y59.051 E72.51872
G1 X79.333 Y58.570 E72.54783
G1 X68.064 Y59.901 E73.14066
G1 X68.482 Y59.337 E73.17732
G1 X77.633 Y58.256 E73.65876
M106 S227
G1 X75.933 Y57.942 F7800.000
M106 S255
G1 X68.899 Y58.773 E74.02881 F3600.000
M106 S227
G1 X62.555 Y68.851 F7800.000
M106 S255
G1 X66.672 Y76.786 E74.49588 F3600.000
G1 X66.389 Y77.245 E74.52403
G1 X62.077 Y68.932 E75.01331
G1 X61.599 Y69.014 E75.03865
G1 X65.029 Y75.627 E75.42789
G1 X64.421 Y75.457 E75.46091
G1 X61.120 Y69.095 E75.83533
G1 X60.642 Y69.176 E75.86067
G1 X63.812 Y75.286 E76.22028
G1 X63.203 Y75.116 E76.25330
G1 X60.360 Y69.635 E76.57591
G1 X60.146 Y70.226 E76.60873
G1 X62.594 Y74.946 E76.88655
G1 X61.986 Y74.776 E76.91958
G1 X59.932 Y70.816 E77.15262
M106 S227
M106 S219
G1 F1800.000 E76.15262
G92 E0
