; generated by Slic3r 1.1.7 on 2015-01-23 at 21:06:58

; perimeters extrusion width = 0.40mm
; infill extrusion width = 0.67mm
; solid infill extrusion width = 0.67mm
; top infill extrusion width = 0.67mm
; support material extrusion width = 0.40mm

G21 ; set units to millimeters
M107
M190 S50 ; wait for bed temperature to be reached
M104 S195 ; set temperature
G28 ; home all axes
G29 ;
G1 Z5 F5000 ; lift nozzle

M109 S195 ; wait for temperature to be reached
G90 ; use absolute coordinates
G92 E0
M82 ; use absolute distances for extrusion
G1 F1800.000 E-1.00000
G92 E0
G1 Z0.300 F7800.000
G1 X59.506 Y52.520 F7800.000
G1 E1.00000 F1800.000
G1 X58.469 Y54.589 E1.11546 F1024.790
G1 X61.033 Y51.258 F7800.000
G1 X58.952 Y55.411 E1.34723 F1024.790
G1 X59.435 Y56.233 E1.39479
G1 X62.398 Y50.320 E1.72476
G1 X63.032 Y50.842 E1.76570
G1 X59.905 Y57.081 E2.11388
G1 X60.389 Y57.900 E2.16135
G1 X63.665 Y51.364 E2.52612
G1 X64.298 Y51.886 E2.56706
G1 X60.873 Y58.719 E2.94840
G1 X61.358 Y59.538 E2.99587
G1 X64.943 Y52.386 E3.39504
G1 X65.578 Y52.903 E3.43592
G1 X61.842 Y60.358 E3.85191
G1 X62.326 Y61.177 E3.89938
G1 X66.206 Y53.436 E4.33134
G1 X66.834 Y53.969 E4.37242
G1 X62.811 Y61.996 E4.82035
G1 X63.295 Y62.815 E4.86782
G1 X67.461 Y54.502 E5.33172
G1 X68.108 Y54.996 E5.37235
G1 X63.779 Y63.634 E5.85436
G1 X64.180 Y64.620 E5.90746
G1 X68.944 Y55.114 E6.43796
G1 X69.779 Y55.235 E6.48001
G1 X64.878 Y65.013 E7.02569
G1 X65.575 Y65.407 E7.06565
G1 X70.613 Y55.356 E7.62651
G1 X71.447 Y55.478 E7.66855
G1 X66.273 Y65.800 E8.24459
G1 X66.971 Y66.193 E8.28455
G1 X72.281 Y55.599 E8.87576
G1 X73.238 Y55.475 E8.92392
G1 X67.668 Y66.587 E9.54402
G1 X68.366 Y66.980 E9.58398
G1 X74.207 Y55.327 E10.23429
G1 X75.176 Y55.179 E10.28319
G1 X68.777 Y67.945 E10.99559
G1 X68.924 Y69.438 E11.07044
G1 X76.145 Y55.031 E11.87441
G1 X77.388 Y54.337 F7800.000
G1 X69.070 Y70.931 E12.80046 F1024.790
G1 X69.217 Y72.424 E12.87530
G1 X78.963 Y52.979 E13.96045
G1 X80.475 Y51.748 F7800.000
G1 X69.364 Y73.917 E15.19762 F1024.790
G1 X69.510 Y75.410 E15.27246
G1 X82.016 Y50.459 E16.66487
G1 X82.925 Y50.431 E16.71025
G1 X69.657 Y76.903 E18.18755
G1 X69.803 Y78.396 E18.26240
G1 X83.513 Y51.043 E19.78885
G1 X84.216 Y51.426 E19.82879
G1 X76.440 Y66.941 E20.69460
G1 X76.033 Y67.751 F7800.000
G1 X69.950 Y79.889 E21.37194 F1024.790
G1 X70.096 Y81.382 E21.44679
G1 X75.835 Y69.932 E22.08577
G1 X75.637 Y72.112 F7800.000
G1 X70.243 Y82.875 E22.68638 F1024.790
G1 X70.757 Y83.634 E22.73214
G1 X75.439 Y74.293 E23.25344
G1 X75.241 Y76.473 F7800.000
G1 X71.645 Y83.649 E23.65387 F1024.790
G1 X72.534 Y83.660 E23.69824
G1 X75.043 Y78.654 E23.97761
G1 X74.845 Y80.834 F7800.000
G1 X73.440 Y83.639 E24.13412 F1024.790
G1 X74.345 Y83.617 E24.17931
G1 X74.647 Y83.015 E24.21294
G1 F1800.000 E23.21294
G92 E0
G1 X77.695 Y66.220 F7800.000
G1 E1.00000 F1800.000
G1 X84.797 Y52.052 E1.79068 F1024.790
G1 X85.499 Y52.436 E1.83061
G1 X78.951 Y65.500 E2.55969
G1 X80.207 Y64.780 E2.63192
G1 X86.089 Y53.045 E3.28678
G1 X86.649 Y53.712 E3.33024
G1 X86.467 Y54.076 E3.35055
M106 S255
M104 S190 ; set temperature
M140 S45 ; set bed temperature
G1 F1800.000 E2.35055
G92 E0
G1 Z0.500 F7800.000
G1 X83.746 Y51.315 F7800.000
G1 E1.00000 F1800.000
G1 X82.533 Y50.052 E1.05823 F609.810
G1 X79.893 Y52.261 E1.17273
G1 X79.662 Y52.403 E1.18174
G1 X76.651 Y54.998 E1.31394
G1 X76.578 Y54.986 E1.31641
G1 X72.353 Y55.630 E1.45856
G1 X68.123 Y55.014 E1.60074
G1 X68.049 Y55.027 E1.60323
G1 X65.020 Y52.456 E1.73538
G1 X64.788 Y52.316 E1.74439
G1 X62.132 Y50.126 E1.85889
G1 X60.928 Y51.398 E1.91712
G1 X60.905 Y51.539 E1.92186
G1 X60.458 Y51.533 E1.93672
G1 X59.704 Y52.373 E1.97428
G1 X59.677 Y52.534 E1.97972
G1 X59.115 Y52.554 E1.99843
G1 X58.051 Y53.838 E2.05389
G1 X59.732 Y56.699 E2.16425
G1 X59.904 Y57.041 E2.17698
G1 X63.814 Y63.653 E2.43248
G1 X63.975 Y64.481 E2.46055
G1 X68.720 Y67.156 E2.64172
G1 X70.335 Y83.607 E3.19151
G1 X72.455 Y83.641 E3.26203
G1 X74.575 Y83.592 E3.33255
G1 X76.070 Y67.130 E3.88234
G1 X80.795 Y64.420 E4.06351
G1 X80.950 Y63.590 E4.09158
G1 X84.812 Y56.950 E4.34708
G1 X84.981 Y56.607 E4.35981
G1 X86.642 Y53.734 E4.47017
G1 X85.568 Y52.458 E4.52564
G1 X85.006 Y52.442 E4.54434
G1 X84.978 Y52.280 E4.54979
G1 X84.217 Y51.446 E4.58735
G1 X83.770 Y51.455 E4.60220
G1 X83.746 Y51.315 E4.60695
G1 X70.637 Y61.550 F7800.000
G1 X69.194 Y59.050 E4.70296 F609.810
G1 X65.614 Y59.050 E4.82202
G1 X64.171 Y61.550 E4.91803
G1 X63.035 Y61.550 E4.95581
G1 X63.272 Y61.950 E4.97127
G1 X64.171 Y61.950 E5.00118
G1 X65.614 Y64.450 E5.09719
G1 X69.194 Y64.450 E5.21625
G1 X70.637 Y61.950 E5.31226
G1 X74.217 Y61.950 E5.43132
G1 X75.660 Y64.450 E5.52734
G1 X79.240 Y64.450 E5.64639
G1 X80.683 Y61.950 E5.74241
G1 X81.441 Y61.950 E5.76763
G1 X81.674 Y61.550 E5.78302
G1 X80.683 Y61.550 E5.81598
G1 X79.240 Y59.050 E5.91199
G1 X75.660 Y59.050 E6.03105
G1 X74.217 Y61.550 E6.12706
G1 X70.637 Y61.550 E6.24612
G1 X70.637 Y67.350 F7800.000
G1 X69.194 Y64.850 E6.34213 F609.810
G1 X65.614 Y64.850 E6.46119
G1 X65.572 Y64.923 E6.46398
G1 X69.097 Y66.910 E6.59859
G1 X69.392 Y69.907 E6.69873
G1 X70.637 Y67.750 E6.78156
G1 X74.217 Y67.750 E6.90062
G1 X75.422 Y69.838 E6.98080
G1 X75.690 Y66.886 E7.07937
G1 X79.240 Y64.851 E7.21547
G1 X75.660 Y64.850 E7.33454
G1 X74.217 Y67.350 E7.43055
G1 X70.637 Y67.350 E7.54961
G1 X70.637 Y73.150 F7800.000
G1 X69.520 Y71.216 E7.62390 F609.810
G1 X69.879 Y74.864 E7.74582
G1 X70.637 Y73.550 E7.79628
G1 X74.217 Y73.550 E7.91533
G1 X74.967 Y74.849 E7.96524
G1 X75.290 Y71.291 E8.08409
G1 X74.217 Y73.150 E8.15550
G1 X70.637 Y73.150 E8.27456
G1 X74.512 Y79.861 F7800.000
G1 X74.665 Y78.173 E8.33093 F609.810
G1 X74.217 Y78.950 E8.36076
G1 X70.637 Y78.950 E8.47982
G1 X70.206 Y78.204 E8.50847
G1 X70.365 Y79.821 E8.56250
G1 X70.637 Y79.350 E8.58059
G1 X74.217 Y79.350 E8.69965
G1 X74.512 Y79.861 E8.71929
G1 F1800.000 E7.71929
G92 E0
G1 X60.591 Y55.750 F7800.000
G1 E1.00000 F1800.000
G1 X59.148 Y53.250 E1.09601 F609.810
G1 X59.058 Y53.250 E1.09900
G1 X58.538 Y53.877 E1.12612
G1 X60.083 Y56.507 E1.22757
G1 X60.224 Y56.787 E1.23797
G1 X60.591 Y56.150 E1.26242
G1 X64.171 Y56.150 E1.38148
G1 X65.614 Y58.650 E1.47749
G1 X69.194 Y58.650 E1.59655
G1 X70.637 Y56.150 E1.69257
G1 X74.217 Y56.150 E1.81162
G1 X75.660 Y58.650 E1.90764
G1 X79.240 Y58.650 E2.02669
G1 X80.683 Y56.150 E2.12271
G1 X84.263 Y56.150 E2.24176
G1 X84.531 Y56.615 E2.25963
G1 X84.629 Y56.418 E2.26694
G1 X86.155 Y53.776 E2.36840
G1 X85.706 Y53.250 E2.39142
G1 X84.263 Y55.750 E2.48743
G1 X80.683 Y55.750 E2.60649
G1 X79.257 Y53.280 E2.70135
G1 X76.770 Y55.423 E2.81053
G1 X76.575 Y55.391 E2.81711
G1 X72.355 Y56.034 E2.95912
G1 X68.129 Y55.419 E3.10116
G1 X67.933 Y55.453 E3.10775
G1 X65.523 Y53.408 E3.21289
G1 X64.171 Y55.750 E3.30285
G1 X60.591 Y55.750 E3.42190
G1 F1800.000 E2.42190
G92 E0
G1 Z0.700 F7800.000
G1 E1.00000 F1800.000
G1 X64.171 Y55.750 E1.11906 F609.810
G1 X65.523 Y53.408 E1.20901
G1 X67.933 Y55.453 E1.31415
G1 X68.129 Y55.419 E1.32074
G1 X72.355 Y56.034 E1.46278
G1 X76.575 Y55.391 E1.60479
G1 X76.770 Y55.423 E1.61137
G1 X79.257 Y53.280 E1.72056
G1 X80.683 Y55.750 E1.81542
G1 X84.263 Y55.750 E1.93447
G1 X85.706 Y53.250 E2.03049
G1 X86.155 Y53.776 E2.05350
G1 X84.629 Y56.418 E2.15496
G1 X84.531 Y56.615 E2.16228
G1 X84.263 Y56.150 E2.18014
G1 X80.683 Y56.150 E2.29920
G1 X79.240 Y58.650 E2.39521
G1 X75.660 Y58.650 E2.51427
G1 X74.217 Y56.150 E2.61028
G1 X70.637 Y56.150 E2.72934
G1 X69.194 Y58.650 E2.82535
G1 X65.614 Y58.650 E2.94441
G1 X64.171 Y56.150 E3.04042
G1 X60.591 Y56.150 E3.15948
G1 X60.224 Y56.787 E3.18393
G1 X60.083 Y56.507 E3.19433
G1 X58.538 Y53.877 E3.29579
G1 X59.058 Y53.250 E3.32290
G1 X59.148 Y53.250 E3.32589
G1 X60.591 Y55.750 E3.42190
G1 X70.637 Y61.550 F7800.000
G1 X69.194 Y59.050 E3.51792 F609.810
G1 X65.614 Y59.050 E3.63697
G1 X64.171 Y61.550 E3.73299
G1 X63.035 Y61.550 E3.77077
G1 X63.272 Y61.950 E3.78622
G1 X64.171 Y61.950 E3.81614
G1 X65.614 Y64.450 E3.91215
G1 X69.194 Y64.450 E4.03121
G1 X70.637 Y61.950 E4.12722
G1 X74.217 Y61.950 E4.24628
G1 X75.660 Y64.450 E4.34229
G1 X79.240 Y64.450 E4.46135
G1 X80.683 Y61.950 E4.55736
G1 X81.441 Y61.950 E4.58258
G1 X81.674 Y61.550 E4.59797
G1 X80.683 Y61.550 E4.63093
G1 X79.240 Y59.050 E4.72695
G1 X75.660 Y59.050 E4.84600
G1 X74.217 Y61.550 E4.94202
G1 X70.637 Y61.550 E5.06107
G1 X70.637 Y67.350 F7800.000
G1 X69.194 Y64.850 E5.15709 F609.810
G1 X65.614 Y64.850 E5.27614
G1 X65.572 Y64.923 E5.27894
G1 X69.097 Y66.910 E5.41354
G1 X69.392 Y69.907 E5.51369
G1 X70.637 Y67.750 E5.59652
G1 X74.217 Y67.750 E5.71558
G1 X75.422 Y69.838 E5.79576
G1 X75.690 Y66.886 E5.89433
G1 X79.240 Y64.851 E6.03043
G1 X75.660 Y64.850 E6.14950
G1 X74.217 Y67.350 E6.24551
G1 X70.637 Y67.350 E6.36457
G1 X70.637 Y73.150 F7800.000
G1 X69.520 Y71.216 E6.43885 F609.810
G1 X69.879 Y74.864 E6.56077
G1 X70.637 Y73.550 E6.61123
G1 X74.217 Y73.550 E6.73029
G1 X74.967 Y74.849 E6.78020
G1 X75.290 Y71.291 E6.89905
G1 X74.217 Y73.150 E6.97046
G1 X70.637 Y73.150 E7.08951
G1 X74.512 Y79.861 F7800.000
G1 X74.665 Y78.173 E7.14589 F609.810
G1 X74.217 Y78.950 E7.17572
G1 X70.637 Y78.950 E7.29477
G1 X70.206 Y78.204 E7.32342
G1 X70.365 Y79.821 E7.37746
G1 X70.637 Y79.350 E7.39555
G1 X74.217 Y79.350 E7.51461
G1 X74.512 Y79.861 E7.53424
G1 F1800.000 E6.53424
G92 E0
G1 X83.746 Y51.315 F7800.000
G1 E1.00000 F1800.000
G1 X82.533 Y50.052 E1.05823 F609.810
G1 X79.893 Y52.261 E1.17273
G1 X79.662 Y52.403 E1.18174
G1 X76.651 Y54.998 E1.31394
G1 X76.578 Y54.986 E1.31641
G1 X72.353 Y55.630 E1.45856
G1 X68.123 Y55.014 E1.60074
G1 X68.049 Y55.027 E1.60323
G1 X65.020 Y52.456 E1.73538
G1 X64.788 Y52.316 E1.74439
G1 X62.132 Y50.126 E1.85889
G1 X60.928 Y51.398 E1.91712
G1 X60.905 Y51.539 E1.92186
G1 X60.458 Y51.533 E1.93672
G1 X59.704 Y52.373 E1.97428
G1 X59.677 Y52.534 E1.97972
G1 X59.115 Y52.554 E1.99843
G1 X58.051 Y53.838 E2.05389
G1 X59.732 Y56.699 E2.16425
G1 X59.904 Y57.041 E2.17698
G1 X63.814 Y63.653 E2.43248
G1 X63.975 Y64.481 E2.46055
G1 X68.720 Y67.156 E2.64172
G1 X70.335 Y83.607 E3.19151
G1 X72.455 Y83.641 E3.26203
G1 X74.575 Y83.592 E3.33255
G1 X76.070 Y67.130 E3.88234
G1 X80.795 Y64.420 E4.06351
G1 X80.950 Y63.590 E4.09158
G1 X84.812 Y56.950 E4.34708
G1 X84.981 Y56.607 E4.35981
G1 X86.642 Y53.734 E4.47017
G1 X85.568 Y52.458 E4.52564
G1 X85.006 Y52.442 E4.54434
G1 X84.978 Y52.280 E4.54979
G1 X84.217 Y51.446 E4.58735
G1 X83.770 Y51.455 E4.60220
G1 X83.746 Y51.315 E4.60695
G1 F1800.000 E3.60695
G92 E0
G1 Z0.900 F7800.000
G1 X81.508 Y51.060 F7800.000
G1 E1.00000 F1800.000
G1 X69.590 Y74.839 E2.39635 F1239.971
G1 X69.706 Y76.017 E2.45851
G1 X82.601 Y50.289 E3.96936
G1 X83.065 Y50.772 E4.00453
G1 X69.822 Y77.195 E5.55619
G1 X69.937 Y78.373 E5.61835
G1 X83.529 Y51.256 E7.21083
G1 X84.080 Y51.564 E7.24401
G1 X76.457 Y66.774 E8.13721
G1 X77.448 Y66.206 F7800.000
G1 X84.567 Y52.002 E8.97135 F1239.971
G1 X84.995 Y52.557 E9.00815
G1 X78.439 Y65.638 E9.77630
G1 X79.430 Y65.069 E9.83628
G1 X85.626 Y52.707 E10.56226
G1 X86.069 Y53.233 E10.59834
G1 X80.421 Y64.501 E11.26006
G1 F1800.000 E10.26006
G92 E0
G1 X75.882 Y67.922 F7800.000
G1 E1.00000 F1800.000
G1 X70.053 Y79.552 E1.68293 F1239.971
G1 X70.169 Y80.730 E1.74509
G1 X75.725 Y69.643 E2.39615
G1 X75.569 Y71.364 F7800.000
G1 X70.284 Y81.908 E3.01536 F1239.971
G1 X70.400 Y83.087 E3.07752
G1 X75.413 Y73.085 E3.66486
G1 X75.257 Y74.806 F7800.000
G1 X70.899 Y83.501 E4.17547 F1239.971
G1 X71.599 Y83.512 E4.21225
G1 X75.100 Y76.527 E4.62248
G1 X74.944 Y78.248 F7800.000
G1 X72.300 Y83.524 E4.93234 F1239.971
G1 X73.011 Y83.513 E4.96970
G1 X74.788 Y79.968 E5.17787
G1 X74.632 Y81.689 F7800.000
G1 X73.726 Y83.496 E5.28399 F1239.971
G1 X74.441 Y83.479 E5.32152
G1 X74.475 Y83.410 E5.32558
G1 F1800.000 E4.32558
G92 E0
G1 X77.863 Y54.106 F7800.000
G1 E1.00000 F1800.000
G1 X69.243 Y71.304 E2.00991 F1239.971
G1 X69.128 Y70.125 E2.07207
G1 X76.651 Y55.115 E2.95355
G1 X75.899 Y55.206 E2.99332
G1 X69.012 Y68.947 E3.80025
G1 X68.896 Y67.769 E3.86241
G1 X75.134 Y55.323 E4.59330
G1 X74.370 Y55.439 E4.63391
G1 X68.598 Y66.955 E5.31016
G1 X68.047 Y66.645 E5.34335
G1 X73.605 Y55.556 E5.99452
G1 X72.840 Y55.673 E6.03513
G1 X67.497 Y66.334 E6.66123
G1 X66.946 Y66.024 E6.69441
G1 X72.114 Y55.712 E7.29996
G1 X71.456 Y55.616 E7.33488
G1 X66.395 Y65.713 E7.92783
G1 X65.845 Y65.403 E7.96102
G1 X70.798 Y55.520 E8.54136
G1 X70.140 Y55.425 E8.57628
G1 X65.294 Y65.092 E9.14401
G1 X64.743 Y64.782 E9.17720
G1 X69.481 Y55.329 E9.73233
G1 X68.823 Y55.233 E9.76725
G1 X64.193 Y64.471 E10.30978
G1 X63.920 Y63.606 E10.35742
G1 X68.165 Y55.137 E10.85474
G1 X67.620 Y54.815 E10.88796
G1 X63.538 Y62.959 E11.36627
G1 X63.156 Y62.313 E11.40569
G1 X67.125 Y54.394 E11.87073
G1 X66.629 Y53.973 E11.90485
G1 X62.774 Y61.667 E12.35662
G1 X62.391 Y61.020 E12.39605
G1 X66.134 Y53.553 E12.83456
G1 X65.638 Y53.132 E12.86867
G1 X62.009 Y60.374 E13.29392
G1 X61.627 Y59.727 E13.33334
G1 X65.143 Y52.712 E13.74532
G1 X64.627 Y52.333 E13.77895
G1 X61.244 Y59.081 E14.17525
G1 X60.862 Y58.435 E14.21467
G1 X64.127 Y51.921 E14.59720
G1 X63.627 Y51.509 E14.63120
G1 X60.480 Y57.788 E14.99996
G1 X60.098 Y57.142 E15.03939
G1 X63.127 Y51.097 E15.39437
G1 X62.628 Y50.685 E15.42837
G1 X59.730 Y56.467 E15.76793
G1 X59.348 Y55.819 E15.80743
G1 X62.101 Y50.327 E16.12990
G1 X60.731 Y51.652 F7800.000
G1 X58.967 Y55.170 E16.33650 F1239.971
G1 X58.586 Y54.521 E16.37599
G1 X59.521 Y52.655 E16.48556
G1 X58.255 Y53.772 F7800.000
G1 X58.205 Y53.873 E16.49147 F1239.971
G1 F1800.000 E15.49147
G92 E0
G1 X79.106 Y53.034 F7800.000
G1 E1.00000 F1800.000
G1 X69.359 Y72.482 E2.14204 F1239.971
G1 X69.475 Y73.660 E2.20419
G1 X80.292 Y52.078 E3.47162
G1 F1800.000 E2.47162
G92 E0
G1 Z1.100 F7800.000
G1 E1.00000 F1800.000
G1 X69.475 Y73.660 E2.26742 F1239.971
G1 X69.359 Y72.482 E2.32958
G1 X79.106 Y53.034 E3.47162
G1 X77.863 Y54.106 F7800.000
G1 X69.243 Y71.304 E4.48153 F1239.971
G1 X69.128 Y70.125 E4.54368
G1 X76.651 Y55.115 E5.42517
G1 X75.899 Y55.206 E5.46493
G1 X69.012 Y68.947 E6.27187
G1 X68.896 Y67.769 E6.33402
G1 X75.134 Y55.323 E7.06491
G1 X74.370 Y55.439 E7.10552
G1 X68.598 Y66.955 E7.78178
G1 X68.047 Y66.645 E7.81496
G1 X73.605 Y55.556 E8.46614
G1 X72.840 Y55.673 E8.50675
G1 X67.497 Y66.334 E9.13284
G1 X66.946 Y66.024 E9.16603
G1 X72.114 Y55.712 E9.77158
G1 X71.456 Y55.616 E9.80650
G1 X66.395 Y65.713 E10.39945
G1 X65.845 Y65.403 E10.43263
G1 X70.798 Y55.520 E11.01297
G1 X70.140 Y55.425 E11.04789
G1 X65.294 Y65.092 E11.61563
G1 X64.743 Y64.782 E11.64882
G1 X69.481 Y55.329 E12.20395
G1 X68.823 Y55.233 E12.23887
G1 X64.193 Y64.471 E12.78139
G1 X63.920 Y63.606 E12.82903
G1 X68.165 Y55.137 E13.32635
G1 X67.620 Y54.815 E13.35958
G1 X63.538 Y62.959 E13.83788
G1 X63.156 Y62.313 E13.87731
G1 X67.125 Y54.394 E14.34235
G1 X66.629 Y53.973 E14.37646
G1 X62.774 Y61.667 E14.82824
G1 X62.391 Y61.020 E14.86766
G1 X66.134 Y53.553 E15.30617
G1 X65.638 Y53.132 E15.34029
G1 X62.009 Y60.374 E15.76553
G1 X61.627 Y59.727 E15.80496
G1 X65.143 Y52.712 E16.21694
G1 X64.627 Y52.333 E16.25057
G1 X61.244 Y59.081 E16.64687
G1 X60.862 Y58.435 E16.68629
G1 X64.127 Y51.921 E17.06882
G1 X63.627 Y51.509 E17.10282
G1 X60.480 Y57.788 E17.47158
G1 X60.098 Y57.142 E17.51100
G1 X63.127 Y51.097 E17.86599
G1 X62.628 Y50.685 E17.89999
G1 X59.730 Y56.467 E18.23955
G1 X59.348 Y55.819 E18.27904
G1 X62.101 Y50.327 E18.60152
G1 X60.731 Y51.652 F7800.000
G1 X58.967 Y55.170 E18.80811 F1239.971
G1 X58.586 Y54.521 E18.84761
G1 X59.521 Y52.655 E18.95718
G1 X58.255 Y53.772 F7800.000
G1 X58.205 Y53.873 E18.96308 F1239.971
G1 X76.457 Y66.774 F7800.000
G1 X84.080 Y51.564 E19.85628 F1239.971
G1 X83.529 Y51.256 E19.88946
G1 X69.937 Y78.373 E21.48194
G1 X69.822 Y77.195 E21.54410
G1 X83.065 Y50.772 E23.09576
G1 X82.601 Y50.289 E23.13094
G1 X69.706 Y76.017 E24.64178
G1 X69.590 Y74.839 E24.70394
G1 X81.508 Y51.060 E26.10029
G1 X80.421 Y64.501 F7800.000
G1 X86.069 Y53.233 E26.76201 F1239.971
G1 X85.626 Y52.707 E26.79810
G1 X79.430 Y65.069 E27.52407
G1 X78.439 Y65.638 E27.58405
G1 X84.995 Y52.557 E28.35220
G1 X84.567 Y52.002 E28.38901
G1 X77.448 Y66.206 E29.22314
G1 F1800.000 E28.22314
G92 E0
G1 X75.882 Y67.922 F7800.000
G1 E1.00000 F1800.000
