; generated by Slic3r 1.1.7 on 2015-01-23 at 08:50:28

; perimeters extrusion width = 0.40mm
; infill extrusion width = 0.67mm
; solid infill extrusion width = 0.67mm
; top infill extrusion width = 0.67mm
; support material extrusion width = 0.40mm

G21 ; set units to millimeters
M107
M190 S36 ; wait for bed temperature to be reached
M104 S195 ; set temperature
G28 ; home all axes
G29 ;
G1 Z5 F5000 ; lift nozzle

M109 S195 ; wait for temperature to be reached
G90 ; use absolute coordinates
G92 E0
M82 ; use absolute distances for extrusion
G1 F1800.000 E-1.00000
G92 E0
G1 Z0.300 F7800.000
G1 X55.029 Y61.215 F7800.000
G1 E1.00000 F1800.000
G1 X55.055 Y61.162 E1.00472 F1080.000
G1 X55.816 Y61.072 E1.06593
G1 X55.187 Y62.328 E1.17811
G1 X55.372 Y63.387 E1.26400
G1 X57.950 Y58.244 E1.72345
G1 X58.634 Y58.308 E1.77831
G1 X55.602 Y64.358 E2.31876
G1 X55.831 Y65.330 E2.39846
G1 X59.317 Y58.374 E3.01977
G1 X60.000 Y58.440 E3.07459
G1 X56.061 Y66.301 E3.77677
G1 X56.290 Y67.272 E3.85646
G1 X61.182 Y57.512 E4.72835
G1 X61.905 Y57.498 E4.78609
G1 X56.520 Y68.243 E5.74592
G1 X56.904 Y68.904 E5.80702
G1 X62.370 Y57.999 E6.78118
G1 X62.835 Y58.500 E6.83577
G1 X57.523 Y69.100 E7.78266
G1 X58.141 Y69.295 E7.83444
G1 X63.301 Y59.001 E8.75406
G1 X63.766 Y59.501 E8.80864
G1 X58.760 Y69.490 E9.70092
G1 X59.378 Y69.684 E9.75271
G1 X64.231 Y60.002 E10.61765
G1 X64.696 Y60.503 E10.67224
G1 X59.997 Y69.879 E11.50984
G1 X60.616 Y70.074 E11.56163
G1 X65.162 Y61.003 E12.37190
G1 X65.627 Y61.504 E12.42648
G1 X61.234 Y70.268 E13.20941
G1 X61.853 Y70.463 E13.26120
G1 X66.119 Y61.951 E14.02156
G1 X66.634 Y62.352 E14.07369
G1 X62.472 Y70.658 E14.81565
G1 X63.090 Y70.852 E14.86745
G1 X66.129 Y64.789 E15.40907
G1 X65.439 Y67.595 F7800.000
G1 X63.709 Y71.047 E15.71741 F1080.000
G1 X64.328 Y71.242 E15.76920
G1 X64.413 Y71.072 E15.78439
G1 F1800.000 E14.78439
G92 E0
G1 X67.853 Y70.597 F7800.000
G1 E1.00000 F1800.000
G1 X70.641 Y65.036 E1.50455 F1080.000
G1 X70.327 Y64.212 E1.57607
G1 X68.431 Y67.994 E1.91923
G1 X69.910 Y63.591 F7800.000
G1 X70.000 Y63.412 E1.93545 F1080.000
G1 F1800.000 E0.93545
G92 E0
G1 X73.295 Y62.449 F7800.000
G1 E1.00000 F1800.000
G1 X73.330 Y62.380 E1.00633 F1080.000
G1 X74.656 Y61.200 F7800.000
G1 X73.537 Y63.432 E1.21074 F1080.000
G1 X73.779 Y64.415 E1.29363
G1 X76.250 Y59.484 E1.74523
G1 X77.844 Y57.768 F7800.000
G1 X74.021 Y65.397 E2.44403 F1080.000
G1 X74.262 Y66.380 E2.52692
G1 X78.744 Y57.438 E3.34604
G1 X79.233 Y57.928 E3.40273
G1 X74.504 Y67.363 E4.26695
G1 X74.746 Y68.346 E4.34983
G1 X79.721 Y58.419 E5.25914
G1 X80.468 Y58.395 E5.32029
G1 X74.988 Y69.329 E6.32181
G1 X75.278 Y70.215 E6.39815
G1 X81.239 Y58.321 E7.48765
G1 X82.010 Y58.248 E7.55106
G1 X75.585 Y71.067 E8.72524
G1 X76.337 Y71.033 E8.78684
G1 X82.533 Y58.669 E9.91928
G1 X83.043 Y59.118 E9.97487
G1 X77.209 Y70.758 E11.04110
G1 X78.081 Y70.484 E11.11595
G1 X83.296 Y60.079 E12.06899
G1 X83.569 Y61.000 E12.14760
G1 X78.953 Y70.210 E12.99121
G1 X79.824 Y69.935 E13.06606
G1 X84.262 Y61.081 E13.87704
G1 X84.955 Y61.163 E13.93421
G1 X80.696 Y69.661 E14.71258
G1 X81.568 Y69.386 E14.78743
G1 X84.675 Y63.188 E15.35514
G1 X84.020 Y65.961 F7800.000
G1 X82.441 Y69.111 E15.64372 F1080.000
G1 X83.313 Y68.835 E15.71865
G1 X83.365 Y68.733 E15.72804
G1 F1800.000 E14.72804
G92 E0
G1 X67.174 Y73.405 F7800.000
G1 E1.00000 F1800.000
G1 X70.955 Y65.860 E1.68445 F1080.000
G1 X71.270 Y66.684 E1.75597
G1 X66.704 Y75.794 E2.58239
G1 X66.234 Y78.182 F7800.000
G1 X71.499 Y67.677 E3.53541 F1080.000
G1 X71.722 Y68.683 E3.61898
G1 X65.764 Y80.571 E4.69746
G1 X65.294 Y82.960 F7800.000
G1 X71.945 Y69.689 E5.90139 F1080.000
G1 X72.168 Y70.695 E5.98496
G1 X65.357 Y84.286 E7.21788
G1 X65.716 Y85.019 E7.28413
G1 X72.391 Y71.701 E8.49231
G1 X72.615 Y72.707 E8.57588
G1 X66.111 Y85.683 E9.75306
G1 X66.505 Y86.348 E9.81571
G1 X72.873 Y73.642 E10.96828
G1 X73.078 Y74.685 E11.05442
G1 X66.900 Y87.012 E12.17271
G1 X67.294 Y87.676 E12.23536
G1 X73.283 Y75.727 E13.31937
G1 X73.488 Y76.769 E13.40550
G1 X67.488 Y88.740 E14.49147
G1 X68.070 Y89.031 E14.54420
G1 X73.693 Y77.811 E15.56207
G1 X73.898 Y78.853 E15.64820
G1 X68.651 Y89.322 E16.59796
G1 X69.360 Y89.359 E16.65553
G1 X74.103 Y79.895 E17.51408
G1 X74.308 Y80.937 E17.60022
G1 X70.087 Y89.359 E18.36423
G1 X70.815 Y89.359 E18.42322
G1 X74.513 Y81.979 E19.09269
G1 X74.718 Y83.021 E19.17883
G1 X71.619 Y89.205 E19.73981
G1 X72.600 Y88.699 E19.82932
G1 X72.627 Y88.645 E19.83421
M106 S255
M104 S190 ; set temperature
M140 S34 ; set bed temperature
G1 F1800.000 E18.83421
G92 E0
G1 Z0.500 F7800.000
G1 E1.00000 F1800.000
G1 X72.600 Y88.699 E1.00326 F1217.499
G1 X71.619 Y89.205 E1.06293
G1 X74.718 Y83.021 E1.43692
G1 X74.513 Y81.979 E1.49435
G1 X70.815 Y89.359 E1.94066
G1 X70.087 Y89.359 E1.97999
G1 X74.308 Y80.937 E2.48933
G1 X74.103 Y79.895 E2.54675
G1 X69.360 Y89.359 E3.11912
G1 X68.651 Y89.322 E3.15750
G1 X73.898 Y78.853 E3.79067
G1 X73.693 Y77.811 E3.84810
G1 X68.070 Y89.031 E4.52667
G1 X67.488 Y88.740 E4.56183
G1 X73.488 Y76.769 E5.28581
G1 X73.283 Y75.727 E5.34323
G1 X67.294 Y87.676 E6.06590
G1 X66.900 Y87.012 E6.10767
G1 X73.078 Y74.685 E6.85320
G1 X72.873 Y73.642 E6.91062
G1 X66.505 Y86.348 E7.67900
G1 X66.111 Y85.683 E7.72077
G1 X72.615 Y72.707 E8.50555
G1 X72.391 Y71.701 E8.56127
G1 X65.716 Y85.019 E9.36672
G1 X65.357 Y84.286 E9.41089
G1 X72.168 Y70.695 E10.23283
G1 X71.945 Y69.689 E10.28855
G1 X65.294 Y82.960 E11.09117
G1 X65.764 Y80.571 F7800.000
G1 X71.722 Y68.683 E11.81015 F1217.499
G1 X71.499 Y67.677 E11.86587
G1 X66.234 Y78.182 E12.50121
G1 X66.704 Y75.794 F7800.000
G1 X71.270 Y66.684 E13.05216 F1217.499
G1 X70.955 Y65.860 E13.09984
G1 X67.174 Y73.405 E13.55614
G1 X67.853 Y70.597 F7800.000
G1 X70.641 Y65.036 E13.89251 F1217.499
G1 X70.327 Y64.212 E13.94019
G1 X68.431 Y67.994 E14.16896
G1 F1800.000 E13.16896
G92 E0
G1 X65.439 Y67.595 F7800.000
G1 E1.00000 F1800.000
G1 X63.709 Y71.047 E1.20556 F1217.499
G1 X64.328 Y71.242 E1.24009
G1 X64.413 Y71.072 E1.25021
G1 X66.129 Y64.789 F7800.000
G1 X63.090 Y70.852 E1.61129 F1217.499
G1 X62.472 Y70.658 E1.64582
G1 X66.634 Y62.352 E2.14046
G1 X66.119 Y61.951 E2.17522
G1 X61.853 Y70.463 E2.68212
G1 X61.234 Y70.268 E2.71665
G1 X65.627 Y61.504 E3.23860
G1 X65.162 Y61.003 E3.27499
G1 X60.616 Y70.074 E3.81517
G1 X59.997 Y69.879 E3.84970
G1 X64.696 Y60.503 E4.40810
G1 X64.231 Y60.002 E4.44449
G1 X59.378 Y69.684 E5.02111
G1 X58.760 Y69.490 E5.05564
G1 X63.766 Y59.501 E5.65050
G1 X63.301 Y59.001 E5.68689
G1 X58.141 Y69.295 E6.29996
G1 X57.523 Y69.100 E6.33448
G1 X62.835 Y58.500 E6.96575
G1 X62.370 Y57.999 E7.00214
G1 X56.904 Y68.904 E7.65158
G1 X56.520 Y68.243 E7.69231
G1 X61.905 Y57.498 E8.33220
G1 X61.182 Y57.512 E8.37069
G1 X56.290 Y67.272 E8.95195
G1 X56.061 Y66.301 E9.00508
G1 X60.000 Y58.440 E9.47320
G1 X59.317 Y58.374 E9.50974
G1 X55.831 Y65.330 E9.92395
G1 X55.602 Y64.358 E9.97708
G1 X58.634 Y58.308 E10.33738
G1 X57.950 Y58.244 E10.37396
G1 X55.372 Y63.387 E10.68026
G1 X55.187 Y62.328 E10.73752
G1 X55.816 Y61.072 E10.81230
G1 X55.055 Y61.162 E10.85311
G1 X55.029 Y61.215 E10.85626
G1 F1800.000 E9.85626
G92 E0
G1 X69.910 Y63.591 F7800.000
G1 E1.00000 F1800.000
G1 X70.000 Y63.412 E1.01082 F1217.499
G1 F1800.000 E0.01082
G92 E0
G1 X73.295 Y62.449 F7800.000
G1 E1.00000 F1800.000
G1 X73.330 Y62.380 E1.00422 F1217.499
G1 X74.656 Y61.200 F7800.000
G1 X73.537 Y63.432 E1.14049 F1217.499
G1 X73.779 Y64.415 E1.19575
G1 X76.250 Y59.484 E1.49682
G1 X77.844 Y57.768 F7800.000
G1 X74.021 Y65.397 E1.96269 F1217.499
G1 X74.262 Y66.380 E2.01795
G1 X78.744 Y57.438 E2.56403
G1 X79.233 Y57.928 E2.60182
G1 X74.504 Y67.363 E3.17796
G1 X74.746 Y68.346 E3.23322
G1 X79.721 Y58.419 E3.83943
G1 X80.468 Y58.395 E3.88019
G1 X74.988 Y69.329 E4.54787
G1 X75.278 Y70.215 E4.59877
G1 X81.239 Y58.321 E5.32510
G1 X82.010 Y58.248 E5.36737
G1 X75.585 Y71.067 E6.15016
G1 X76.337 Y71.033 E6.19123
G1 X82.533 Y58.669 E6.94619
G1 X83.043 Y59.118 E6.98325
G1 X77.209 Y70.758 E7.69407
G1 X78.081 Y70.484 E7.74397
G1 X83.296 Y60.079 E8.37933
G1 X83.569 Y61.000 E8.43173
G1 X78.953 Y70.210 E8.99414
G1 X79.824 Y69.935 E9.04404
G1 X84.262 Y61.081 E9.58469
G1 X84.955 Y61.163 E9.62281
G1 X80.696 Y69.661 E10.14172
G1 X81.568 Y69.386 E10.19162
G1 X84.675 Y63.188 E10.57009
G1 X84.020 Y65.961 F7800.000
G1 X82.441 Y69.111 E10.76248 F1217.499
G1 X83.313 Y68.835 E10.81244
G1 X83.365 Y68.733 E10.81869
G1 F1800.000 E9.81869
G92 E0
G1 Z0.700 F7800.000
G1 E1.00000 F1800.000
G1 X83.313 Y68.835 E1.00626 F3051.018
G1 X82.441 Y69.111 E1.05622
G1 X84.020 Y65.961 E1.24860
G1 F1800.000 E0.24860
G92 E0
G1 X84.675 Y63.188 F7800.000
G1 E1.00000 F1800.000
G1 X81.568 Y69.386 E1.37848 F3051.018
G1 X80.696 Y69.661 E1.42838
G1 X84.955 Y61.163 E1.94729
G1 X84.262 Y61.081 E1.98540
G1 X79.824 Y69.935 E2.52606
G1 X78.953 Y70.210 E2.57596
G1 X83.569 Y61.000 E3.13836
G1 X83.296 Y60.079 E3.19077
G1 X78.081 Y70.484 E3.82613
G1 X77.209 Y70.758 E3.87603
G1 X83.043 Y59.118 E4.58685
G1 X82.533 Y58.669 E4.62391
G1 X76.337 Y71.033 E5.37887
G1 X75.585 Y71.067 E5.41993
G1 X82.010 Y58.248 E6.20272
G1 X81.239 Y58.321 E6.24500
G1 X75.278 Y70.215 E6.97133
G1 X74.988 Y69.329 E7.02222
G1 X80.468 Y58.395 E7.68990
G1 X79.721 Y58.419 E7.73067
G1 X74.746 Y68.346 E8.33687
G1 X74.504 Y67.363 E8.39213
G1 X79.233 Y57.928 E8.96827
G1 X78.744 Y57.438 E9.00607
G1 X74.262 Y66.380 E9.55215
G1 X74.021 Y65.397 E9.60741
G1 X77.844 Y57.768 E10.07327
G1 F1800.000 E9.07327
G92 E0
G1 X76.250 Y59.484 F7800.000
G1 E1.00000 F1800.000
G1 X73.779 Y64.415 E1.30107 F3051.018
G1 X73.537 Y63.432 E1.35633
G1 X74.656 Y61.200 E1.49261
G1 X73.330 Y62.380 F7800.000
G1 X73.295 Y62.449 E1.49682 F3051.018
G1 F1800.000 E0.49682
G92 E0
G1 X70.000 Y63.412 F7800.000
G1 E1.00000 F1800.000
G1 X69.910 Y63.591 E1.01082 F3051.018
G1 F1800.000 E0.01082
G92 E0
G1 X66.129 Y64.789 F7800.000
G1 E1.00000 F1800.000
G1 X63.090 Y70.852 E1.36108 F3051.018
G1 X62.472 Y70.658 E1.39561
G1 X66.634 Y62.352 E1.89025
G1 X66.119 Y61.951 E1.92500
G1 X61.853 Y70.463 E2.43191
G1 X61.234 Y70.268 E2.46644
G1 X65.627 Y61.504 E2.98839
G1 X65.162 Y61.003 E3.02478
G1 X60.616 Y70.074 E3.56495
G1 X59.997 Y69.879 E3.59948
G1 X64.696 Y60.503 E4.15788
G1 X64.231 Y60.002 E4.19428
G1 X59.378 Y69.684 E4.77090
G1 X58.760 Y69.490 E4.80543
G1 X63.766 Y59.501 E5.40028
G1 X63.301 Y59.001 E5.43667
G1 X58.141 Y69.295 E6.04975
G1 X57.523 Y69.100 E6.08427
G1 X62.835 Y58.500 E6.71553
G1 X62.370 Y57.999 E6.75192
G1 X56.904 Y68.904 E7.40137
G1 X56.520 Y68.243 E7.44210
G1 X61.905 Y57.498 E8.08198
G1 X61.182 Y57.512 E8.12047
G1 X56.290 Y67.272 E8.70173
G1 X56.061 Y66.301 E8.75486
G1 X60.000 Y58.440 E9.22298
G1 X59.317 Y58.374 E9.25953
G1 X55.831 Y65.330 E9.67374
G1 X55.602 Y64.358 E9.72687
G1 X58.634 Y58.308 E10.08717
G1 X57.950 Y58.244 E10.12374
G1 X55.372 Y63.387 E10.43005
G1 X55.187 Y62.328 E10.48730
G1 X55.816 Y61.072 E10.56209
G1 X55.055 Y61.162 E10.60290
G1 X55.029 Y61.215 E10.60604
G1 F1800.000 E9.60604
G92 E0
G1 X65.439 Y67.595 F7800.000
G1 E1.00000 F1800.000
G1 X63.709 Y71.047 E1.20556 F3051.018
G1 X64.328 Y71.242 E1.24009
G1 X64.413 Y71.072 E1.25021
G1 F1800.000 E0.25021
G92 E0
G1 X67.853 Y70.597 F7800.000
G1 E1.00000 F1800.000
G1 X70.641 Y65.036 E1.33637 F3051.018
G1 X70.327 Y64.212 E1.38405
G1 X68.431 Y67.994 E1.61282
G1 F1800.000 E0.61282
G92 E0
G1 X67.174 Y73.405 F7800.000
G1 E1.00000 F1800.000
G1 X70.955 Y65.860 E1.45630 F3051.018
G1 X71.270 Y66.684 E1.50398
G1 X66.704 Y75.794 E2.05493
G1 F1800.000 E1.05493
G92 E0
G1 X66.234 Y78.182 F7800.000
G1 E1.00000 F1800.000
G1 X71.499 Y67.677 E1.63535 F3051.018
G1 X71.722 Y68.683 E1.69106
G1 X65.764 Y80.571 E2.41004
G1 F1800.000 E1.41004
G92 E0
G1 X65.294 Y82.960 F7800.000
G1 E1.00000 F1800.000
G1 X71.945 Y69.689 E1.80262 F3051.018
G1 X72.168 Y70.695 E1.85833
G1 X65.357 Y84.286 E2.68028
G1 X65.716 Y85.019 E2.72445
G1 X72.391 Y71.701 E3.52990
G1 X72.615 Y72.707 E3.58562
G1 X66.111 Y85.683 E4.37040
G1 X66.505 Y86.348 E4.41217
G1 X72.873 Y73.642 E5.18055
G1 X73.078 Y74.685 E5.23797
G1 X66.900 Y87.012 E5.98350
G1 X67.294 Y87.676 E6.02527
G1 X73.283 Y75.727 E6.74794
G1 X73.488 Y76.769 E6.80536
G1 X67.488 Y88.740 E7.52934
G1 X68.070 Y89.031 E7.56450
G1 X73.693 Y77.811 E8.24307
G1 X73.898 Y78.853 E8.30050
G1 X68.651 Y89.322 E8.93367
G1 X69.360 Y89.359 E8.97205
G1 X74.103 Y79.895 E9.54442
G1 X74.308 Y80.937 E9.60184
G1 X70.087 Y89.359 E10.11118
G1 X70.815 Y89.359 E10.15051
G1 X74.513 Y81.979 E10.59682
G1 X74.718 Y83.021 E10.65425
G1 X71.619 Y89.205 E11.02824
G1 X72.600 Y88.699 E11.08791
G1 X72.627 Y88.645 E11.09117
G1 F1800.000 E10.09117
G92 E0
G1 Z1.300 F7800.000
G1 X70.463 Y87.175 F7800.000
G1 E1.00000 F1800.000
G1 X69.537 Y87.175 E1.06160 F1525.509
G1 X67.456 Y83.670 E1.33273
G1 X67.421 Y83.465 E1.34655
G1 X69.311 Y73.858 E1.99789
G1 X69.457 Y73.455 E2.02638
G1 X69.872 Y71.586 E2.15375
G1 X70.128 Y71.586 E2.17083
G1 X70.543 Y73.455 E2.29820
G1 X70.689 Y73.858 E2.32669
G1 X72.579 Y83.465 E2.97803
G1 X72.544 Y83.670 E2.99185
G1 X70.494 Y87.123 E3.25899
G1 X70.128 Y69.739 F7800.000
G1 X70.928 Y73.343 E3.50460 F1525.509
G1 X71.076 Y73.750 E3.53341
G1 X72.986 Y83.460 E4.19170
G1 X72.920 Y83.821 E4.21611
G1 X70.691 Y87.575 E4.50650
G1 X69.309 Y87.575 E4.59839
G1 X67.080 Y83.821 E4.88877
G1 X67.014 Y83.460 E4.91318
G1 X68.924 Y73.750 E5.57147
G1 X69.072 Y73.343 E5.60028
G1 X69.872 Y69.739 E5.84589
G1 X70.068 Y69.739 E5.85898
G1 X70.128 Y67.891 F7800.000
G1 X71.313 Y73.231 E6.22283 F1067.856
G1 X71.462 Y73.643 E6.25197
G1 X73.393 Y83.455 E6.91721
G1 X73.289 Y83.983 E6.95301
G1 X70.918 Y87.975 E7.26179
G1 X69.082 Y87.975 E7.38397
G1 X66.711 Y83.983 E7.69275
G1 X66.607 Y83.455 E7.72855
G1 X68.538 Y73.643 E8.39380
G1 X68.687 Y73.231 E8.42293
G1 X69.872 Y67.891 E8.78678
G1 X70.068 Y67.891 E8.79987
G1 X69.981 Y68.263 F7800.000
G1 X69.962 Y72.606 F7800.000
G1 X69.915 Y72.652 E8.80440 F3051.018
G1 X70.164 Y73.012 E8.83464
G1 X69.742 Y73.434 E8.87597
G1 X69.507 Y74.278 E8.93650
G1 X70.275 Y73.510 E9.01159
G1 X70.431 Y73.963 E9.04469
G1 X69.358 Y75.036 E9.14961
G1 X69.209 Y75.794 E9.20300
G1 X70.531 Y74.471 E9.33228
G1 X70.631 Y74.980 E9.36812
G1 X69.060 Y76.552 E9.52176
G1 X68.911 Y77.309 E9.57516
G1 X70.731 Y75.489 E9.75316
G1 X70.831 Y75.997 E9.78900
G1 X68.761 Y78.067 E9.99136
G1 X68.612 Y78.825 E10.04476
G1 X70.931 Y76.506 E10.27149
G1 X71.031 Y77.015 E10.30732
G1 X68.463 Y79.583 E10.55841
G1 X68.314 Y80.341 E10.61181
G1 X71.132 Y77.523 E10.88726
G1 X71.232 Y78.032 E10.92310
G1 X68.165 Y81.099 E11.22291
G1 X68.016 Y81.856 E11.27630
G1 X71.332 Y78.541 E11.60047
G1 X71.432 Y79.049 E11.63631
G1 X67.867 Y82.614 E11.98485
G1 X67.718 Y83.372 E12.03824
G1 X71.532 Y79.558 E12.41114
G1 X71.632 Y80.067 E12.44697
G1 X67.869 Y83.830 E12.81489
G1 X68.096 Y84.212 E12.84560
G1 X71.732 Y80.575 E13.20113
G1 X71.832 Y81.084 E13.23697
G1 X68.322 Y84.594 E13.58011
G1 X68.549 Y84.976 E13.61082
G1 X71.932 Y81.593 E13.94157
G1 X72.032 Y82.101 E13.97741
G1 X68.776 Y85.357 E14.29576
G1 X69.003 Y85.739 E14.32647
G1 X72.132 Y82.610 E14.63244
G1 X72.232 Y83.118 E14.66828
G1 X69.230 Y86.121 E14.96186
G1 X69.456 Y86.503 E14.99257
G1 X72.133 Y83.826 E15.25429
G1 X71.243 Y85.325 F7800.000
G1 X69.696 Y86.873 E15.40561 F3051.018
G1 X70.276 Y86.901 E15.44577
G1 X70.353 Y86.824 E15.45333
G1 F1800.000 E14.45333
G92 E0
G1 X58.211 Y62.989 F7800.000
G1 E1.00000 F1800.000
G1 X58.846 Y60.523 E1.16937 F1525.509
G1 X61.054 Y60.736 E1.31692
G1 X61.508 Y60.280 E1.35974
G1 X64.260 Y63.242 E1.62869
G1 X62.961 Y68.522 E1.99036
G1 X58.498 Y67.117 E2.30162
G1 X57.542 Y63.068 E2.57835
G1 X58.152 Y62.996 E2.61923
G1 X57.892 Y62.624 F7800.000
G1 X58.544 Y60.092 E2.79312 F1525.509
G1 X60.904 Y60.320 E2.95084
G1 X61.518 Y59.703 E3.00874
G1 X64.700 Y63.128 E3.31971
G1 X63.248 Y69.031 E3.72410
G1 X58.161 Y67.430 E4.07886
G1 X57.049 Y62.724 E4.40054
G1 X57.833 Y62.631 E4.45303
G1 X57.573 Y62.259 F7800.000
G1 X58.185 Y59.881 E4.61634 F1067.856
G1 X58.416 Y59.678 E4.63680
G1 X60.754 Y59.904 E4.79304
G1 X61.528 Y59.127 E4.86601
G1 X64.906 Y62.762 E5.19614
G1 X65.154 Y62.955 E5.21707
G1 X63.622 Y69.185 E5.64384
G1 X63.498 Y69.529 E5.66818
G1 X57.824 Y67.743 E6.06387
G1 X56.647 Y62.762 E6.40433
