; generated by Slic3r 1.1.7 on 2015-01-10 at 02:20:02

; perimeters extrusion width = 0.40mm
; infill extrusion width = 0.42mm
; solid infill extrusion width = 0.42mm
; top infill extrusion width = 0.42mm

G21 ; set units to millimeters
M107
M190 S50 ; wait for bed temperature to be reached
M104 S195 ; set temperature
G28 ; home all axes
G1 Z5 F5000 ; lift nozzle

M109 S195 ; wait for temperature to be reached
G90 ; use absolute coordinates
G92 E0
M82 ; use absolute distances for extrusion
G1 F1800.000 E-1.00000
G92 E0
G1 Z0.350 F7800.000
G1 X59.158 Y71.767 F7800.000
G1 E1.00000 F1800.000
G1 X61.311 Y70.972 E1.21230 F1080.000
G1 X62.500 Y70.864 E1.32272
G1 X67.500 Y70.864 E1.78518
G1 X69.761 Y71.261 E1.99747
G1 X72.192 Y72.808 E2.26399 F1080.000
G1 X92.192 Y92.808 E4.88003
G1 X93.510 Y94.687 E5.09233
G1 X94.136 Y97.500 E5.35884
G1 X94.136 Y102.500 E5.82130
G1 X93.739 Y104.761 E6.03359
G1 X92.595 Y106.751 E6.24589
G1 X90.842 Y108.233 E6.45819
G1 X88.689 Y109.028 E6.67048
G1 X87.500 Y109.136 E6.78091
G1 X62.500 Y109.136 E9.09318
G1 X60.239 Y108.739 E9.30548
G1 X58.249 Y107.595 E9.51777
G1 X56.767 Y105.842 E9.73007
G1 X55.972 Y103.689 E9.94237
G1 X55.864 Y102.500 E10.05279
G1 X55.864 Y77.500 E12.36507
G1 X56.261 Y75.239 E12.57736
G1 X57.405 Y73.249 E12.78966
G1 X59.112 Y71.806 E12.99641
G1 F1800.000 E11.99641
G92 E0
G1 X80.879 Y99.121 F7800.000
G1 E1.00000 F1800.000
G1 X85.879 Y99.121 E1.46245 F540.000
G1 X85.879 Y100.879 E1.62501
G1 X79.121 Y100.879 E2.25002
G1 X79.121 Y95.879 E2.71247
G1 X65.879 Y95.879 E3.93728
G1 X65.879 Y100.879 E4.39974
G1 X64.121 Y100.879 E4.56229
G1 X64.121 Y79.121 E6.57467
G1 X65.879 Y79.121 E6.73722
G1 X65.879 Y84.121 E7.19968
G1 X70.879 Y84.121 E7.66213
G1 X70.879 Y89.121 E8.12459
G1 X75.879 Y89.121 E8.58704
G1 X75.879 Y94.121 E9.04950
G1 X80.879 Y94.121 E9.51195
G1 X80.879 Y99.061 E9.96886
G1 X81.514 Y98.486 F7800.000
G1 X86.514 Y98.486 E10.43131 F540.000
G1 X86.514 Y101.514 E10.71144
G1 X78.486 Y101.514 E11.45403
G1 X78.486 Y96.514 E11.91649
G1 X66.514 Y96.514 E13.02372
G1 X66.514 Y101.514 E13.48617
G1 X63.486 Y101.514 E13.76630
G1 X63.486 Y78.486 E15.89626
G1 X66.514 Y78.486 E16.17639
G1 X66.514 Y83.486 E16.63884
G1 X71.514 Y83.486 E17.10130
G1 X71.514 Y88.486 E17.56375
G1 X76.514 Y88.486 E18.02621
G1 X76.514 Y93.486 E18.48866
G1 X81.514 Y93.486 E18.95112
G1 X81.514 Y98.426 E19.40802
G1 X82.150 Y97.850 F7800.000
G1 X87.150 Y97.850 E19.87048 F378.000
G1 X87.150 Y102.150 E20.26819
G1 X77.850 Y102.150 E21.12836
G1 X77.850 Y97.150 E21.59081
G1 X67.150 Y97.150 E22.58046
G1 X67.150 Y102.150 E23.04292
G1 X62.850 Y102.150 E23.44063
G1 X62.850 Y77.850 E25.68816
G1 X67.150 Y77.850 E26.08587
G1 X67.150 Y82.850 E26.54833
G1 X72.150 Y82.850 E27.01078
G1 X72.150 Y87.850 E27.47323
G1 X77.150 Y87.850 E27.93569
G1 X77.150 Y92.850 E28.39814
G1 X82.150 Y92.850 E28.86060
G1 X82.150 Y97.790 E29.31750
G1 X82.150 Y98.250 F7800.000
G1 X74.914 Y95.438 F7800.000
G1 X64.562 Y85.086 E30.67156 F1080.000
G1 X64.562 Y85.995 E30.75559
G1 X74.005 Y95.438 E31.99080
G1 X73.097 Y95.438 E32.07483
G1 X64.562 Y86.903 E33.19121
G1 X64.562 Y87.812 E33.27524
G1 X72.188 Y95.438 E34.27277
G1 X71.280 Y95.438 E34.35680
G1 X64.562 Y88.720 E35.23549
G1 X64.562 Y89.629 E35.31952
G1 X70.371 Y95.438 E36.07937
G1 X69.463 Y95.438 E36.16340
G1 X64.562 Y90.537 E36.80441
G1 X64.562 Y91.446 E36.88844
G1 X68.554 Y95.438 E37.41061
G1 X67.646 Y95.438 E37.49464
G1 X64.562 Y92.354 E37.89797
G1 X64.562 Y93.263 E37.98200
G1 X66.737 Y95.438 E38.26648
G1 X65.511 Y95.120 E38.38366
G1 X64.562 Y94.172 E38.50773
G1 X64.562 Y95.080 E38.59176
G1 X64.602 Y95.120 E38.59699
G1 X70.398 Y84.562 F7800.000
G1 X70.438 Y84.602 E38.60223 F1080.000
G1 X70.438 Y85.511 E38.68626
G1 X69.489 Y84.562 E38.81033
G1 X68.581 Y84.562 E38.89437
G1 X70.438 Y86.419 E39.13728
G1 X70.438 Y87.328 E39.22131
G1 X67.672 Y84.562 E39.58307
G1 X66.764 Y84.562 E39.66710
G1 X70.438 Y88.236 E40.14770
G1 X70.438 Y89.145 E40.23173
G1 X65.966 Y84.673 E40.81670
G1 X65.264 Y84.880 E40.88434
G1 X75.120 Y94.736 E42.17349
G1 X75.327 Y94.034 E42.24113
G1 X70.855 Y89.562 E42.82610
G1 X71.764 Y89.562 E42.91013
G1 X75.438 Y93.236 E43.39073
G1 X75.438 Y92.328 E43.47476
G1 X72.672 Y89.562 E43.83652
G1 X73.581 Y89.562 E43.92055
G1 X75.438 Y91.419 E44.16347
G1 X75.438 Y90.511 E44.24750
G1 X74.489 Y89.562 E44.37157
G1 X75.398 Y89.562 E44.45561
G1 X75.438 Y89.602 E44.46084
G1 X65.000 Y84.439 F7800.000
G1 X65.000 Y79.439 E45.17013 F360.000
G1 X65.000 Y95.561 F7800.000
G1 X65.000 Y100.561 E45.87943 F360.000
G1 F1800.000 E44.87943
G92 E0
G1 X75.561 Y95.000 F7800.000
G1 E1.00000 F1800.000
G1 X79.439 Y95.000 E1.55014 F360.000
G1 X79.904 Y95.096 E1.61746
G1 X80.000 Y95.561 E1.68479
G1 X80.000 Y99.439 E2.23493
G1 X80.096 Y99.904 E2.30225
G1 X80.561 Y100.000 E2.36957
G1 X85.561 Y100.000 E3.07887
M106 S255
M104 S190 ; set temperature
M140 S45 ; set bed temperature
G1 F1800.000 E2.07887
G92 E0
G1 Z0.650 F7800.000
G1 X81.500 Y98.500 F7800.000
G1 E1.00000 F1800.000
G1 X86.500 Y98.500 E1.24945 F1224.591
G1 X86.500 Y101.500 E1.39912
G1 X78.500 Y101.500 E1.79824
G1 X78.500 Y96.500 E2.04769
G1 X66.500 Y96.500 E2.64638
G1 X66.500 Y101.500 E2.89583
G1 X63.500 Y101.500 E3.04550
G1 X63.500 Y78.500 E4.19297
G1 X66.500 Y78.500 E4.34264
G1 X66.500 Y83.500 E4.59209
G1 X71.500 Y83.500 E4.84155
G1 X71.500 Y88.500 E5.09100
G1 X76.500 Y88.500 E5.34045
G1 X76.500 Y93.500 E5.58990
G1 X81.500 Y93.500 E5.83935
G1 X81.500 Y98.440 E6.08581
G1 X81.900 Y98.100 F7800.000
G1 X86.900 Y98.100 E6.33526 F1224.591
G1 X86.900 Y101.900 E6.52484
G1 X78.100 Y101.900 E6.96388
G1 X78.100 Y96.900 E7.21333
G1 X66.900 Y96.900 E7.77210
G1 X66.900 Y101.900 E8.02155
G1 X63.100 Y101.900 E8.21113
G1 X63.100 Y78.100 E9.39852
G1 X66.900 Y78.100 E9.58810
G1 X66.900 Y83.100 E9.83755
G1 X71.900 Y83.100 E10.08700
G1 X71.900 Y88.100 E10.33645
G1 X76.900 Y88.100 E10.58590
G1 X76.900 Y93.100 E10.83535
G1 X81.900 Y93.100 E11.08481
G1 X81.900 Y98.040 E11.33126
G1 X82.300 Y97.700 F7800.000
G1 X87.300 Y97.700 E11.58071 F857.214
G1 X87.300 Y102.300 E11.81021
G1 X77.700 Y102.300 E12.28916
G1 X77.700 Y97.300 E12.53861
G1 X67.300 Y97.300 E13.05746
G1 X67.300 Y102.300 E13.30692
G1 X62.700 Y102.300 E13.53641
G1 X62.700 Y77.700 E14.76371
G1 X67.300 Y77.700 E14.99320
G1 X67.300 Y82.700 E15.24266
G1 X72.300 Y82.700 E15.49211
G1 X72.300 Y87.700 E15.74156
G1 X77.300 Y87.700 E15.99101
G1 X77.300 Y92.700 E16.24046
G1 X82.300 Y92.700 E16.48991
G1 X82.300 Y97.640 E16.73637
G1 X82.300 Y98.100 F7800.000
G1 X86.226 Y101.186 F7800.000
G1 X86.186 Y101.226 E16.73932 F2449.182
G1 X85.588 Y101.226 E16.77055
G1 X86.226 Y100.588 E16.81766
G1 X86.226 Y99.990 E16.84888
G1 X84.990 Y101.226 E16.94015
G1 X84.393 Y101.226 E16.97138
G1 X86.226 Y99.393 E17.10680
G1 X86.216 Y98.805 E17.13753
G1 X83.795 Y101.226 E17.31641
G1 X83.198 Y101.226 E17.34764
G1 X85.649 Y98.774 E17.52877
G1 X85.051 Y98.774 E17.56000
G1 X82.600 Y101.226 E17.74113
G1 X82.002 Y101.226 E17.77235
G1 X84.454 Y98.774 E17.95349
G1 X83.856 Y98.774 E17.98471
G1 X81.405 Y101.226 E18.16584
G1 X80.807 Y101.226 E18.19707
G1 X83.259 Y98.774 E18.37820
G1 X82.661 Y98.774 E18.40942
G1 X80.209 Y101.226 E18.59056
G1 X79.612 Y101.226 E18.62178
G1 X82.063 Y98.774 E18.80292
G1 X81.466 Y98.774 E18.83414
G1 X79.014 Y101.226 E19.01527
G1 X78.774 Y100.868 E19.03778
G1 X81.226 Y98.416 E19.21891
G1 X81.226 Y97.819 E19.25013
G1 X78.774 Y100.270 E19.43127
G1 X78.774 Y99.673 E19.46249
G1 X81.226 Y97.221 E19.64362
G1 X81.226 Y96.624 E19.67485
G1 X78.774 Y99.075 E19.85598
G1 X78.774 Y98.477 E19.88721
G1 X81.226 Y96.026 E20.06834
G1 X81.226 Y95.428 E20.09956
G1 X78.774 Y97.880 E20.28070
G1 X78.774 Y97.282 E20.31192
G1 X81.226 Y94.831 E20.49305
G1 X81.226 Y94.233 E20.52428
G1 X78.774 Y96.684 E20.70541
G1 X78.635 Y96.226 E20.73045
G1 X81.087 Y93.774 E20.91159
G1 X80.489 Y93.774 E20.94281
G1 X78.038 Y96.226 E21.12394
G1 X77.440 Y96.226 E21.15517
G1 X79.892 Y93.774 E21.33630
G1 X79.294 Y93.774 E21.36752
G1 X76.842 Y96.226 E21.54866
G1 X76.245 Y96.226 E21.57988
G1 X78.696 Y93.774 E21.76101
G1 X78.099 Y93.774 E21.79224
G1 X75.647 Y96.226 E21.97337
G1 X75.049 Y96.226 E22.00459
G1 X77.501 Y93.774 E22.18573
G1 X76.903 Y93.774 E22.21695
G1 X74.452 Y96.226 E22.39809
G1 X73.854 Y96.226 E22.42931
G1 X76.306 Y93.774 E22.61044
G1 X76.226 Y93.257 E22.63781
G1 X73.257 Y96.226 E22.85719
G1 X72.659 Y96.226 E22.88842
G1 X76.226 Y92.659 E23.15196
G1 X76.226 Y92.061 E23.18318
G1 X72.061 Y96.226 E23.49088
G1 X71.464 Y96.226 E23.52210
G1 X76.226 Y91.464 E23.87396
G1 X76.226 Y90.866 E23.90518
G1 X70.866 Y96.226 E24.30119
G1 X70.268 Y96.226 E24.33241
G1 X76.226 Y90.268 E24.77258
G1 X76.226 Y89.671 E24.80381
G1 X69.671 Y96.226 E25.28813
G1 X69.073 Y96.226 E25.31936
G1 X76.226 Y89.073 E25.84784
G1 X75.927 Y88.774 E25.86992
G1 X68.475 Y96.226 E26.42048
G1 X67.878 Y96.226 E26.45170
G1 X75.329 Y88.774 E27.00226
G1 X74.732 Y88.774 E27.03349
G1 X67.280 Y96.226 E27.58405
G1 X66.682 Y96.226 E27.61527
G1 X74.134 Y88.774 E28.16583
G1 X73.536 Y88.774 E28.19705
G1 X63.774 Y98.536 E28.91834
G1 X63.774 Y99.134 E28.94956
G1 X66.226 Y96.682 E29.13069
G1 X66.226 Y97.280 E29.16192
G1 X63.774 Y99.732 E29.34305
G1 X63.774 Y100.329 E29.37427
G1 X66.226 Y97.878 E29.55541
G1 X66.226 Y98.475 E29.58663
G1 X63.774 Y100.927 E29.76776
G1 X64.073 Y101.226 E29.78984
G1 X66.226 Y99.073 E29.94890
G1 X66.226 Y99.671 E29.98012
G1 X64.671 Y101.226 E30.09502
G1 X65.268 Y101.226 E30.12624
G1 X66.226 Y100.268 E30.19698
G1 X66.226 Y100.866 E30.22821
G1 X65.866 Y101.226 E30.25479
G1 X63.774 Y97.939 F7800.000
G1 X72.939 Y88.774 E30.93192 F2449.182
G1 X72.341 Y88.774 E30.96314
G1 X63.774 Y97.341 E31.59611
G1 X63.774 Y96.743 E31.62733
G1 X71.743 Y88.774 E32.21614
G1 X71.226 Y88.694 E32.24351
G1 X63.774 Y96.146 E32.79407
G1 X63.774 Y95.548 E32.82529
G1 X71.226 Y88.097 E33.37585
G1 X71.226 Y87.499 E33.40708
G1 X63.774 Y94.951 E33.95764
G1 X63.774 Y94.353 E33.98886
G1 X71.226 Y86.901 E34.53942
G1 X71.226 Y86.304 E34.57065
G1 X63.774 Y93.755 E35.12121
G1 X63.774 Y93.158 E35.15243
G1 X71.226 Y85.706 E35.70299
G1 X71.226 Y85.108 E35.73422
G1 X63.774 Y92.560 E36.28478
G1 X63.774 Y91.962 E36.31600
G1 X71.226 Y84.511 E36.86656
G1 X71.226 Y83.913 E36.89778
G1 X63.774 Y91.365 E37.44835
G1 X63.774 Y90.767 E37.47957
G1 X70.767 Y83.774 E37.99624
G1 X70.169 Y83.774 E38.02746
G1 X63.774 Y90.169 E38.49997
G1 X63.774 Y89.572 E38.53120
G1 X69.572 Y83.774 E38.95955
G1 X68.974 Y83.774 E38.99077
G1 X63.774 Y88.974 E39.37497
G1 X63.774 Y88.376 E39.40619
G1 X68.376 Y83.774 E39.74623
G1 X67.779 Y83.774 E39.77746
G1 X63.774 Y87.779 E40.07334
G1 X63.774 Y87.181 E40.10456
G1 X67.181 Y83.774 E40.35629
G1 X66.584 Y83.774 E40.38751
G1 X63.774 Y86.584 E40.59508
G1 X63.774 Y85.986 E40.62631
G1 X66.226 Y83.534 E40.80744
G1 X66.226 Y82.937 E40.83866
G1 X63.774 Y85.388 E41.01980
G1 X63.774 Y84.791 E41.05102
G1 X66.226 Y82.339 E41.23215
G1 X66.226 Y81.741 E41.26338
G1 X63.774 Y84.193 E41.44451
G1 X63.774 Y83.595 E41.47574
G1 X66.226 Y81.144 E41.65687
G1 X66.226 Y80.546 E41.68809
G1 X63.774 Y82.998 E41.86923
G1 X63.774 Y82.400 E41.90045
G1 X66.226 Y79.949 E42.08158
G1 X66.226 Y79.351 E42.11281
G1 X63.774 Y81.802 E42.29394
G1 X63.774 Y81.205 E42.32516
G1 X66.195 Y78.784 E42.50405
G1 X65.607 Y78.774 E42.53478
G1 X63.774 Y80.607 E42.67020
G1 X63.774 Y80.010 E42.70143
G1 X65.010 Y78.774 E42.79270
G1 X64.412 Y78.774 E42.82392
G1 X63.774 Y79.412 E42.87103
G1 X63.774 Y78.814 E42.90226
G1 X63.814 Y78.774 E42.90521
G1 F1800.000 E41.90521
G92 E0
G1 Z0.950 F7800.000
G1 X81.500 Y98.500 F7800.000
G1 E1.00000 F1800.000
G1 X86.500 Y98.500 E1.24945 F1217.110
G1 X86.500 Y101.500 E1.39912
G1 X78.500 Y101.500 E1.79824
G1 X78.500 Y96.500 E2.04769
G1 X66.500 Y96.500 E2.64638
G1 X66.500 Y101.500 E2.89583
G1 X63.500 Y101.500 E3.04550
G1 X63.500 Y78.500 E4.19297
G1 X66.500 Y78.500 E4.34264
G1 X66.500 Y83.500 E4.59209
G1 X71.500 Y83.500 E4.84155
G1 X71.500 Y88.500 E5.09100
G1 X76.500 Y88.500 E5.34045
G1 X76.500 Y93.500 E5.58990
G1 X81.500 Y93.500 E5.83935
G1 X81.500 Y98.440 E6.08581
G1 X81.900 Y98.100 F7800.000
G1 X86.900 Y98.100 E6.33526 F1217.110
G1 X86.900 Y101.900 E6.52484
G1 X78.100 Y101.900 E6.96388
G1 X78.100 Y96.900 E7.21333
G1 X66.900 Y96.900 E7.77210
G1 X66.900 Y101.900 E8.02155
G1 X63.100 Y101.900 E8.21113
G1 X63.100 Y78.100 E9.39852
G1 X66.900 Y78.100 E9.58810
G1 X66.900 Y83.100 E9.83755
G1 X71.900 Y83.100 E10.08700
G1 X71.900 Y88.100 E10.33645
G1 X76.900 Y88.100 E10.58590
G1 X76.900 Y93.100 E10.83535
G1 X81.900 Y93.100 E11.08481
G1 X81.900 Y98.040 E11.33126
G1 X82.300 Y97.700 F7800.000
G1 X87.300 Y97.700 E11.58071 F851.977
G1 X87.300 Y102.300 E11.81021
G1 X77.700 Y102.300 E12.28916
G1 X77.700 Y97.300 E12.53861
G1 X67.300 Y97.300 E13.05746
G1 X67.300 Y102.300 E13.30692
G1 X62.700 Y102.300 E13.53641
G1 X62.700 Y77.700 E14.76371
G1 X67.300 Y77.700 E14.99320
G1 X67.300 Y82.700 E15.24266
G1 X72.300 Y82.700 E15.49211
G1 X72.300 Y87.700 E15.74156
G1 X77.300 Y87.700 E15.99101
G1 X77.300 Y92.700 E16.24046
G1 X82.300 Y92.700 E16.48991
G1 X82.300 Y97.640 E16.73637
G1 X82.300 Y98.100 F7800.000
G1 X81.948 Y98.774 F7800.000
G1 X84.399 Y101.226 E16.91750 F2434.220
G1 X85.005 Y101.226 E16.94913
G1 X82.553 Y98.774 E17.13027
G1 X83.159 Y98.774 E17.16190
G1 X85.610 Y101.226 E17.34303
G1 X86.201 Y101.211 E17.37389
G1 X83.764 Y98.774 E17.55393
G1 X84.369 Y98.774 E17.58556
G1 X86.226 Y100.631 E17.72271
G1 X86.226 Y100.025 E17.75435
G1 X84.975 Y98.774 E17.84677
G1 X85.580 Y98.774 E17.87840
G1 X86.226 Y99.420 E17.92609
G1 X86.226 Y98.814 E17.95772
G1 X86.186 Y98.774 E17.96067
G1 X81.226 Y98.052 F7800.000
G1 X76.948 Y93.774 E18.27676 F2434.220
G1 X77.553 Y93.774 E18.30839
G1 X81.226 Y97.447 E18.57975
G1 X81.226 Y96.841 E18.61138
G1 X78.159 Y93.774 E18.83800
G1 X78.764 Y93.774 E18.86963
G1 X81.226 Y96.236 E19.05152
G1 X81.226 Y95.631 E19.08315
G1 X79.369 Y93.774 E19.22031
G1 X79.975 Y93.774 E19.25194
G1 X81.226 Y95.025 E19.34436
G1 X81.226 Y94.420 E19.37599
G1 X80.580 Y93.774 E19.42368
G1 X81.186 Y93.774 E19.45531
G1 X81.226 Y93.814 E19.45827
G1 X78.188 Y96.226 F7800.000
G1 X63.774 Y81.812 E20.52326 F2434.220
G1 X63.774 Y82.417 E20.55489
G1 X77.583 Y96.226 E21.57515
G1 X76.977 Y96.226 E21.60679
G1 X63.774 Y83.023 E22.58231
G1 X63.774 Y83.628 E22.61394
G1 X76.372 Y96.226 E23.54474
G1 X75.767 Y96.226 E23.57637
G1 X63.774 Y84.233 E24.46243
G1 X63.774 Y84.839 E24.49406
G1 X75.161 Y96.226 E25.33539
G1 X74.556 Y96.226 E25.36702
G1 X63.774 Y85.444 E26.16361
G1 X63.774 Y86.050 E26.19524
G1 X73.950 Y96.226 E26.94710
G1 X73.345 Y96.226 E26.97874
G1 X63.774 Y86.655 E27.68586
G1 X63.774 Y87.261 E27.71749
G1 X72.739 Y96.226 E28.37989
G1 X72.134 Y96.226 E28.41152
G1 X63.774 Y87.866 E29.02918
G1 X63.774 Y88.472 E29.06081
G1 X71.528 Y96.226 E29.63374
G1 X70.923 Y96.226 E29.66537
G1 X63.774 Y89.077 E30.19356
G1 X63.774 Y89.682 E30.22519
G1 X70.318 Y96.226 E30.70866
G1 X69.712 Y96.226 E30.74029
G1 X63.774 Y90.288 E31.17901
G1 X63.774 Y90.893 E31.21065
G1 X69.107 Y96.226 E31.60464
G1 X68.501 Y96.226 E31.63627
G1 X63.774 Y91.499 E31.98553
G1 X63.774 Y92.104 E32.01716
G1 X67.896 Y96.226 E32.32169
G1 X67.290 Y96.226 E32.35332
G1 X63.774 Y92.710 E32.61312
G1 X63.774 Y93.315 E32.64475
G1 X66.685 Y96.226 E32.85981
G1 X66.226 Y96.372 E32.88499
G1 X63.774 Y93.920 E33.06612
G1 X63.774 Y94.526 E33.09775
G1 X66.226 Y96.977 E33.27888
G1 X66.226 Y97.583 E33.31052
G1 X63.774 Y95.131 E33.49165
G1 X63.774 Y95.737 E33.52328
G1 X66.226 Y98.188 E33.70441
G1 X66.226 Y98.794 E33.73604
G1 X63.774 Y96.342 E33.91718
G1 X63.774 Y96.948 E33.94881
G1 X66.226 Y99.399 E34.12994
G1 X66.226 Y100.005 E34.16157
G1 X63.774 Y97.553 E34.34271
G1 X63.774 Y98.159 E34.37434
G1 X66.226 Y100.610 E34.55547
G1 X66.226 Y101.216 E34.58710
G1 X63.774 Y98.764 E34.76824
G1 X63.774 Y99.369 E34.79987
G1 X65.631 Y101.226 E34.93702
G1 X65.025 Y101.226 E34.96866
G1 X63.774 Y99.975 E35.06108
G1 X63.774 Y100.580 E35.09271
G1 X64.420 Y101.226 E35.14040
G1 X63.814 Y101.226 E35.17203
G1 X63.774 Y101.186 E35.17498
G1 X71.948 Y88.774 F7800.000
G1 X76.226 Y93.052 E35.49107 F2434.220
G1 X76.226 Y92.447 E35.52270
G1 X72.553 Y88.774 E35.79406
G1 X73.159 Y88.774 E35.82569
