; generated by Slic3r 1.1.7 on 2014-12-13 at 01:37:48

; perimeters extrusion width = 0.40mm
; infill extrusion width = 0.67mm
; solid infill extrusion width = 0.67mm
; top infill extrusion width = 0.67mm

G21 ; set units to millimeters
M107
M104 S200 ; set temperature
G28; Home all axes
G29; Calibrate bed leveling (z-axis)
G91; Relative positioning
G1 X-160 Y160 Z15 F5000; Lift nozzle, return to origin
G90; Absolute positioning again
;G28 X ; Go to corner x
;G28 Y ; Go to corner y

M109 S200 ; wait for temperature to be reached
G90 ; use absolute coordinates
G92 E0
M82 ; use absolute distances for extrusion
G1 F1800.000 E-1.00000
G1 Z0.500 F7800.000
G92 E0
G1 X57.794 Y58.398 F7800.000
G1 Z0.200 F7800.000
G1 E1.00000 F1800.000
G1 X59.532 Y57.008 E1.04067 F900.000
G1 X62.500 Y56.257 E1.09661
G1 X67.500 Y56.257 E1.18796
G1 X69.690 Y56.654 E1.22863
G1 X71.914 Y58.086 E1.27696 F900.000
G1 X91.914 Y78.086 E1.79375
G1 X93.183 Y79.915 E1.83442
G1 X93.743 Y82.500 E1.88275
G1 X93.743 Y87.500 E1.97411
G1 X93.346 Y89.690 E2.01477
G1 X92.206 Y91.602 E2.05544
G1 X90.468 Y92.992 E2.09611
G1 X87.500 Y93.743 E2.15205
G1 X62.500 Y93.743 E2.60883
G1 X60.310 Y93.346 E2.64950
G1 X58.398 Y92.206 E2.69017
G1 X57.008 Y90.468 E2.73084
G1 X56.257 Y87.500 E2.78677
G1 X56.257 Y62.500 E3.24355
G1 X56.654 Y60.310 E3.28422
G1 X57.763 Y58.450 E3.32380
G1 F1800.000 E2.32380
G1 Z0.500 F7800.000
G92 E0
G1 X82.400 Y82.600 F7800.000
G1 Z0.200 F7800.000
G1 E1.00000 F1800.000
G1 X87.400 Y82.600 E1.09136 F315.000
G1 X87.400 Y87.400 E1.17906
G1 X77.600 Y87.400 E1.35812
G1 X77.600 Y82.400 E1.44947
G1 X67.400 Y82.400 E1.63584
G1 X67.400 Y87.400 E1.72720
G1 X62.600 Y87.400 E1.81490
G1 X62.600 Y62.600 E2.26803
G1 X67.400 Y62.600 E2.35573
G1 X67.400 Y67.600 E2.44708
G1 X72.400 Y67.600 E2.53844
G1 X72.400 Y72.600 E2.62980
G1 X77.400 Y72.600 E2.72115
G1 X77.400 Y77.600 E2.81251
G1 X82.400 Y77.600 E2.90386
G1 X82.400 Y82.540 E2.99412
G1 X82.204 Y77.756 F7800.000
G1 X82.244 Y77.796 E2.99516 F900.000
G1 X82.244 Y78.140 E3.00144
G1 X81.860 Y77.756 E3.01137
G1 X81.516 Y77.756 E3.01765
G1 X82.244 Y78.484 E3.03646
G1 X82.244 Y78.828 E3.04275
G1 X81.172 Y77.756 E3.07045
G1 X80.828 Y77.756 E3.07673
G1 X82.244 Y79.172 E3.11332
G1 X82.244 Y79.516 E3.11961
G1 X80.484 Y77.756 E3.16508
G1 X80.140 Y77.756 E3.17137
G1 X82.244 Y79.860 E3.22573
G1 X82.244 Y80.204 E3.23202
G1 X79.796 Y77.756 E3.29527
G1 X79.452 Y77.756 E3.30156
G1 X82.244 Y80.548 E3.37370
G1 X82.244 Y80.892 E3.37999
G1 X79.108 Y77.756 E3.46102
G1 X78.764 Y77.756 E3.46730
G1 X82.244 Y81.236 E3.55722
G1 X82.244 Y81.580 E3.56351
G1 X78.420 Y77.756 E3.66232
G1 X78.076 Y77.756 E3.66860
G1 X82.244 Y81.924 E3.77630
G1 X82.244 Y82.268 E3.78258
G1 X77.732 Y77.756 E3.89917
G1 X77.244 Y77.268 F7800.000
G1 X72.732 Y72.756 E4.01576 F900.000
G1 X73.076 Y72.756 E4.02204
G1 X77.244 Y76.924 E4.12974
G1 X77.244 Y76.580 E4.13602
G1 X73.420 Y72.756 E4.23483
G1 X73.764 Y72.756 E4.24112
G1 X77.244 Y76.236 E4.33104
G1 X77.244 Y75.892 E4.33732
G1 X74.108 Y72.756 E4.41836
G1 X74.452 Y72.756 E4.42464
G1 X77.244 Y75.548 E4.49678
G1 X77.244 Y75.204 E4.50307
G1 X74.796 Y72.756 E4.56632
G1 X75.140 Y72.756 E4.57261
G1 X77.244 Y74.860 E4.62697
G1 X77.244 Y74.516 E4.63326
G1 X75.484 Y72.756 E4.67874
G1 X75.828 Y72.756 E4.68502
G1 X77.244 Y74.172 E4.72161
G1 X77.244 Y73.828 E4.72789
G1 X76.172 Y72.756 E4.75559
G1 X76.516 Y72.756 E4.76188
G1 X77.244 Y73.484 E4.78069
G1 X77.244 Y73.140 E4.78698
G1 X76.860 Y72.756 E4.79690
G1 X77.204 Y72.756 E4.80318
G1 X77.244 Y72.796 E4.80422
G1 F1800.000 E3.80422
G1 Z0.500 F7800.000
G92 E0
G1 X72.244 Y72.268 F7800.000
G1 Z0.200 F7800.000
G1 E1.00000 F1800.000
G1 X67.732 Y67.756 E1.11659 F900.000
G1 X68.076 Y67.756 E1.12287
G1 X72.244 Y71.924 E1.23057
G1 X72.244 Y71.580 E1.23685
G1 X68.420 Y67.756 E1.33566
G1 X68.764 Y67.756 E1.34195
G1 X72.244 Y71.236 E1.43187
G1 X72.244 Y70.892 E1.43815
G1 X69.108 Y67.756 E1.51918
G1 X69.452 Y67.756 E1.52547
G1 X72.244 Y70.548 E1.59761
G1 X72.244 Y70.204 E1.60390
G1 X69.796 Y67.756 E1.66715
G1 X70.140 Y67.756 E1.67344
G1 X72.244 Y69.860 E1.72780
G1 X72.244 Y69.516 E1.73409
G1 X70.484 Y67.756 E1.77957
G1 X70.828 Y67.756 E1.78585
G1 X72.244 Y69.172 E1.82244
G1 X72.244 Y68.828 E1.82872
G1 X71.172 Y67.756 E1.85642
G1 X71.516 Y67.756 E1.86271
G1 X72.244 Y68.484 E1.88152
G1 X72.244 Y68.140 E1.88781
G1 X71.860 Y67.756 E1.89773
G1 X72.204 Y67.756 E1.90401
G1 X72.244 Y67.796 E1.90505
G1 F1800.000 E0.90505
G1 Z0.500 F7800.000
G92 E0
G1 X67.204 Y62.756 F7800.000
G1 Z0.200 F7800.000
G1 E1.00000 F1800.000
G1 X67.244 Y62.796 E1.00103 F900.000
G1 X67.244 Y63.140 E1.00732
G1 X66.860 Y62.756 E1.01724
G1 X66.516 Y62.756 E1.02353
G1 X67.244 Y63.484 E1.04234
G1 X67.244 Y63.828 E1.04862
G1 X66.172 Y62.756 E1.07632
G1 X65.828 Y62.756 E1.08261
G1 X67.244 Y64.172 E1.11920
G1 X67.244 Y64.516 E1.12548
G1 X65.484 Y62.756 E1.17096
G1 X65.140 Y62.756 E1.17724
G1 X67.244 Y64.860 E1.23161
G1 X67.244 Y65.204 E1.23789
G1 X64.796 Y62.756 E1.30115
G1 X64.452 Y62.756 E1.30743
G1 X67.244 Y65.548 E1.37958
G1 X67.244 Y65.892 E1.38586
G1 X64.108 Y62.756 E1.46689
G1 X63.764 Y62.756 E1.47318
G1 X67.244 Y66.236 E1.56310
G1 X67.244 Y66.580 E1.56938
G1 X63.420 Y62.756 E1.66819
G1 X63.076 Y62.756 E1.67448
G1 X67.244 Y66.924 E1.78217
G1 X67.244 Y67.268 E1.78846
G1 X62.764 Y62.788 E1.90422
G1 X62.756 Y63.124 E1.91036
G1 X86.876 Y87.244 E2.53360
G1 X87.212 Y87.236 E2.53974
G1 X82.732 Y82.756 E2.65550
G1 X83.076 Y82.756 E2.66178
G1 X87.244 Y86.924 E2.76948
G1 X87.244 Y86.580 E2.77577
G1 X83.420 Y82.756 E2.87457
G1 X83.764 Y82.756 E2.88086
G1 X87.244 Y86.236 E2.97078
G1 X87.244 Y85.892 E2.97707
G1 X84.108 Y82.756 E3.05810
G1 X84.452 Y82.756 E3.06438
G1 X87.244 Y85.548 E3.13653
G1 X87.244 Y85.204 E3.14281
G1 X84.796 Y82.756 E3.20606
G1 X85.140 Y82.756 E3.21235
G1 X87.244 Y84.860 E3.26672
G1 X87.244 Y84.516 E3.27300
G1 X85.484 Y82.756 E3.31848
G1 X85.828 Y82.756 E3.32476
G1 X87.244 Y84.172 E3.36135
G1 X87.244 Y83.828 E3.36764
G1 X86.172 Y82.756 E3.39534
G1 X86.516 Y82.756 E3.40162
G1 X87.244 Y83.484 E3.42043
G1 X87.244 Y83.140 E3.42672
G1 X86.860 Y82.756 E3.43664
G1 X87.204 Y82.756 E3.44292
G1 X87.244 Y82.796 E3.44396
G1 X86.532 Y87.244 F7800.000
G1 X62.756 Y63.468 E4.05831 F900.000
G1 X62.756 Y63.812 E4.06459
G1 X86.188 Y87.244 E4.67006
G1 X85.844 Y87.244 E4.67634
G1 X62.756 Y64.156 E5.27291
G1 X62.756 Y64.500 E5.27920
G1 X85.500 Y87.244 E5.86688
G1 X85.156 Y87.244 E5.87317
G1 X62.756 Y64.844 E6.45197
G1 X62.756 Y65.188 E6.45825
G1 X84.812 Y87.244 E7.02816
G1 X84.468 Y87.244 E7.03444
G1 X62.756 Y65.532 E7.59546
G1 X62.756 Y65.876 E7.60175
G1 X84.124 Y87.244 E8.15388
G1 X83.780 Y87.244 E8.16016
G1 X62.756 Y66.220 E8.70341
G1 X62.756 Y66.564 E8.70969
G1 X83.436 Y87.244 E9.24404
G1 X83.092 Y87.244 E9.25033
G1 X62.756 Y66.908 E9.77579
G1 X62.756 Y67.252 E9.78208
G1 X82.748 Y87.244 E10.29865
G1 X82.404 Y87.244 E10.30494
G1 X77.756 Y82.596 E10.42503
G1 X77.756 Y82.940 E10.43132
G1 X82.060 Y87.244 E10.54253
G1 X81.716 Y87.244 E10.54881
G1 X77.756 Y83.284 E10.65113
G1 X77.756 Y83.628 E10.65741
G1 X81.372 Y87.244 E10.75084
G1 X81.028 Y87.244 E10.75713
G1 X77.756 Y83.972 E10.84167
G1 X77.756 Y84.316 E10.84795
G1 X80.684 Y87.244 E10.92360
G1 X80.340 Y87.244 E10.92989
G1 X77.756 Y84.660 E10.99665
G1 X77.756 Y85.004 E11.00294
G1 X79.996 Y87.244 E11.06081
G1 X79.652 Y87.244 E11.06710
G1 X77.756 Y85.348 E11.11608
G1 X77.756 Y85.692 E11.12237
G1 X79.308 Y87.244 E11.16247
G1 X78.964 Y87.244 E11.16875
G1 X77.756 Y86.036 E11.19996
G1 X77.756 Y86.380 E11.20625
G1 X78.620 Y87.244 E11.22856
G1 X78.276 Y87.244 E11.23485
G1 X77.756 Y86.724 E11.24828
G1 X77.756 Y87.068 E11.25457
G1 X77.932 Y87.244 E11.25911
G1 F1800.000 E10.25911
G1 Z0.500 F7800.000
G92 E0
G1 X77.404 Y82.244 F7800.000
G1 Z0.200 F7800.000
G1 E1.00000 F1800.000
G1 X62.756 Y67.596 E1.37849 F900.000
G1 X62.756 Y67.940 E1.38477
G1 X77.060 Y82.244 E1.75438
G1 X76.716 Y82.244 E1.76066
G1 X62.756 Y68.284 E2.12137
G1 X62.756 Y68.628 E2.12766
G1 X76.372 Y82.244 E2.47948
G1 X76.028 Y82.244 E2.48577
G1 X62.756 Y68.972 E2.82870
G1 X62.756 Y69.316 E2.83499
G1 X75.684 Y82.244 E3.16903
G1 X75.340 Y82.244 E3.17532
G1 X62.756 Y69.660 E3.50048
G1 X62.756 Y70.004 E3.50676
G1 X74.996 Y82.244 E3.82303
G1 X74.652 Y82.244 E3.82932
G1 X62.756 Y70.348 E4.13670
G1 X62.756 Y70.692 E4.14298
G1 X74.308 Y82.244 E4.44147
G1 X73.964 Y82.244 E4.44776
G1 X62.756 Y71.036 E4.73736
G1 X62.756 Y71.380 E4.74365
G1 X73.620 Y82.244 E5.02436
G1 X73.276 Y82.244 E5.03065
G1 X62.756 Y71.724 E5.30247
G1 X62.756 Y72.068 E5.30876
G1 X72.932 Y82.244 E5.57169
G1 X72.588 Y82.244 E5.57798
G1 X62.756 Y72.412 E5.83203
G1 X62.756 Y72.756 E5.83831
G1 X72.244 Y82.244 E6.08347
G1 X71.900 Y82.244 E6.08976
G1 X62.756 Y73.100 E6.32603
G1 X62.756 Y73.444 E6.33232
G1 X71.556 Y82.244 E6.55970
G1 X71.212 Y82.244 E6.56598
G1 X62.756 Y73.788 E6.78448
G1 X62.756 Y74.132 E6.79076
G1 X70.868 Y82.244 E7.00037
G1 X70.524 Y82.244 E7.00665
G1 X62.756 Y74.476 E7.20737
G1 X62.756 Y74.820 E7.21365
G1 X70.180 Y82.244 E7.40548
G1 X69.836 Y82.244 E7.41177
G1 X62.756 Y75.164 E7.59471
G1 X62.756 Y75.508 E7.60099
G1 X69.492 Y82.244 E7.77504
G1 X69.148 Y82.244 E7.78133
G1 X62.756 Y75.852 E7.94649
G1 X62.756 Y76.196 E7.95277
G1 X68.804 Y82.244 E8.10905
G1 X68.460 Y82.244 E8.11533
G1 X62.756 Y76.540 E8.26272
G1 X62.756 Y76.884 E8.26900
G1 X68.116 Y82.244 E8.40750
G1 X67.772 Y82.244 E8.41378
G1 X62.756 Y77.228 E8.54339
G1 X62.756 Y77.572 E8.54968
G1 X67.428 Y82.244 E8.67040
G1 X67.244 Y82.404 E8.67485
G1 X62.756 Y77.916 E8.79081
G1 X62.756 Y78.260 E8.79710
G1 X67.244 Y82.748 E8.91306
G1 X67.244 Y83.092 E8.91935
G1 X62.756 Y78.604 E9.03531
G1 X62.756 Y78.948 E9.04159
G1 X67.244 Y83.436 E9.15756
G1 X67.244 Y83.780 E9.16384
G1 X62.756 Y79.292 E9.27980
G1 X62.756 Y79.636 E9.28609
G1 X67.244 Y84.124 E9.40205
G1 X67.244 Y84.468 E9.40834
G1 X62.756 Y79.980 E9.52430
G1 X62.756 Y80.324 E9.53058
G1 X67.244 Y84.812 E9.64655
G1 X67.244 Y85.156 E9.65283
G1 X62.756 Y80.668 E9.76879
G1 X62.756 Y81.012 E9.77508
G1 X67.244 Y85.500 E9.89104
G1 X67.244 Y85.844 E9.89733
G1 X62.756 Y81.356 E10.01329
G1 X62.756 Y81.700 E10.01958
G1 X67.244 Y86.188 E10.13554
G1 X67.244 Y86.532 E10.14182
G1 X62.756 Y82.044 E10.25779
G1 X62.756 Y82.388 E10.26407
G1 X67.244 Y86.876 E10.38003
G1 X67.244 Y87.220 E10.38632
G1 X62.756 Y82.732 E10.50228
G1 X62.756 Y83.076 E10.50857
G1 X66.924 Y87.244 E10.61626
G1 X66.580 Y87.244 E10.62255
G1 X62.756 Y83.420 E10.72136
G1 X62.756 Y83.764 E10.72764
G1 X66.236 Y87.244 E10.81756
G1 X65.892 Y87.244 E10.82385
G1 X62.756 Y84.108 E10.90488
G1 X62.756 Y84.452 E10.91116
G1 X65.548 Y87.244 E10.98331
G1 X65.204 Y87.244 E10.98959
G1 X62.756 Y84.796 E11.05285
G1 X62.756 Y85.140 E11.05913
G1 X64.860 Y87.244 E11.11350
G1 X64.516 Y87.244 E11.11978
G1 X62.756 Y85.484 E11.16526
G1 X62.756 Y85.828 E11.17154
G1 X64.172 Y87.244 E11.20813
G1 X63.828 Y87.244 E11.21442
G1 X62.756 Y86.172 E11.24212
G1 X62.756 Y86.516 E11.24840
G1 X63.484 Y87.244 E11.26721
G1 X63.140 Y87.244 E11.27350
G1 X62.756 Y86.860 E11.28342
G1 X62.756 Y87.204 E11.28971
G1 X62.796 Y87.244 E11.29074
M106 S255
M104 S195 ; set temperature
G1 F1800.000 E10.29074
G1 Z0.700 F7800.000
G92 E0
G1 X82.300 Y82.700 F7800.000
G1 Z0.400 F7800.000
G1 E1.00000 F1800.000
G1 X87.300 Y82.700 E1.15043 F600.000
G1 X87.300 Y87.300 E1.28883
G1 X77.700 Y87.300 E1.57765
G1 X77.700 Y82.300 E1.72808
G1 X67.300 Y82.300 E2.04098
G1 X67.300 Y87.300 E2.19141
G1 X62.700 Y87.300 E2.32980
G1 X62.700 Y62.700 E3.06992
G1 X67.300 Y62.700 E3.20831
G1 X67.300 Y67.700 E3.35874
G1 X72.300 Y67.700 E3.50917
G1 X72.300 Y72.700 E3.65960
G1 X77.300 Y72.700 E3.81003
G1 X77.300 Y77.700 E3.96046
G1 X82.300 Y77.700 E4.11089
G1 X82.300 Y82.640 E4.25952
G1 X86.979 Y86.939 F7800.000
G1 X86.939 Y86.979 E4.26219 F1561.395
G1 X86.036 Y86.979 E4.30484
G1 X86.979 Y86.036 E4.36784
G1 X86.979 Y85.134 E4.41049
G1 X85.134 Y86.979 E4.53381
G1 X84.231 Y86.979 E4.57646
G1 X86.979 Y84.231 E4.76009
G1 X86.979 Y83.328 E4.80275
G1 X83.328 Y86.979 E5.04670
G1 X82.426 Y86.979 E5.08936
G1 X86.383 Y83.021 E5.35384
G1 X85.481 Y83.021 E5.39649
G1 X81.523 Y86.979 E5.66098
G1 X80.621 Y86.979 E5.70363
G1 X84.578 Y83.021 E5.96811
G1 X83.676 Y83.021 E6.01076
G1 X79.718 Y86.979 E6.27525
G1 X78.816 Y86.979 E6.31790
G1 X82.773 Y83.021 E6.58238
G1 X81.979 Y82.913 E6.62027
G1 X78.021 Y86.871 E6.88476
G1 X78.021 Y85.968 E6.92741
G1 X81.979 Y82.011 E7.19189
G1 X81.979 Y81.108 E7.23455
G1 X78.021 Y85.065 E7.49903
G1 X78.021 Y84.163 E7.54168
G1 X81.979 Y80.206 E7.80617
G1 X81.979 Y79.303 E7.84882
G1 X78.021 Y83.260 E8.11330
G1 X78.021 Y82.358 E8.15596
G1 X81.979 Y78.401 E8.42044
G1 X81.455 Y78.021 E8.45098
G1 X77.498 Y81.979 E8.71547
G1 X76.595 Y81.979 E8.75812
G1 X80.553 Y78.021 E9.02260
G1 X79.650 Y78.021 E9.06526
G1 X75.693 Y81.979 E9.32974
G1 X74.790 Y81.979 E9.37239
G1 X78.748 Y78.021 E9.63687
G1 X77.845 Y78.021 E9.67953
G1 X73.888 Y81.979 E9.94401
G1 X72.985 Y81.979 E9.98666
G1 X76.979 Y77.985 E10.25356
G1 X76.979 Y77.083 E10.29621
G1 X72.083 Y81.979 E10.62342
G1 X71.180 Y81.979 E10.66607
G1 X76.979 Y76.180 E11.05361
G1 X76.979 Y75.278 E11.09626
G1 X70.278 Y81.979 E11.54411
G1 X69.375 Y81.979 E11.58677
G1 X76.979 Y74.375 E12.09494
G1 X76.979 Y73.473 E12.13759
G1 X68.473 Y81.979 E12.70609
G1 X67.570 Y81.979 E12.74874
G1 X76.527 Y73.021 E13.34739
G1 X75.625 Y73.021 E13.39005
G1 X63.021 Y85.625 E14.23239
G1 X63.021 Y86.527 E14.27505
G1 X66.979 Y82.570 E14.53953
G1 X66.979 Y83.473 E14.58218
G1 X63.473 Y86.979 E14.81651
G1 X64.375 Y86.979 E14.85916
G1 X66.979 Y84.375 E15.03316
G1 X66.979 Y85.278 E15.07581
G1 X65.278 Y86.979 E15.18950
G1 X66.180 Y86.979 E15.23215
G1 X66.979 Y86.180 E15.28551
G1 X63.021 Y84.722 F7800.000
G1 X74.722 Y73.021 E16.06753 F1561.395
G1 X73.820 Y73.021 E16.11019
G1 X63.021 Y83.820 E16.83189
G1 X63.021 Y82.917 E16.87455
G1 X72.917 Y73.021 E17.53593
G1 X72.015 Y73.021 E17.57858
G1 X63.021 Y82.015 E18.17964
G1 X63.021 Y81.112 E18.22230
G1 X71.979 Y72.155 E18.82095
G1 X71.979 Y71.252 E18.86361
G1 X63.021 Y80.210 E19.46226
G1 X63.021 Y79.307 E19.50491
G1 X71.979 Y70.350 E20.10357
G1 X71.979 Y69.447 E20.14622
G1 X63.021 Y78.405 E20.74488
G1 X63.021 Y77.502 E20.78753
G1 X71.979 Y68.545 E21.38618
G1 X71.599 Y68.021 E21.41673
G1 X63.021 Y76.599 E21.99004
G1 X63.021 Y75.697 E22.03269
G1 X70.697 Y68.021 E22.54568
G1 X69.794 Y68.021 E22.58833
G1 X63.021 Y74.794 E23.04100
G1 X63.021 Y73.892 E23.08366
G1 X68.892 Y68.021 E23.47600
G1 X67.989 Y68.021 E23.51866
G1 X63.021 Y72.989 E23.85069
G1 X63.021 Y72.087 E23.89334
G1 X67.087 Y68.021 E24.16505
G1 X66.979 Y67.227 E24.20294
G1 X63.021 Y71.184 E24.46742
G1 X63.021 Y70.282 E24.51007
G1 X66.979 Y66.324 E24.77456
G1 X66.979 Y65.422 E24.81721
G1 X63.021 Y69.379 E25.08169
G1 X63.021 Y68.477 E25.12435
G1 X66.979 Y64.519 E25.38883
G1 X66.979 Y63.617 E25.43148
G1 X63.021 Y67.574 E25.69597
G1 X63.021 Y66.672 E25.73862
G1 X66.672 Y63.021 E25.98257
G1 X65.769 Y63.021 E26.02523
G1 X63.021 Y65.769 E26.20886
G1 X63.021 Y64.866 E26.25152
G1 X64.866 Y63.021 E26.37483
G1 X63.964 Y63.021 E26.41748
G1 X63.021 Y63.964 E26.48048
G1 X63.021 Y63.061 E26.52313
G1 X63.061 Y63.021 E26.52580
G1 F1800.000 E25.52580
G1 Z0.900 F7800.000
G92 E0
G1 X82.300 Y82.700 F7800.000
G1 Z0.600 F7800.000
G1 E1.00000 F1800.000
G1 X87.300 Y82.700 E1.15043 F600.000
G1 X87.300 Y87.300 E1.28883
G1 X77.700 Y87.300 E1.57765
G1 X77.700 Y82.300 E1.72808
G1 X67.300 Y82.300 E2.04098
G1 X67.300 Y87.300 E2.19141
G1 X62.700 Y87.300 E2.32980
G1 X62.700 Y62.700 E3.06992
G1 X67.300 Y62.700 E3.20831
G1 X67.300 Y67.700 E3.35874
G1 X72.300 Y67.700 E3.50917
G1 X72.300 Y72.700 E3.65960
G1 X77.300 Y72.700 E3.81003
G1 X77.300 Y77.700 E3.96046
G1 X82.300 Y77.700 E4.11089
G1 X82.300 Y82.640 E4.25952
G1 X82.000 Y83.041 F7800.000
G1 X84.964 Y83.041 E4.39959 F1072.895
G1 X85.193 Y83.897 E4.44144
G1 X86.959 Y84.370 E4.52783
G1 X86.959 Y85.020 E4.55857
G1 X85.030 Y84.504 E4.65292
G1 X84.261 Y85.273 E4.70435
G1 X82.158 Y84.710 E4.80721
G1 X81.877 Y83.659 E4.85864
G1 X79.774 Y83.095 E4.96151
G1 X79.005 Y83.865 E5.01294
G1 X78.041 Y83.607 E5.06008
G1 X78.041 Y84.257 F7800.000
