; generated by Slic3r 1.1.7 on 2015-01-31 at 03:24:33

; perimeters extrusion width = 0.60mm
; infill extrusion width = 1.46mm
; solid infill extrusion width = 1.02mm
; top infill extrusion width = 1.02mm
; support material extrusion width = 0.60mm

G21 ; set units to millimeters
M107
M190 S40 ; wait for bed temperature to be reached
M104 S195 ; set temperature
G28 ; home all axes
G29 ;
G1 Z5 F5000 ; lift nozzle

M109 S195 ; wait for temperature to be reached
G90 ; use absolute coordinates
G92 E0
M82 ; use absolute distances for extrusion
G1 F1800.000 E-1.00000
G92 E0
G1 Z0.300 F7800.000
G1 X56.280 Y57.526 F7800.000
G1 E1.00000 F1800.000
G1 X56.904 Y56.280 E1.10427 F876.232
G1 X58.247 Y56.280 E1.20472
G1 X56.280 Y60.204 E1.53317
G1 X56.280 Y62.882 E1.73359
G1 X59.589 Y56.280 E2.28622
G1 X60.931 Y56.280 E2.38667
G1 X56.280 Y65.560 E3.16349
G1 X56.280 Y68.238 E3.36391
G1 X62.273 Y56.280 E4.36491
G1 X63.616 Y56.280 E4.46536
G1 X56.280 Y70.916 E5.69054
G1 X56.280 Y73.594 E5.89096
G1 X63.720 Y58.750 E7.13356
G1 X63.794 Y61.280 E7.32296
G1 X56.280 Y76.273 E8.57797
G1 X56.280 Y78.951 E8.77839
G1 X65.137 Y61.280 E10.25758
G1 X66.479 Y61.280 E10.35803
G1 X56.280 Y81.629 E12.06140
G1 X56.574 Y83.720 E12.21943
G1 X67.821 Y61.280 E14.09786
G1 X68.720 Y62.165 E14.19224
G1 X57.916 Y83.720 E15.99660
G1 X59.259 Y83.720 E16.09705
G1 X68.720 Y64.843 E17.67723
G1 X69.342 Y66.280 F7800.000
G1 X60.601 Y83.720 E19.13711 F876.232
G1 X61.943 Y83.720 E19.23756
G1 X63.720 Y80.175 E19.53430
G1 X64.449 Y78.720 F7800.000
G1 X70.684 Y66.280 E20.57563 F876.232
G1 X72.027 Y66.280 E20.67608
G1 X65.792 Y78.720 E21.71742
G1 X67.134 Y78.720 E21.81787
G1 X73.369 Y66.280 E22.85921
G1 X73.720 Y68.258 E23.00951
G1 X68.476 Y78.720 E23.88531
G1 X69.818 Y78.720 E23.98576
G1 X73.720 Y70.936 E24.63738
G1 X74.890 Y71.280 E24.72863
G1 X71.161 Y78.720 E25.35142
G1 X71.280 Y81.160 E25.53425
G1 X76.232 Y71.280 E26.36131
G1 X77.574 Y71.280 E26.46176
G1 X71.339 Y83.720 E27.50310
G1 X72.682 Y83.720 E27.60355
G1 X78.720 Y71.672 E28.61206
G1 X78.720 Y74.350 E28.81248
G1 X74.024 Y83.720 E29.59680
G1 X75.366 Y83.720 E29.69725
G1 X79.095 Y76.280 E30.32004
G1 X80.437 Y76.280 E30.42049
G1 X76.708 Y83.720 E31.04328
G1 X78.051 Y83.720 E31.14374
G1 X81.780 Y76.280 E31.76653
G1 X83.122 Y76.280 E31.86698
G1 X79.393 Y83.720 E32.48977
G1 X80.735 Y83.720 E32.59022
G1 X83.720 Y77.765 E33.08871
G1 X83.720 Y80.443 E33.28913
G1 X82.078 Y83.720 E33.56343
G1 X83.420 Y83.720 E33.66388
G1 X83.720 Y83.121 E33.71400
G1 F1800.000 E32.71400
G92 E0
G1 X63.720 Y82.853 F7800.000
G1 E1.00000 F1800.000
G1 X63.286 Y83.720 E1.07255 F876.232
M104 S190 ; set temperature
M140 S35 ; set bed temperature
G1 F1800.000 E0.07255
G92 E0
G1 Z0.500 F7800.000
G1 X58.835 Y81.180 F7800.000
G1 E1.00000 F1800.000
G1 X57.392 Y78.680 E1.14402 F676.179
G1 X56.900 Y78.680 E1.16857
G1 X56.900 Y83.100 E1.38910
G1 X58.073 Y83.100 E1.44762
G1 X58.835 Y81.780 E1.52369
G1 X62.761 Y81.780 E1.71956
G1 X63.100 Y82.366 E1.75335
G1 X63.100 Y80.593 E1.84181
G1 X62.761 Y81.180 E1.87560
G1 X58.835 Y81.180 E2.07147
G1 X58.835 Y74.980 F7800.000
G1 X57.392 Y72.480 E2.21549 F676.179
G1 X56.900 Y72.480 E2.24004
G1 X56.900 Y78.080 E2.51942
G1 X57.392 Y78.080 E2.54397
G1 X58.835 Y75.580 E2.68799
G1 X62.761 Y75.580 E2.88386
G1 X64.205 Y78.080 E3.02788
G1 X68.131 Y78.080 E3.22374
G1 X69.574 Y75.580 E3.36776
G1 X73.500 Y75.580 E3.56363
G1 X74.943 Y78.080 E3.70765
G1 X78.869 Y78.080 E3.90352
G1 X79.550 Y76.900 E3.97147
G1 X78.100 Y76.900 E4.04384
G1 X78.100 Y72.480 E4.26437
G1 X74.943 Y72.480 E4.42186
G1 X73.500 Y74.980 E4.56588
G1 X69.574 Y74.980 E4.76174
G1 X68.131 Y72.480 E4.90576
G1 X64.205 Y72.480 E5.10163
G1 X62.761 Y74.980 E5.24565
G1 X58.835 Y74.980 E5.44152
G1 X58.835 Y68.780 F7800.000
G1 X57.392 Y66.280 E5.58554 F676.179
G1 X56.900 Y66.280 E5.61009
G1 X56.900 Y71.880 E5.88947
G1 X57.392 Y71.880 E5.91402
G1 X58.835 Y69.380 E6.05804
G1 X62.761 Y69.380 E6.25391
G1 X64.205 Y71.880 E6.39793
G1 X68.131 Y71.880 E6.59380
G1 X69.574 Y69.380 E6.73782
G1 X73.100 Y69.380 E6.91372
G1 X73.100 Y68.780 E6.94366
G1 X69.574 Y68.780 E7.11957
G1 X68.489 Y66.900 E7.22785
G1 X68.100 Y66.900 E7.24725
G1 X68.100 Y66.280 E7.27820
G1 X64.205 Y66.280 E7.47254
G1 X62.761 Y68.780 E7.61656
G1 X58.835 Y68.780 E7.81243
G1 X58.835 Y62.580 F7800.000
G1 X57.392 Y60.080 E7.95645 F676.179
G1 X56.900 Y60.080 E7.98099
G1 X56.900 Y65.680 E8.26038
G1 X57.392 Y65.680 E8.28492
G1 X58.835 Y63.180 E8.42894
G1 X62.761 Y63.180 E8.62481
G1 X64.205 Y65.680 E8.76883
G1 X68.100 Y65.680 E8.96317
G1 X68.100 Y61.900 E9.15173
G1 X63.154 Y61.900 E9.39851
G1 X62.761 Y62.580 E9.43765
G1 X58.835 Y62.580 E9.63352
G1 X63.700 Y61.300 F7800.000
G1 X63.700 Y56.300 E9.88297 F676.179
G1 X56.300 Y56.300 E10.25216
G1 X56.300 Y83.700 E11.61915
G1 X63.700 Y83.700 E11.98834
G1 X63.700 Y78.700 E12.23779
G1 X71.300 Y78.700 E12.61696
G1 X71.300 Y83.700 E12.86641
G1 X83.700 Y83.700 E13.48505
G1 X83.700 Y76.300 E13.85423
G1 X78.700 Y76.300 E14.10368
G1 X78.700 Y71.300 E14.35314
G1 X73.700 Y71.300 E14.60259
G1 X73.700 Y66.300 E14.85204
G1 X68.700 Y66.300 E15.10149
G1 X68.700 Y61.300 E15.35094
G1 X63.700 Y61.300 E15.60039
G1 X63.100 Y57.566 F7800.000
G1 X63.100 Y56.900 E15.63362 F676.179
G1 X56.900 Y56.900 E15.94294
G1 X56.900 Y59.480 E16.07164
G1 X57.392 Y59.480 E16.09619
G1 X58.835 Y56.980 E16.24021
G1 X62.761 Y56.980 E16.43607
G1 X63.100 Y57.566 E16.46986
G1 F1800.000 E15.46986
G92 E0
G1 X80.313 Y81.180 F7800.000
G1 E1.00000 F1800.000
G1 X78.869 Y78.680 E1.14402 F676.179
G1 X74.943 Y78.680 E1.33989
G1 X73.500 Y81.180 E1.48391
G1 X71.900 Y81.180 E1.56374
G1 X71.900 Y81.780 E1.59367
G1 X73.500 Y81.780 E1.67350
G1 X74.262 Y83.100 E1.74957
G1 X79.550 Y83.100 E2.01339
G1 X80.313 Y81.780 E2.08945
G1 X83.100 Y81.780 E2.22851
G1 X83.100 Y81.180 E2.25844
G1 X80.313 Y81.180 E2.39750
G1 F1800.000 E1.39750
G92 E0
G1 Z0.700 F7800.000
G1 E1.00000 F1800.000
G1 X83.100 Y81.180 E1.13905 F676.179
G1 X83.100 Y81.780 E1.16899
G1 X80.313 Y81.780 E1.30804
G1 X79.550 Y83.100 E1.38411
G1 X74.262 Y83.100 E1.64793
G1 X73.500 Y81.780 E1.72400
G1 X71.900 Y81.780 E1.80383
G1 X71.900 Y81.180 E1.83376
G1 X73.500 Y81.180 E1.91359
G1 X74.943 Y78.680 E2.05761
G1 X78.869 Y78.680 E2.25348
G1 X80.313 Y81.180 E2.39750
G1 F1800.000 E1.39750
G92 E0
G1 X58.835 Y81.180 F7800.000
G1 E1.00000 F1800.000
G1 X57.392 Y78.680 E1.14402 F676.179
G1 X56.900 Y78.680 E1.16857
G1 X56.900 Y83.100 E1.38910
G1 X58.073 Y83.100 E1.44762
G1 X58.835 Y81.780 E1.52369
G1 X62.761 Y81.780 E1.71956
G1 X63.100 Y82.366 E1.75335
G1 X63.100 Y80.593 E1.84181
G1 X62.761 Y81.180 E1.87560
G1 X58.835 Y81.180 E2.07147
G1 X58.835 Y74.980 F7800.000
G1 X57.392 Y72.480 E2.21549 F676.179
G1 X56.900 Y72.480 E2.24004
G1 X56.900 Y78.080 E2.51942
G1 X57.392 Y78.080 E2.54397
G1 X58.835 Y75.580 E2.68799
G1 X62.761 Y75.580 E2.88386
G1 X64.205 Y78.080 E3.02788
G1 X68.131 Y78.080 E3.22374
G1 X69.574 Y75.580 E3.36776
G1 X73.500 Y75.580 E3.56363
G1 X74.943 Y78.080 E3.70765
G1 X78.869 Y78.080 E3.90352
G1 X79.550 Y76.900 E3.97147
G1 X78.100 Y76.900 E4.04384
G1 X78.100 Y72.480 E4.26437
G1 X74.943 Y72.480 E4.42186
G1 X73.500 Y74.980 E4.56588
G1 X69.574 Y74.980 E4.76174
G1 X68.131 Y72.480 E4.90576
G1 X64.205 Y72.480 E5.10163
G1 X62.761 Y74.980 E5.24565
G1 X58.835 Y74.980 E5.44152
G1 X58.835 Y68.780 F7800.000
G1 X57.392 Y66.280 E5.58554 F676.179
G1 X56.900 Y66.280 E5.61009
G1 X56.900 Y71.880 E5.88947
G1 X57.392 Y71.880 E5.91402
G1 X58.835 Y69.380 E6.05804
G1 X62.761 Y69.380 E6.25391
G1 X64.205 Y71.880 E6.39793
G1 X68.131 Y71.880 E6.59380
G1 X69.574 Y69.380 E6.73782
G1 X73.100 Y69.380 E6.91372
G1 X73.100 Y68.780 E6.94366
G1 X69.574 Y68.780 E7.11957
G1 X68.489 Y66.900 E7.22785
G1 X68.100 Y66.900 E7.24725
G1 X68.100 Y66.280 E7.27820
G1 X64.205 Y66.280 E7.47254
G1 X62.761 Y68.780 E7.61656
G1 X58.835 Y68.780 E7.81243
G1 X58.835 Y62.580 F7800.000
G1 X57.392 Y60.080 E7.95645 F676.179
G1 X56.900 Y60.080 E7.98099
G1 X56.900 Y65.680 E8.26038
G1 X57.392 Y65.680 E8.28492
G1 X58.835 Y63.180 E8.42894
G1 X62.761 Y63.180 E8.62481
G1 X64.205 Y65.680 E8.76883
G1 X68.100 Y65.680 E8.96317
G1 X68.100 Y61.900 E9.15173
G1 X63.154 Y61.900 E9.39851
G1 X62.761 Y62.580 E9.43765
G1 X58.835 Y62.580 E9.63352
G1 X63.700 Y61.300 F7800.000
G1 X63.700 Y56.300 E9.88297 F676.179
G1 X56.300 Y56.300 E10.25216
G1 X56.300 Y83.700 E11.61915
G1 X63.700 Y83.700 E11.98834
G1 X63.700 Y78.700 E12.23779
G1 X71.300 Y78.700 E12.61696
G1 X71.300 Y83.700 E12.86641
G1 X83.700 Y83.700 E13.48505
G1 X83.700 Y76.300 E13.85423
G1 X78.700 Y76.300 E14.10368
G1 X78.700 Y71.300 E14.35314
G1 X73.700 Y71.300 E14.60259
G1 X73.700 Y66.300 E14.85204
G1 X68.700 Y66.300 E15.10149
G1 X68.700 Y61.300 E15.35094
G1 X63.700 Y61.300 E15.60039
G1 X63.100 Y57.566 F7800.000
G1 X63.100 Y56.900 E15.63362 F676.179
G1 X56.900 Y56.900 E15.94294
G1 X56.900 Y59.480 E16.07164
G1 X57.392 Y59.480 E16.09619
G1 X58.835 Y56.980 E16.24021
G1 X62.761 Y56.980 E16.43607
G1 X63.100 Y57.566 E16.46986
G1 F1800.000 E15.46986
G92 E0
G1 Z0.900 F7800.000
G1 E1.00000 F1800.000
G1 X62.761 Y56.980 E1.03379 F676.179
G1 X58.835 Y56.980 E1.22966
G1 X57.392 Y59.480 E1.37368
G1 X56.900 Y59.480 E1.39822
G1 X56.900 Y56.900 E1.52692
G1 X63.100 Y56.900 E1.83624
G1 X63.100 Y57.566 E1.86947
G1 X63.700 Y61.300 F7800.000
G1 X63.700 Y56.300 E2.11892 F676.179
G1 X56.300 Y56.300 E2.48811
G1 X56.300 Y83.700 E3.85510
G1 X63.700 Y83.700 E4.22429
G1 X63.700 Y78.700 E4.47374
G1 X71.300 Y78.700 E4.85291
G1 X71.300 Y83.700 E5.10236
G1 X83.700 Y83.700 E5.72100
G1 X83.700 Y76.300 E6.09018
G1 X78.700 Y76.300 E6.33964
G1 X78.700 Y71.300 E6.58909
G1 X73.700 Y71.300 E6.83854
G1 X73.700 Y66.300 E7.08799
G1 X68.700 Y66.300 E7.33744
G1 X68.700 Y61.300 E7.58689
G1 X63.700 Y61.300 E7.83634
G1 X58.835 Y62.580 F7800.000
G1 X57.392 Y60.080 E7.98036 F676.179
G1 X56.900 Y60.080 E8.00491
G1 X56.900 Y65.680 E8.28429
G1 X57.392 Y65.680 E8.30884
G1 X58.835 Y63.180 E8.45286
G1 X62.761 Y63.180 E8.64873
G1 X64.205 Y65.680 E8.79275
G1 X68.100 Y65.680 E8.98708
G1 X68.100 Y61.900 E9.17565
G1 X63.154 Y61.900 E9.42242
G1 X62.761 Y62.580 E9.46157
G1 X58.835 Y62.580 E9.65744
G1 X58.835 Y68.780 F7800.000
G1 X57.392 Y66.280 E9.80146 F676.179
G1 X56.900 Y66.280 E9.82600
G1 X56.900 Y71.880 E10.10539
G1 X57.392 Y71.880 E10.12993
G1 X58.835 Y69.380 E10.27395
G1 X62.761 Y69.380 E10.46982
G1 X64.205 Y71.880 E10.61384
G1 X68.131 Y71.880 E10.80971
G1 X69.574 Y69.380 E10.95373
G1 X73.100 Y69.380 E11.12964
G1 X73.100 Y68.780 E11.15958
G1 X69.574 Y68.780 E11.33548
G1 X68.489 Y66.900 E11.44376
G1 X68.100 Y66.900 E11.46317
G1 X68.100 Y66.280 E11.49412
G1 X64.205 Y66.280 E11.68845
G1 X62.761 Y68.780 E11.83248
G1 X58.835 Y68.780 E12.02834
G1 X58.835 Y74.980 F7800.000
G1 X57.392 Y72.480 E12.17236 F676.179
G1 X56.900 Y72.480 E12.19691
G1 X56.900 Y78.080 E12.47629
G1 X57.392 Y78.080 E12.50084
G1 X58.835 Y75.580 E12.64486
G1 X62.761 Y75.580 E12.84073
G1 X64.205 Y78.080 E12.98475
G1 X68.131 Y78.080 E13.18062
G1 X69.574 Y75.580 E13.32464
G1 X73.500 Y75.580 E13.52051
G1 X74.943 Y78.080 E13.66453
G1 X78.869 Y78.080 E13.86039
G1 X79.550 Y76.900 E13.92835
G1 X78.100 Y76.900 E14.00071
G1 X78.100 Y72.480 E14.22125
G1 X74.943 Y72.480 E14.37873
G1 X73.500 Y74.980 E14.52275
G1 X69.574 Y74.980 E14.71862
G1 X68.131 Y72.480 E14.86264
G1 X64.205 Y72.480 E15.05851
G1 X62.761 Y74.980 E15.20253
G1 X58.835 Y74.980 E15.39839
G1 X58.835 Y81.180 F7800.000
G1 X57.392 Y78.680 E15.54242 F676.179
G1 X56.900 Y78.680 E15.56696
G1 X56.900 Y83.100 E15.78750
G1 X58.073 Y83.100 E15.84602
G1 X58.835 Y81.780 E15.92209
G1 X62.761 Y81.780 E16.11795
G1 X63.100 Y82.366 E16.15174
G1 X63.100 Y80.593 E16.24021
G1 X62.761 Y81.180 E16.27400
G1 X58.835 Y81.180 E16.46986
G1 F1800.000 E15.46986
G92 E0
G1 X80.313 Y81.180 F7800.000
G1 E1.00000 F1800.000
G1 X78.869 Y78.680 E1.14402 F676.179
G1 X74.943 Y78.680 E1.33989
G1 X73.500 Y81.180 E1.48391
G1 X71.900 Y81.180 E1.56374
G1 X71.900 Y81.780 E1.59367
G1 X73.500 Y81.780 E1.67350
G1 X74.262 Y83.100 E1.74957
G1 X79.550 Y83.100 E2.01339
G1 X80.313 Y81.780 E2.08945
G1 X83.100 Y81.780 E2.22851
G1 X83.100 Y81.180 E2.25844
G1 X80.313 Y81.180 E2.39750
M106 S255
G1 F1800.000 E1.39750
G92 E0
G1 Z1.100 F7800.000
G1 E1.00000 F1800.000
G1 X83.100 Y81.180 E1.13905 F676.179
G1 X83.100 Y81.780 E1.16899
G1 X80.313 Y81.780 E1.30804
G1 X79.550 Y83.100 E1.38411
G1 X74.262 Y83.100 E1.64793
G1 X73.500 Y81.780 E1.72400
G1 X71.900 Y81.780 E1.80383
G1 X71.900 Y81.180 E1.83376
G1 X73.500 Y81.180 E1.91359
G1 X74.943 Y78.680 E2.05761
G1 X78.869 Y78.680 E2.25348
G1 X80.313 Y81.180 E2.39750
G1 F1800.000 E1.39750
G92 E0
G1 X58.835 Y81.180 F7800.000
G1 E1.00000 F1800.000
G1 X57.392 Y78.680 E1.14402 F676.179
G1 X56.900 Y78.680 E1.16857
G1 X56.900 Y83.100 E1.38910
G1 X58.073 Y83.100 E1.44762
G1 X58.835 Y81.780 E1.52369
G1 X62.761 Y81.780 E1.71956
G1 X63.100 Y82.366 E1.75335
G1 X63.100 Y80.593 E1.84181
G1 X62.761 Y81.180 E1.87560
G1 X58.835 Y81.180 E2.07147
G1 X58.835 Y74.980 F7800.000
G1 X57.392 Y72.480 E2.21549 F676.179
G1 X56.900 Y72.480 E2.24004
G1 X56.900 Y78.080 E2.51942
G1 X57.392 Y78.080 E2.54397
G1 X58.835 Y75.580 E2.68799
G1 X62.761 Y75.580 E2.88386
G1 X64.205 Y78.080 E3.02788
G1 X68.131 Y78.080 E3.22374
G1 X69.574 Y75.580 E3.36776
G1 X73.500 Y75.580 E3.56363
G1 X74.943 Y78.080 E3.70765
G1 X78.869 Y78.080 E3.90352
G1 X79.550 Y76.900 E3.97147
G1 X78.100 Y76.900 E4.04384
G1 X78.100 Y72.480 E4.26437
G1 X74.943 Y72.480 E4.42186
G1 X73.500 Y74.980 E4.56588
G1 X69.574 Y74.980 E4.76174
G1 X68.131 Y72.480 E4.90576
G1 X64.205 Y72.480 E5.10163
G1 X62.761 Y74.980 E5.24565
G1 X58.835 Y74.980 E5.44152
G1 X58.835 Y68.780 F7800.000
G1 X57.392 Y66.280 E5.58554 F676.179
G1 X56.900 Y66.280 E5.61009
G1 X56.900 Y71.880 E5.88947
G1 X57.392 Y71.880 E5.91402
G1 X58.835 Y69.380 E6.05804
G1 X62.761 Y69.380 E6.25391
G1 X64.205 Y71.880 E6.39793
G1 X68.131 Y71.880 E6.59380
G1 X69.574 Y69.380 E6.73782
G1 X73.100 Y69.380 E6.91372
G1 X73.100 Y68.780 E6.94366
G1 X69.574 Y68.780 E7.11957
G1 X68.489 Y66.900 E7.22785
G1 X68.100 Y66.900 E7.24725
G1 X68.100 Y66.280 E7.27820
G1 X64.205 Y66.280 E7.47254
G1 X62.761 Y68.780 E7.61656
G1 X58.835 Y68.780 E7.81243
G1 X58.835 Y62.580 F7800.000
G1 X57.392 Y60.080 E7.95645 F676.179
G1 X56.900 Y60.080 E7.98099
G1 X56.900 Y65.680 E8.26038
G1 X57.392 Y65.680 E8.28492
G1 X58.835 Y63.180 E8.42894
G1 X62.761 Y63.180 E8.62481
G1 X64.205 Y65.680 E8.76883
G1 X68.100 Y65.680 E8.96317
G1 X68.100 Y61.900 E9.15173
G1 X63.154 Y61.900 E9.39851
G1 X62.761 Y62.580 E9.43765
G1 X58.835 Y62.580 E9.63352
G1 X63.700 Y61.300 F7800.000
G1 X63.700 Y56.300 E9.88297 F676.179
G1 X56.300 Y56.300 E10.25216
G1 X56.300 Y83.700 E11.61915
G1 X63.700 Y83.700 E11.98834
G1 X63.700 Y78.700 E12.23779
G1 X71.300 Y78.700 E12.61696
G1 X71.300 Y83.700 E12.86641
G1 X83.700 Y83.700 E13.48505
G1 X83.700 Y76.300 E13.85423
G1 X78.700 Y76.300 E14.10368
G1 X78.700 Y71.300 E14.35314
G1 X73.700 Y71.300 E14.60259
G1 X73.700 Y66.300 E14.85204
G1 X68.700 Y66.300 E15.10149
G1 X68.700 Y61.300 E15.35094
G1 X63.700 Y61.300 E15.60039
G1 X63.100 Y57.566 F7800.000
G1 X63.100 Y56.900 E15.63362 F676.179
G1 X56.900 Y56.900 E15.94294
G1 X56.900 Y59.480 E16.07164
G1 X57.392 Y59.480 E16.09619
G1 X58.835 Y56.980 E16.24021
G1 X62.761 Y56.980 E16.43607
G1 X63.100 Y57.566 E16.46986
G1 F1800.000 E15.46986
G92 E0
G1 Z1.300 F7800.000
G1 X56.520 Y56.490 F7800.000
G1 E1.00000 F1800.000
G1 X56.490 Y56.550 E1.00545 F1008.257
G1 X56.490 Y58.734 E1.18318
G1 X57.615 Y56.490 E1.38743
G1 X58.709 Y56.490 E1.47651
G1 X56.490 Y60.918 E1.87956
G1 X56.490 Y63.102 E2.05729
G1 X59.804 Y56.490 E2.65914
G1 X60.899 Y56.490 E2.74822
G1 X56.490 Y65.286 E3.54887
G1 X56.490 Y67.470 E3.72659
G1 X61.993 Y56.490 E4.72605
G1 X63.088 Y56.490 E4.81512
G1 X56.490 Y69.654 E6.01338
G1 X56.490 Y71.838 E6.19110
G1 X63.510 Y57.832 E7.46602
G1 X63.510 Y60.016 E7.64375
G1 X56.490 Y74.022 E8.91867
G1 X56.490 Y76.207 E9.09640
G1 X63.866 Y61.490 E10.43594
G1 X64.961 Y61.490 E10.52501
G1 X56.490 Y78.391 E12.06335
G1 X56.490 Y80.575 E12.24108
G1 X66.055 Y61.490 E13.97822
G1 X67.150 Y61.490 E14.06730
G1 X56.490 Y82.759 E16.00324
G1 X57.208 Y83.510 E16.08781
G1 X68.245 Y61.490 E18.09214
