; generated by Slic3r 1.1.7 on 2014-11-30 at 16:13:30

; perimeters extrusion width = 0.40mm
; infill extrusion width = 0.42mm
; solid infill extrusion width = 0.42mm
; top infill extrusion width = 0.42mm
; support material extrusion width = 0.40mm

G21 ; set units to millimeters
M107
M104 S210 ; set temperature
G28 ; home all axes
G1 Z5 F5000 ; lift nozzle

M109 S210 ; wait for temperature to be reached
G90 ; use absolute coordinates
G92 E0
M82 ; use absolute distances for extrusion
G1 F1800.000 E-1.00000
G92 E0
G1 Z0.400 F7800.000
M104 S205 ; set temperature
G1 Z1.000 F7800.000
G1 X5.415 Y14.638 F7800.000
G1 E1.00000 F1800.000
G1 X144.585 Y14.638 E10.36434 F1260.000
G1 X142.045 Y19.038 E10.70620
G1 X80.138 Y126.263 E19.03720 F1260.000
G1 X81.925 Y126.263 E19.15741
G1 X81.925 Y135.363 E19.76972
G1 X79.569 Y135.363 E19.92822
G1 X79.729 Y134.613 E19.97982
G1 X79.320 Y132.689 E20.11213
G1 X78.164 Y131.098 E20.24444
G1 X76.461 Y130.115 E20.37675
G1 X74.506 Y129.910 E20.50906
G1 X72.636 Y130.517 E20.64137
G1 X71.174 Y131.833 E20.77368
G1 X70.374 Y133.629 E20.90599
G1 X70.374 Y135.363 E21.02261
G1 X68.075 Y135.363 E21.17734
G1 X68.075 Y126.263 E21.78965
G1 X69.862 Y126.263 E21.90986
G1 X5.445 Y14.689 E30.57868
G1 F1800.000 E29.57868
G92 E0
G1 X85.359 Y116.421 F7800.000
G1 E1.00000 F1800.000
G1 X79.446 Y126.662 E1.79576 F1800.000
G1 X81.525 Y126.662 E1.93567
G1 X81.525 Y134.963 E2.49416
G1 X80.063 Y134.963 E2.59251
G1 X80.138 Y134.613 E2.61658
G1 X79.694 Y132.523 E2.76034
G1 X78.438 Y130.794 E2.90409
G1 X76.588 Y129.726 E3.04784
G1 X74.463 Y129.503 E3.19159
G1 X72.431 Y130.163 E3.33535
G1 X70.843 Y131.593 E3.47910
G1 X69.974 Y133.544 E3.62285
G1 X69.974 Y134.963 E3.71828
G1 X68.475 Y134.963 E3.81917
G1 X68.475 Y126.662 E4.37765
G1 X70.554 Y126.662 E4.51757
G1 X6.108 Y15.038 E13.19043
G1 X143.892 Y15.038 E22.46153 F1800.000
G1 X85.389 Y116.369 E30.33460
G1 X70.450 Y99.886 F7800.000
G1 X70.080 Y99.985 E30.36040 F1260.000
G1 X28.499 Y27.965 E35.95610
G1 X70.450 Y27.965 E38.77887 F1260.000
G1 X70.450 Y99.826 E43.61417
G1 X70.850 Y99.826 F7800.000
G1 X70.850 Y100.193 E43.63886 F1800.000
G1 X69.887 Y100.451 E43.70597 F1800.000
G1 X27.806 Y27.565 E49.36894
G1 X70.850 Y27.565 E52.26524
G1 X70.850 Y99.766 E57.12342
G1 X79.550 Y99.766 F7800.000
G1 X79.550 Y27.965 E61.95468 F1260.000
G1 X121.501 Y27.965 E64.77746 F1260.000
G1 X79.920 Y99.985 E70.37315
G1 X79.550 Y99.886 E70.39896
G1 X79.550 Y99.826 E70.40299
G1 X79.150 Y99.826 F7800.000
G1 X79.150 Y27.565 E75.26521 F1800.000
G1 X122.194 Y27.565 E78.16151
G1 X119.931 Y31.485 E78.46605
G1 X80.113 Y100.451 E83.82448 F1800.000
G1 X79.150 Y100.193 E83.89159
G1 X79.150 Y99.886 E83.91224
G1 X79.862 Y100.667 F7800.000
G1 X64.646 Y115.883 E85.41702 F3600.000
G1 X64.431 Y115.509 E85.44720
G1 X79.397 Y100.542 E86.92733
G1 X78.932 Y100.418 E86.96099
G1 X64.215 Y115.135 E88.41649
G1 X63.999 Y114.761 E88.44667
G1 X78.876 Y99.884 E89.91797
G1 X78.876 Y99.294 E89.95919
G1 X63.783 Y114.388 E91.45183
G1 X63.568 Y114.014 E91.48201
G1 X78.876 Y98.705 E92.99599
G1 X78.876 Y98.115 E93.03721
G1 X63.352 Y113.640 E94.57253
G1 X63.136 Y113.266 E94.60271
G1 X78.876 Y97.526 E96.15936
G1 X78.876 Y96.936 E96.20059
G1 X62.920 Y112.893 E97.77859
G1 X62.704 Y112.519 E97.80876
G1 X78.876 Y96.347 E99.40810
G1 X78.876 Y95.757 E99.44933
G1 X62.489 Y112.145 E101.07000
G1 X62.273 Y111.771 E101.10018
G1 X78.876 Y95.168 E102.74220
G1 X78.876 Y94.578 E102.78342
G1 X62.057 Y111.398 E104.44678
G1 X61.841 Y111.024 E104.47695
G1 X78.876 Y93.989 E106.16165
G1 X78.876 Y93.399 E106.20287
G1 X61.626 Y110.650 E107.90891
G1 X61.410 Y110.276 E107.93909
G1 X78.876 Y92.810 E109.66646
G1 X78.876 Y92.220 E109.70769
G1 X71.124 Y99.973 E110.47442
G1 X71.124 Y99.384 E110.51564
G1 X78.876 Y91.631 E111.28237
G1 X78.876 Y91.041 E111.32360
G1 X71.124 Y98.794 E112.09033
G1 X71.124 Y98.205 E112.13155
G1 X78.876 Y90.452 E112.89829
G1 X78.876 Y89.862 E112.93951
G1 X71.124 Y97.615 E113.70624
G1 X71.124 Y97.026 E113.74747
G1 X78.876 Y89.273 E114.51420
G1 X78.876 Y88.683 E114.55542
G1 X71.124 Y96.436 E115.32215
G1 X71.124 Y95.847 E115.36338
G1 X78.876 Y88.094 E116.13011
G1 X78.876 Y87.504 E116.17134
G1 X71.124 Y95.257 E116.93807
G1 X71.124 Y94.667 E116.97929
G1 X78.876 Y86.914 E117.74602
G1 X78.876 Y86.325 E117.78725
G1 X71.124 Y94.078 E118.55398
G1 X71.124 Y93.488 E118.59520
G1 X78.876 Y85.735 E119.36194
G1 X78.876 Y85.146 E119.40316
G1 X71.124 Y92.899 E120.16989
G1 X71.124 Y92.309 E120.21112
G1 X78.876 Y84.556 E120.97785
G1 X78.876 Y83.967 E121.01907
G1 X71.124 Y91.720 E121.78580
G1 X71.124 Y91.130 E121.82703
G1 X78.876 Y83.377 E122.59376
G1 X78.876 Y82.788 E122.63499
G1 X71.124 Y90.541 E123.40172
G1 X71.124 Y89.951 E123.44294
G1 X78.876 Y82.198 E124.20967
G1 X78.876 Y81.609 E124.25090
G1 X71.124 Y89.362 E125.01763
G1 X71.124 Y88.772 E125.05885
G1 X78.876 Y81.019 E125.82559
G1 X78.876 Y80.430 E125.86681
G1 X71.124 Y88.183 E126.63354
G1 X71.124 Y87.593 E126.67477
G1 X78.876 Y79.840 E127.44150
G1 X78.876 Y79.251 E127.48272
G1 X71.124 Y87.004 E128.24945
G1 X71.124 Y86.414 E128.29068
G1 X78.876 Y78.661 E129.05741
G1 X78.876 Y78.072 E129.09863
G1 X71.124 Y85.825 E129.86537
G1 X71.124 Y85.235 E129.90659
G1 X78.876 Y77.482 E130.67332
G1 X78.876 Y76.893 E130.71455
G1 X71.124 Y84.646 E131.48128
G1 X71.124 Y84.056 E131.52250
G1 X78.876 Y76.303 E132.28923
G1 X78.876 Y75.714 E132.33046
G1 X71.124 Y83.467 E133.09719
G1 X71.124 Y82.877 E133.13842
G1 X78.876 Y75.124 E133.90515
G1 X78.876 Y74.534 E133.94637
G1 X71.124 Y82.287 E134.71310
G1 X71.124 Y81.698 E134.75433
G1 X78.876 Y73.945 E135.52106
G1 X78.876 Y73.355 E135.56228
G1 X71.124 Y81.108 E136.32902
G1 X71.124 Y80.519 E136.37024
G1 X78.876 Y72.766 E137.13697
G1 X78.876 Y72.176 E137.17820
G1 X71.124 Y79.929 E137.94493
G1 X71.124 Y79.340 E137.98615
G1 X78.876 Y71.587 E138.75288
G1 X78.876 Y70.997 E138.79411
G1 X71.124 Y78.750 E139.56084
G1 X71.124 Y78.161 E139.60207
G1 X78.876 Y70.408 E140.36880
G1 X78.876 Y69.818 E140.41002
G1 X71.124 Y77.571 E141.17675
G1 X71.124 Y76.982 E141.21798
G1 X78.876 Y69.229 E141.98471
G1 X78.876 Y68.639 E142.02593
G1 X71.124 Y76.392 E142.79267
G1 X71.124 Y75.803 E142.83389
G1 X78.876 Y68.050 E143.60062
G1 X78.876 Y67.460 E143.64185
G1 X71.124 Y75.213 E144.40858
G1 X71.124 Y74.624 E144.44980
G1 X78.876 Y66.871 E145.21653
G1 X78.876 Y66.281 E145.25776
G1 X71.124 Y74.034 E146.02449
G1 X71.124 Y73.445 E146.06572
G1 X78.876 Y65.692 E146.83245
G1 X78.876 Y65.102 E146.87367
G1 X71.124 Y72.855 E147.64040
G1 X71.124 Y72.266 E147.68163
G1 X78.876 Y64.513 E148.44836
G1 X78.876 Y63.923 E148.48958
G1 X71.124 Y71.676 E149.25632
G1 X71.124 Y71.087 E149.29754
G1 X78.876 Y63.334 E150.06427
G1 X78.876 Y62.744 E150.10550
G1 X71.124 Y70.497 E150.87223
G1 X71.124 Y69.907 E150.91345
G1 X78.876 Y62.154 E151.68018
G1 X78.876 Y61.565 E151.72141
G1 X71.124 Y69.318 E152.48814
G1 X71.124 Y68.728 E152.52937
G1 X78.876 Y60.975 E153.29610
G1 X78.876 Y60.386 E153.33732
G1 X71.124 Y68.139 E154.10405
G1 X71.124 Y67.549 E154.14528
G1 X78.876 Y59.796 E154.91201
G1 X78.876 Y59.207 E154.95323
G1 X71.124 Y66.960 E155.71997
G1 X71.124 Y66.370 E155.76119
G1 X78.876 Y58.617 E156.52792
G1 X78.876 Y58.028 E156.56915
G1 X71.124 Y65.781 E157.33588
G1 X71.124 Y65.191 E157.37710
G1 X78.876 Y57.438 E158.14383
G1 X78.876 Y56.849 E158.18506
G1 X71.124 Y64.602 E158.95179
G1 X71.124 Y64.012 E158.99302
G1 X78.876 Y56.259 E159.75975
G1 X78.876 Y55.670 E159.80097
G1 X71.124 Y63.423 E160.56770
G1 X71.124 Y62.833 E160.60893
G1 X78.876 Y55.080 E161.37566
G1 X78.876 Y54.491 E161.41688
G1 X71.124 Y62.244 E162.18362
G1 X71.124 Y61.654 E162.22484
G1 X78.876 Y53.901 E162.99157
G1 X78.876 Y53.312 E163.03280
G1 X71.124 Y61.065 E163.79953
G1 X71.124 Y60.475 E163.84075
G1 X78.876 Y52.722 E164.60748
G1 X78.876 Y52.133 E164.64871
G1 X71.124 Y59.886 E165.41544
G1 X71.124 Y59.296 E165.45667
G1 X78.876 Y51.543 E166.22340
G1 X78.876 Y50.954 E166.26462
G1 X71.124 Y58.707 E167.03135
G1 X71.124 Y58.117 E167.07258
G1 X78.876 Y50.364 E167.83931
G1 X78.876 Y49.775 E167.88053
G1 X71.124 Y57.527 E168.64727
G1 X71.124 Y56.938 E168.68849
G1 X78.876 Y49.185 E169.45522
G1 X78.876 Y48.595 E169.49645
G1 X71.124 Y56.348 E170.26318
G1 X71.124 Y55.759 E170.30440
G1 X78.876 Y48.006 E171.07113
G1 X78.876 Y47.416 E171.11236
G1 X71.124 Y55.169 E171.87909
G1 X71.124 Y54.580 E171.92032
G1 X78.876 Y46.827 E172.68705
G1 X78.876 Y46.237 E172.72827
G1 X71.124 Y53.990 E173.49500
G1 X71.124 Y53.401 E173.53623
G1 X78.876 Y45.648 E174.30296
G1 X78.876 Y45.058 E174.34418
G1 X71.124 Y52.811 E175.11092
G1 X71.124 Y52.222 E175.15214
G1 X78.876 Y44.469 E175.91887
G1 X78.876 Y43.879 E175.96010
G1 X71.124 Y51.632 E176.72683
G1 X71.124 Y51.043 E176.76805
G1 X78.876 Y43.290 E177.53479
G1 X78.876 Y42.700 E177.57601
G1 X71.124 Y50.453 E178.34274
G1 X71.124 Y49.864 E178.38397
G1 X78.876 Y42.111 E179.15070
G1 X78.876 Y41.521 E179.19192
G1 X71.124 Y49.274 E179.95865
G1 X71.124 Y48.685 E179.99988
G1 X78.876 Y40.932 E180.76661
G1 X78.876 Y40.342 E180.80784
G1 X71.124 Y48.095 E181.57457
G1 X71.124 Y47.506 E181.61579
G1 X78.876 Y39.753 E182.38252
G1 X78.876 Y39.163 E182.42375
G1 X71.124 Y46.916 E183.19048
G1 X71.124 Y46.327 E183.23170
G1 X78.876 Y38.574 E183.99844
G1 X78.876 Y37.984 E184.03966
G1 X71.124 Y45.737 E184.80639
G1 X71.124 Y45.147 E184.84762
G1 X78.876 Y37.395 E185.61435
G1 X78.876 Y36.805 E185.65557
G1 X71.124 Y44.558 E186.42230
G1 X71.124 Y43.968 E186.46353
G1 X78.876 Y36.215 E187.23026
G1 X78.876 Y35.626 E187.27149
G1 X71.124 Y43.379 E188.03822
G1 X71.124 Y42.789 E188.07944
G1 X78.876 Y35.036 E188.84617
G1 X78.876 Y34.447 E188.88740
G1 X71.124 Y42.200 E189.65413
G1 X71.124 Y41.610 E189.69535
G1 X78.876 Y33.857 E190.46209
G1 X78.876 Y33.268 E190.50331
G1 X71.124 Y41.021 E191.27004
G1 X71.124 Y40.431 E191.31127
G1 X78.876 Y32.678 E192.07800
G1 X78.876 Y32.089 E192.11922
G1 X71.124 Y39.842 E192.88595
G1 X71.124 Y39.252 E192.92718
G1 X78.876 Y31.499 E193.69391
G1 X78.876 Y30.910 E193.73514
G1 X71.124 Y38.663 E194.50187
G1 X71.124 Y38.073 E194.54309
G1 X78.876 Y30.320 E195.30982
G1 X78.876 Y29.731 E195.35105
G1 X71.124 Y37.484 E196.11778
G1 X71.124 Y36.894 E196.15900
G1 X78.876 Y29.141 E196.92574
G1 X78.876 Y28.552 E196.96696
G1 X71.124 Y36.305 E197.73369
G1 X71.124 Y35.715 E197.77492
G1 X78.876 Y27.962 E198.54165
G1 X78.876 Y27.373 E198.58287
G1 X71.124 Y35.126 E199.34960
G1 X71.124 Y34.536 E199.39083
G1 X90.349 Y15.311 E201.29209
G1 X89.759 Y15.311 E201.33332
G1 X71.124 Y33.947 E203.17628
G1 X71.124 Y33.357 E203.21751
G1 X89.170 Y15.311 E205.00217
G1 X88.580 Y15.311 E205.04339
G1 X71.124 Y32.767 E206.76975
G1 X71.124 Y32.178 E206.81098
G1 X87.990 Y15.311 E208.47904
G1 X87.401 Y15.311 E208.52026
G1 X71.124 Y31.588 E210.13002
G1 X71.124 Y30.999 E210.17124
G1 X86.811 Y15.311 E211.72270
G1 X86.222 Y15.311 E211.76393
G1 X71.124 Y30.409 E213.25708
G1 X71.124 Y29.820 E213.29831
G1 X85.632 Y15.311 E214.73316
G1 X85.043 Y15.311 E214.77439
G1 X71.124 Y29.230 E216.15094
G1 X71.124 Y28.641 E216.19217
G1 X84.453 Y15.311 E217.51042
G1 X83.864 Y15.311 E217.55164
G1 X71.124 Y28.051 E218.81160
G1 X71.124 Y27.462 E218.85282
G1 X83.274 Y15.311 E220.05447
G1 X82.685 Y15.311 E220.09570
G1 X70.704 Y27.291 E221.28051
G1 X70.115 Y27.291 E221.32173
G1 X82.095 Y15.311 E222.50654
G1 X81.506 Y15.311 E222.54777
G1 X69.525 Y27.291 E223.73258
G1 X68.936 Y27.291 E223.77380
G1 X80.916 Y15.311 E224.95861
G1 X80.327 Y15.311 E224.99984
G1 X68.346 Y27.291 E226.18465
G1 X67.757 Y27.291 E226.22587
G1 X79.737 Y15.311 E227.41068
G1 X79.148 Y15.311 E227.45191
G1 X67.167 Y27.291 E228.63672
G1 X66.578 Y27.291 E228.67794
G1 X78.558 Y15.311 E229.86275
G1 X77.969 Y15.311 E229.90398
G1 X65.988 Y27.291 E231.08879
G1 X65.399 Y27.291 E231.13001
G1 X77.379 Y15.311 E232.31483
G1 X76.790 Y15.311 E232.35605
G1 X64.809 Y27.291 E233.54086
G1 X64.220 Y27.291 E233.58209
G1 X76.200 Y15.311 E234.76690
G1 X75.610 Y15.311 E234.80812
G1 X63.630 Y27.291 E235.99293
G1 X63.040 Y27.291 E236.03416
G1 X75.021 Y15.311 E237.21897
G1 X74.431 Y15.311 E237.26019
G1 X62.451 Y27.291 E238.44500
G1 X61.861 Y27.291 E238.48623
G1 X73.842 Y15.311 E239.67104
G1 X73.252 Y15.311 E239.71226
G1 X61.272 Y27.291 E240.89707
G1 X60.682 Y27.291 E240.93830
G1 X72.663 Y15.311 E242.12311
G1 X72.073 Y15.311 E242.16433
G1 X60.093 Y27.291 E243.34914
G1 X59.503 Y27.291 E243.39037
G1 X71.484 Y15.311 E244.57518
G1 X70.894 Y15.311 E244.61640
G1 X58.914 Y27.291 E245.80122
G1 X58.324 Y27.291 E245.84244
G1 X70.305 Y15.311 E247.02725
G1 X69.715 Y15.311 E247.06848
G1 X57.735 Y27.291 E248.25329
G1 X57.145 Y27.291 E248.29451
G1 X69.126 Y15.311 E249.47932
G1 X68.536 Y15.311 E249.52055
G1 X56.556 Y27.291 E250.70536
G1 X55.966 Y27.291 E250.74658
G1 X67.947 Y15.311 E251.93139
G1 X67.357 Y15.311 E251.97262
G1 X55.377 Y27.291 E253.15743
G1 X54.787 Y27.291 E253.19865
G1 X66.768 Y15.311 E254.38346
G1 X66.178 Y15.311 E254.42469
G1 X54.198 Y27.291 E255.60950
G1 X53.608 Y27.291 E255.65072
G1 X65.589 Y15.311 E256.83553
G1 X64.999 Y15.311 E256.87676
G1 X53.019 Y27.291 E258.06157
G1 X52.429 Y27.291 E258.10279
G1 X64.410 Y15.311 E259.28761
G1 X63.820 Y15.311 E259.32883
G1 X51.840 Y27.291 E260.51364
G1 X51.250 Y27.291 E260.55487
G1 X63.230 Y15.311 E261.73968
G1 X62.641 Y15.311 E261.78090
G1 X50.660 Y27.291 E262.96571
G1 X50.071 Y27.291 E263.00694
G1 X62.051 Y15.311 E264.19175
G1 X61.462 Y15.311 E264.23297
G1 X49.481 Y27.291 E265.41778
G1 X48.892 Y27.291 E265.45901
G1 X60.872 Y15.311 E266.64382
G1 X60.283 Y15.311 E266.68504
G1 X48.302 Y27.291 E267.86985
G1 X47.713 Y27.291 E267.91108
G1 X59.693 Y15.311 E269.09589
G1 X59.104 Y15.311 E269.13711
G1 X47.123 Y27.291 E270.32192
G1 X46.534 Y27.291 E270.36315
G1 X58.514 Y15.311 E271.54796
G1 X57.925 Y15.311 E271.58919
G1 X45.944 Y27.291 E272.77400
G1 X45.355 Y27.291 E272.81522
G1 X57.335 Y15.311 E274.00003
G1 X56.746 Y15.311 E274.04126
G1 X44.765 Y27.291 E275.22607
G1 X44.176 Y27.291 E275.26729
G1 X56.156 Y15.311 E276.45210
G1 X55.567 Y15.311 E276.49333
G1 X43.586 Y27.291 E277.67814
G1 X42.997 Y27.291 E277.71936
G1 X54.977 Y15.311 E278.90417
G1 X54.388 Y15.311 E278.94540
G1 X42.407 Y27.291 E280.13021
G1 X41.818 Y27.291 E280.17143
G1 X53.798 Y15.311 E281.35624
G1 X53.209 Y15.311 E281.39747
G1 X41.228 Y27.291 E282.58228
G1 X40.639 Y27.291 E282.62350
G1 X52.619 Y15.311 E283.80832
G1 X52.030 Y15.311 E283.84954
G1 X40.049 Y27.291 E285.03435
G1 X39.460 Y27.291 E285.07558
G1 X51.440 Y15.311 E286.26039
G1 X50.850 Y15.311 E286.30161
G1 X38.870 Y27.291 E287.48642
G1 X38.280 Y27.291 E287.52765
G1 X50.261 Y15.311 E288.71246
G1 X49.671 Y15.311 E288.75368
G1 X37.691 Y27.291 E289.93849
G1 X37.101 Y27.291 E289.97972
G1 X49.082 Y15.311 E291.16453
G1 X48.492 Y15.311 E291.20575
G1 X36.512 Y27.291 E292.39056
G1 X35.922 Y27.291 E292.43179
G1 X47.903 Y15.311 E293.61660
G1 X47.313 Y15.311 E293.65782
G1 X35.333 Y27.291 E294.84263
G1 X34.743 Y27.291 E294.88386
G1 X46.724 Y15.311 E296.06867
G1 X46.134 Y15.311 E296.10990
G1 X34.154 Y27.291 E297.29471
G1 X33.564 Y27.291 E297.33593
G1 X45.545 Y15.311 E298.52074
G1 X44.955 Y15.311 E298.56197
G1 X32.975 Y27.291 E299.74678
G1 X32.385 Y27.291 E299.78800
G1 X44.366 Y15.311 E300.97281
G1 X43.776 Y15.311 E301.01404
G1 X31.796 Y27.291 E302.19885
G1 X31.206 Y27.291 E302.24007
G1 X43.187 Y15.311 E303.42488
G1 X42.597 Y15.311 E303.46611
G1 X30.617 Y27.291 E304.65092
G1 X30.027 Y27.291 E304.69214
G1 X42.008 Y15.311 E305.87695
G1 X41.418 Y15.311 E305.91818
G1 X29.438 Y27.291 E307.10299
G1 X28.848 Y27.291 E307.14421
G1 X40.829 Y15.311 E308.32902
G1 X40.239 Y15.311 E308.37025
G1 X28.259 Y27.291 E309.55506
G1 X27.669 Y27.291 E309.59629
G1 X39.650 Y15.311 E310.78110
G1 X39.060 Y15.311 E310.82232
G1 X18.469 Y35.902 E312.85862
G1 X18.685 Y36.275 E312.88880
G1 X27.456 Y27.505 E313.75614
G1 X27.671 Y27.879 E313.78632
G1 X18.901 Y36.649 E314.65365
G1 X19.117 Y37.023 E314.68383
G1 X27.887 Y28.253 E315.55116
G1 X28.103 Y28.626 E315.58134
G1 X19.333 Y37.397 E316.44868
G1 X19.548 Y37.770 E316.47886
G1 X28.319 Y29.000 E317.34619
G1 X28.534 Y29.374 E317.37637
G1 X19.764 Y38.144 E318.24371
G1 X19.980 Y38.518 E318.27389
G1 X28.750 Y29.747 E319.14122
