; generated by Slic3r 1.1.7 on 2014-12-05 at 22:08:58

; perimeters extrusion width = 0.40mm
; infill extrusion width = 0.42mm
; solid infill extrusion width = 0.42mm
; top infill extrusion width = 0.42mm

G21 ; set units to millimeters
M107
M104 S215 ; set temperature
G28 ; home all axes
G29; calibrate bed leveling
G1 Z5 F5000 ; lift nozzle
G28 X ; Go to corner x
G28 Y ; Go to corner y

M109 S215 ; wait for temperature to be reached
G90 ; use absolute coordinates
G92 E0
M82 ; use absolute distances for extrusion
G1 F1800.000 E-1.00000
G1 Z0.650 F7800.000
G92 E0
G1 X58.783 Y31.065 F7800.000
G1 Z0.350 F7800.000
G1 E1.00000 F1800.000
G1 X59.928 Y29.048 E1.13255 F1080.000
G1 X61.416 Y27.704 E1.24711
G1 X70.440 Y21.753 E1.86483
G1 X72.472 Y20.667 E1.99648
G1 X73.698 Y20.159 E2.07230
G1 X75.902 Y19.490 E2.20392
G1 X77.208 Y19.230 E2.28002
G1 X79.500 Y19.005 E2.41162
G1 X80.824 Y19.005 E2.48726
G1 X83.117 Y19.230 E2.61892
G1 X84.424 Y19.490 E2.69504 F1080.000
G1 X86.628 Y20.159 E2.82665
G1 X87.853 Y20.667 E2.90247
G1 X88.031 Y20.762 E2.91399
G1 X89.860 Y22.189 E3.04654
G1 X91.100 Y24.150 E3.17910
G1 X91.614 Y26.738 E3.32990
G1 X91.614 Y123.260 E8.84536
G1 X91.217 Y125.546 E8.97792
G1 X90.072 Y127.563 E9.11047
G1 X88.032 Y129.237 E9.26127
G1 X87.853 Y129.332 E9.27281
G1 X86.628 Y129.840 E9.34863
G1 X84.424 Y130.509 E9.48024
G1 X83.120 Y130.768 E9.55619
G1 X80.827 Y130.994 E9.68785
G1 X79.497 Y130.994 E9.76383
G1 X77.205 Y130.768 E9.89544
G1 X75.902 Y130.509 E9.97137
G1 X73.698 Y129.840 E10.10299
G1 X72.472 Y129.332 E10.17881
G1 X69.865 Y127.901 E10.34878
G1 X61.393 Y122.229 E10.93134
G1 X59.714 Y120.628 E11.06390
G1 X58.675 Y118.554 E11.19645
G1 X58.386 Y116.598 E11.30945
G1 X58.386 Y33.351 E16.06638
G1 X58.773 Y31.124 E16.19550
G1 X59.160 Y31.194 F7800.000
G1 X59.171 Y31.134 E16.19896 F1080.000
G1 X60.312 Y29.193 E16.32763
G1 X61.631 Y28.028 E16.42817
G1 X70.623 Y22.095 E17.04378
G1 X72.655 Y21.009 E17.17543
G1 X73.811 Y20.531 E17.24691
G1 X76.015 Y19.862 E17.37853
G1 X77.246 Y19.617 E17.45027
G1 X79.538 Y19.392 E17.58187
G1 X80.786 Y19.392 E17.65318
G1 X83.079 Y19.617 E17.78483
G1 X84.311 Y19.862 E17.85659 F1080.000
G1 X86.515 Y20.531 E17.98820
G1 X87.670 Y21.009 E18.05968
G1 X87.848 Y21.104 E18.07120
G1 X89.616 Y22.499 E18.19987
G1 X90.790 Y24.421 E18.32854
G1 X91.225 Y26.738 E18.46330
G1 X91.226 Y123.260 E23.97876
G1 X90.829 Y125.477 E24.10744
G1 X89.688 Y127.418 E24.23611
G1 X87.849 Y128.894 E24.37087
G1 X87.670 Y128.990 E24.38241
G1 X86.515 Y129.468 E24.45388
G1 X84.311 Y130.137 E24.58550
G1 X83.082 Y130.382 E24.65710
G1 X80.789 Y130.608 E24.78876
G1 X79.536 Y130.608 E24.86038
G1 X77.244 Y130.382 E24.99199
G1 X76.015 Y130.137 E25.06357
G1 X73.811 Y129.468 E25.19519
G1 X72.655 Y128.990 E25.26666
G1 X70.081 Y127.578 E25.43444
G1 X61.609 Y121.907 E26.01700
G1 X59.988 Y120.344 E26.14568
G1 X59.009 Y118.316 E26.27435
G1 X58.774 Y116.598 E26.37341
G1 X58.774 Y33.351 E31.13034
G1 X59.150 Y31.253 E31.25212
G1 F1800.000 E30.25212
G1 Z0.650 F7800.000
G92 E0
G1 X61.474 Y32.345 F7800.000
G1 Z0.350 F7800.000
G1 E1.00000 F1800.000
G1 X62.495 Y30.612 E1.11493 F1080.000
G1 X68.737 Y27.154 E1.52267
G1 X69.119 Y26.711 E1.55610
G1 X69.375 Y26.455 E1.57679
G1 X71.435 Y24.764 E1.72908
G1 X71.736 Y24.562 E1.74981
G1 X74.088 Y23.305 E1.90217
G1 X74.422 Y23.167 E1.92286
G1 X76.973 Y22.393 E2.07518
G1 X77.329 Y22.322 E2.09594
G1 X79.982 Y22.061 E2.24823
G1 X80.343 Y22.061 E2.26887
G1 X81.424 Y22.168 E2.33096
G1 X81.564 Y22.129 E2.33921
G1 X81.831 Y21.931 E2.35824
G1 X83.344 Y22.390 E2.44857
G1 X85.904 Y23.167 E2.60146 F1080.000
G1 X86.238 Y23.306 E2.62215
G1 X87.847 Y24.165 E2.72634
G1 X88.794 Y26.887 E2.89104
G1 X86.502 Y32.161 E3.21963
G1 X83.449 Y33.223 E3.40430
G1 X82.191 Y32.554 E3.48575
G1 X81.188 Y32.253 E3.54558
G1 X80.182 Y32.154 E3.60334
G1 X79.101 Y32.261 E3.66538
G1 X78.100 Y32.568 E3.72522
G1 X77.210 Y33.045 E3.78292
G1 X76.369 Y33.734 E3.84504
G1 X75.708 Y34.545 E3.90484
G1 X75.232 Y35.437 E3.96258
G1 X74.916 Y36.477 E4.02468
G1 X74.852 Y37.142 E4.06290
G1 X74.852 Y37.857 E4.10373
G1 X74.916 Y38.522 E4.14195
G1 X75.232 Y39.562 E4.20404
G1 X75.729 Y40.486 E4.26397
G1 X76.396 Y41.292 E4.32375
G1 X77.178 Y41.933 E4.38154
G1 X78.135 Y42.445 E4.44358
G1 X79.138 Y42.746 E4.50342
G1 X80.143 Y42.845 E4.56112
G1 X81.188 Y42.746 E4.62105
G1 X82.226 Y42.431 E4.68305
G1 X83.449 Y41.776 E4.76234
G1 X86.502 Y42.838 E4.94702
G1 X88.794 Y48.112 E5.27560
G1 X88.160 Y49.934 E5.38588
G1 X88.160 Y50.066 E5.39338
G1 X88.794 Y51.887 E5.50359
G1 X86.502 Y57.160 E5.83214
G1 X83.451 Y58.222 E6.01672
G1 X82.226 Y57.568 E6.09607
G1 X81.225 Y57.261 E6.15594
G1 X80.182 Y57.154 E6.21586
G1 X79.138 Y57.253 E6.27574
G1 X78.100 Y57.568 E6.33774
G1 X77.178 Y58.066 E6.39762
G1 X76.396 Y58.707 E6.45540
G1 X75.708 Y59.545 E6.51736
G1 X75.218 Y60.472 E6.57727
G1 X74.916 Y61.477 E6.63721
G1 X74.852 Y62.142 E6.67543
G1 X74.852 Y62.857 E6.71626
G1 X74.916 Y63.522 E6.75447
G1 X75.218 Y64.527 E6.81441
G1 X75.729 Y65.486 E6.87650
G1 X76.396 Y66.292 E6.93628
G1 X77.178 Y66.933 E6.99407
G1 X78.135 Y67.445 E7.05611
G1 X79.138 Y67.746 E7.11595
G1 X80.143 Y67.845 E7.17365
G1 X81.188 Y67.746 E7.23358
G1 X82.226 Y67.431 E7.29558
G1 X83.449 Y66.776 E7.37487
G1 X86.502 Y67.838 E7.55955
G1 X88.794 Y73.112 E7.88813
G1 X88.160 Y74.934 E7.99840
G1 X88.160 Y75.066 E8.00591
G1 X88.794 Y76.887 E8.11611
G1 X86.502 Y82.160 E8.44463
G1 X83.453 Y83.222 E8.62917
G1 X82.227 Y82.569 E8.70856
G1 X81.188 Y82.253 E8.77062
G1 X80.182 Y82.154 E8.82838
G1 X79.138 Y82.253 E8.88825
G1 X78.100 Y82.568 E8.95026
G1 X77.178 Y83.066 E9.01013
G1 X76.396 Y83.707 E9.06792
G1 X75.708 Y84.545 E9.12988
G1 X75.218 Y85.472 E9.18978
G1 X74.924 Y86.439 E9.24755
G1 X74.852 Y87.123 E9.28685
G1 X74.852 Y87.876 E9.32986
G1 X74.924 Y88.560 E9.36916
G1 X75.218 Y89.527 E9.42693
G1 X75.729 Y90.486 E9.48901
G1 X76.396 Y91.292 E9.54880
G1 X77.178 Y91.933 E9.60658
G1 X78.100 Y92.431 E9.66645
G1 X79.138 Y92.746 E9.72846
G1 X80.182 Y92.845 E9.78833
G1 X81.188 Y92.746 E9.84609
G1 X82.226 Y92.431 E9.90809
G1 X83.449 Y91.776 E9.98738
G1 X86.502 Y92.838 E10.17206
G1 X88.794 Y98.112 E10.50064
G1 X88.160 Y99.934 E10.61090
G1 X88.160 Y100.065 E10.61839
G1 X88.794 Y101.888 E10.72866
G1 X86.501 Y107.161 E11.05725
G1 X83.447 Y108.223 E11.24203
G1 X82.225 Y107.568 E11.32124
G1 X81.188 Y107.253 E11.38319
G1 X80.182 Y107.154 E11.44095
G1 X79.138 Y107.253 E11.50082
G1 X78.100 Y107.568 E11.56283
G1 X77.178 Y108.066 E11.62270
G1 X76.396 Y108.707 E11.68049
G1 X75.708 Y109.545 E11.74245
G1 X75.218 Y110.472 E11.80235
G1 X74.924 Y111.439 E11.86012
G1 X74.852 Y112.123 E11.89942
G1 X74.852 Y112.857 E11.94134
G1 X74.924 Y113.560 E11.98173
G1 X75.218 Y114.527 E12.03950
G1 X75.729 Y115.486 E12.10158
G1 X76.396 Y116.292 E12.16137
G1 X77.178 Y116.933 E12.21915
G1 X78.100 Y117.431 E12.27902
G1 X79.138 Y117.746 E12.34103
G1 X80.182 Y117.845 E12.40091
G1 X81.187 Y117.746 E12.45866
G1 X82.226 Y117.431 E12.52066
G1 X83.449 Y116.776 E12.59996
G1 X86.502 Y117.838 E12.78463
G1 X88.794 Y123.112 E13.11321
G1 X87.847 Y125.834 E13.27791
G1 X86.238 Y126.693 E13.38212
G1 X85.904 Y126.832 E13.40282
G1 X83.353 Y127.606 E13.55514
G1 X82.998 Y127.677 E13.57585
G1 X80.344 Y127.939 E13.72823
G1 X79.981 Y127.939 E13.74896
G1 X77.328 Y127.677 E13.90129
G1 X76.973 Y127.606 E13.92201
G1 X74.422 Y126.832 E14.07432
G1 X74.088 Y126.693 E14.09501
G1 X71.736 Y125.437 E14.24735
G1 X71.435 Y125.235 E14.26807
G1 X69.375 Y123.544 E14.42036
G1 X69.119 Y123.288 E14.44106
G1 X68.663 Y122.755 E14.48116
G1 X62.495 Y119.337 E14.88410
G1 X61.474 Y117.604 E14.99901
G1 X61.474 Y32.405 E19.86744
G1 X61.863 Y32.451 F7800.000
G1 X62.776 Y30.900 E19.97028 F1080.000
G1 X68.990 Y27.458 E20.37620
G1 X69.407 Y26.972 E20.41278
G1 X69.636 Y26.743 E20.43130
G1 X71.666 Y25.076 E20.58140
G1 X71.936 Y24.896 E20.59995
G1 X74.254 Y23.657 E20.75013
G1 X74.553 Y23.533 E20.76864
G1 X77.068 Y22.770 E20.91878
G1 X77.386 Y22.706 E20.93736
G1 X80.001 Y22.450 E21.08747
G1 X80.324 Y22.450 E21.10594
G1 X81.535 Y22.569 E21.17549
G1 X81.675 Y22.530 E21.18375
G1 X81.905 Y22.359 E21.20015
G1 X85.773 Y23.533 E21.43112 F1080.000
G1 X86.072 Y23.657 E21.44964
G1 X87.530 Y24.436 E21.54407
G1 X88.378 Y26.872 E21.69144
G1 X86.213 Y31.850 E22.00163
G1 X83.482 Y32.800 E22.16686
G1 X82.340 Y32.193 E22.24078
G1 X81.264 Y31.871 E22.30499
G1 X80.182 Y31.764 E22.36711
G1 X79.025 Y31.878 E22.43352
G1 X77.951 Y32.208 E22.49773
G1 X76.993 Y32.720 E22.55981
G1 X76.093 Y33.458 E22.62629
G1 X75.384 Y34.329 E22.69046
G1 X74.872 Y35.287 E22.75258
G1 X74.534 Y36.400 E22.81904
G1 X74.463 Y37.123 E22.86054
G1 X74.463 Y37.876 E22.90355
G1 X74.541 Y38.636 E22.94722
G1 X74.857 Y39.676 E23.00935
G1 X75.384 Y40.670 E23.07362
G1 X76.093 Y41.541 E23.13780
G1 X76.961 Y42.258 E23.20211
G1 X77.986 Y42.806 E23.26852
G1 X79.062 Y43.128 E23.33273
G1 X80.143 Y43.235 E23.39480
G1 X81.264 Y43.128 E23.45910
G1 X82.375 Y42.791 E23.52547
G1 X83.483 Y42.199 E23.59723
G1 X86.214 Y43.149 E23.76247
G1 X88.378 Y48.127 E24.07266
G1 X87.749 Y49.934 E24.18199
G1 X87.749 Y50.066 E24.18949
G1 X88.378 Y51.871 E24.29876
G1 X86.214 Y56.849 E24.60893
G1 X83.484 Y57.800 E24.77408
G1 X82.376 Y57.208 E24.84589
G1 X81.301 Y56.878 E24.91012
G1 X80.182 Y56.764 E24.97442
G1 X79.062 Y56.871 E25.03866
G1 X77.951 Y57.208 E25.10504
G1 X76.961 Y57.741 E25.16928
G1 X76.120 Y58.431 E25.23143
G1 X75.384 Y59.329 E25.29777
G1 X74.857 Y60.323 E25.36204
G1 X74.534 Y61.400 E25.42635
G1 X74.463 Y62.123 E25.46784
G1 X74.463 Y62.876 E25.51085
G1 X74.534 Y63.599 E25.55235
G1 X74.872 Y64.712 E25.61881
G1 X75.405 Y65.702 E25.68311
G1 X76.120 Y66.568 E25.74727
G1 X76.961 Y67.258 E25.80942
G1 X77.986 Y67.806 E25.87583
G1 X79.062 Y68.128 E25.94004
G1 X80.143 Y68.235 E26.00211
G1 X81.264 Y68.128 E26.06641
G1 X82.375 Y67.791 E26.13278
G1 X83.482 Y67.199 E26.20454
G1 X86.214 Y68.149 E26.36978
G1 X88.378 Y73.127 E26.67997
G1 X87.749 Y74.934 E26.78930
G1 X87.749 Y75.066 E26.79680
G1 X88.378 Y76.871 E26.90606
G1 X86.214 Y81.849 E27.21620
G1 X83.485 Y82.800 E27.38132
G1 X82.376 Y82.208 E27.45316
G1 X81.264 Y81.871 E27.51959
G1 X80.182 Y81.764 E27.58171
G1 X79.062 Y81.871 E27.64596
G1 X77.951 Y82.208 E27.71233
G1 X76.961 Y82.741 E27.77658
G1 X76.120 Y83.431 E27.83873
G1 X75.384 Y84.329 E27.90506
G1 X74.857 Y85.323 E27.96934
G1 X74.541 Y86.363 E28.03147
G1 X74.464 Y87.104 E28.07405
G1 X74.464 Y87.895 E28.11924
G1 X74.541 Y88.636 E28.16182
G1 X74.857 Y89.676 E28.22395
G1 X75.405 Y90.702 E28.29040
G1 X76.120 Y91.568 E28.35456
G1 X76.961 Y92.258 E28.41671
G1 X77.951 Y92.791 E28.48095
G1 X79.062 Y93.128 E28.54733
G1 X80.182 Y93.235 E28.61157
G1 X81.264 Y93.128 E28.67370
G1 X82.375 Y92.791 E28.74007
G1 X83.482 Y92.199 E28.81183
G1 X86.214 Y93.149 E28.97707
G1 X88.378 Y98.127 E29.28726
G1 X87.749 Y99.934 E29.39657
G1 X87.749 Y100.065 E29.40407
G1 X88.377 Y101.872 E29.51338
G1 X86.213 Y106.851 E29.82359
G1 X83.480 Y107.800 E29.98892
G1 X82.374 Y107.208 E30.06059
G1 X81.264 Y106.871 E30.12693
G1 X80.182 Y106.764 E30.18905
G1 X79.062 Y106.871 E30.25330
G1 X77.951 Y107.208 E30.31968
G1 X76.961 Y107.741 E30.38392
G1 X76.120 Y108.431 E30.44607
G1 X75.384 Y109.329 E30.51241
G1 X74.857 Y110.323 E30.57668
G1 X74.541 Y111.363 E30.63881
G1 X74.464 Y112.104 E30.68139
G1 X74.463 Y112.876 E30.72549
G1 X74.541 Y113.636 E30.76916
G1 X74.857 Y114.676 E30.83129
G1 X75.405 Y115.702 E30.89775
G1 X76.120 Y116.568 E30.96190
G1 X76.961 Y117.258 E31.02405
G1 X77.951 Y117.791 E31.08830
G1 X79.062 Y118.128 E31.15467
G1 X80.182 Y118.235 E31.21892
G1 X81.264 Y118.128 E31.28104
G1 X82.375 Y117.791 E31.34742
G1 X83.483 Y117.199 E31.41918
G1 X86.214 Y118.149 E31.58441
G1 X88.378 Y123.127 E31.89461
G1 X87.530 Y125.563 E32.04197
G1 X86.072 Y126.342 E32.13643
G1 X85.773 Y126.466 E32.15494
G1 X83.259 Y127.229 E32.30508
G1 X82.941 Y127.293 E32.32362
G1 X80.325 Y127.550 E32.47381
G1 X80.000 Y127.550 E32.49236
G1 X77.385 Y127.293 E32.64251
G1 X77.067 Y127.229 E32.66105
G1 X74.553 Y126.466 E32.81118
G1 X74.254 Y126.342 E32.82969
G1 X71.936 Y125.103 E32.97986
G1 X71.666 Y124.923 E32.99840
G1 X69.636 Y123.256 E33.14851
G1 X69.407 Y123.027 E33.16702
G1 X68.916 Y122.451 E33.21028
G1 X62.776 Y119.048 E33.61140
G1 X61.863 Y117.498 E33.71422
G1 X61.863 Y32.511 E38.57055
G1 X62.251 Y32.557 F7800.000
G1 X63.057 Y31.189 E38.66129 F1080.000
G1 X69.243 Y27.761 E39.06540
G1 X69.695 Y27.233 E39.10513
G1 X69.897 Y27.031 E39.12147
G1 X71.898 Y25.388 E39.26939
G1 X72.136 Y25.229 E39.28576
G1 X74.420 Y24.008 E39.43376
G1 X74.684 Y23.899 E39.45010
G1 X77.162 Y23.147 E39.59806
G1 X77.443 Y23.091 E39.61444
G1 X80.020 Y22.838 E39.76238
G1 X80.305 Y22.838 E39.77867
G1 X81.646 Y22.969 E39.85569
G1 X81.786 Y22.931 E39.86395
G1 X81.979 Y22.787 E39.87774
G1 X83.155 Y23.144 E39.94792
G1 X85.642 Y23.899 E40.09645 F1080.000
G1 X85.906 Y24.008 E40.11279
G1 X87.213 Y24.707 E40.19747
G1 X87.961 Y26.856 E40.32750
G1 X85.925 Y31.539 E40.61930
G1 X83.515 Y32.377 E40.76509
G1 X82.489 Y31.833 E40.83148
G1 X81.377 Y31.496 E40.89789
G1 X80.143 Y31.374 E40.96872
G1 X78.986 Y31.488 E41.03517
G1 X77.837 Y31.833 E41.10374
G1 X76.776 Y32.396 E41.17236
G1 X75.818 Y33.182 E41.24321
G1 X75.059 Y34.112 E41.31175
G1 X74.511 Y35.138 E41.37824
G1 X74.151 Y36.324 E41.44906
G1 X74.075 Y37.104 E41.49384
G1 X74.075 Y37.895 E41.53903
G1 X74.151 Y38.675 E41.58381
G1 X74.511 Y39.861 E41.65463
G1 X75.081 Y40.919 E41.72330
G1 X75.845 Y41.843 E41.79183
G1 X76.744 Y42.582 E41.85834
G1 X77.837 Y43.166 E41.92913
G1 X78.986 Y43.511 E41.99771
G1 X80.182 Y43.625 E42.06632
G1 X81.377 Y43.503 E42.13499
G1 X82.489 Y43.166 E42.20139
G1 X83.516 Y42.621 E42.26779
G1 X85.925 Y43.460 E42.41359
G1 X87.961 Y48.143 E42.70539
G1 X87.338 Y49.934 E42.81378
G1 X87.338 Y50.066 E42.82128
G1 X87.961 Y51.856 E42.92960
G1 X85.925 Y56.539 E43.22138
G1 X83.517 Y57.377 E43.36710
G1 X82.490 Y56.833 E43.43354
G1 X81.377 Y56.496 E43.49997
G1 X80.143 Y56.374 E43.57081
G1 X78.986 Y56.488 E43.63725
G1 X77.837 Y56.833 E43.70583
G1 X76.744 Y57.417 E43.77661
G1 X75.845 Y58.155 E43.84313
G1 X75.081 Y59.080 E43.91166
G1 X74.511 Y60.138 E43.98032
G1 X74.151 Y61.324 E44.05115
G1 X74.075 Y62.104 E44.09593
G1 X74.076 Y62.914 E44.14221
G1 X74.158 Y63.712 E44.18807
G1 X74.497 Y64.826 E44.25456
G1 X75.081 Y65.919 E44.32538
G1 X75.845 Y66.843 E44.39392
G1 X76.744 Y67.582 E44.46043
G1 X77.801 Y68.151 E44.52904
G1 X78.986 Y68.511 E44.59979
G1 X80.182 Y68.625 E44.66841
G1 X81.377 Y68.503 E44.73707
G1 X82.489 Y68.166 E44.80347
G1 X83.516 Y67.621 E44.86988
G1 X85.925 Y68.460 E45.01567
G1 X87.961 Y73.143 E45.30748
G1 X87.338 Y74.934 E45.41586
G1 X87.338 Y75.066 E45.42337
G1 X87.961 Y76.856 E45.53167
G1 X85.926 Y81.538 E45.82343
G1 X83.518 Y82.377 E45.96912
G1 X82.490 Y81.833 E46.03560
G1 X81.377 Y81.496 E46.10205
G1 X80.143 Y81.374 E46.17288
G1 X78.986 Y81.488 E46.23933
G1 X77.837 Y81.833 E46.30791
G1 X76.744 Y82.417 E46.37869
G1 X75.845 Y83.155 E46.44520
G1 X75.081 Y84.080 E46.51373
G1 X74.511 Y85.138 E46.58240
G1 X74.151 Y86.324 E46.65323
G1 X74.075 Y87.104 E46.69800
G1 X74.076 Y87.914 E46.74428
G1 X74.158 Y88.712 E46.79014
G1 X74.497 Y89.826 E46.85664
G1 X75.081 Y90.919 E46.92746
G1 X75.845 Y91.843 E46.99599
G1 X76.744 Y92.582 E47.06251
G1 X77.801 Y93.151 E47.13112
G1 X78.986 Y93.511 E47.20187
G1 X80.182 Y93.625 E47.27048
G1 X81.377 Y93.503 E47.33915
G1 X82.489 Y93.166 E47.40555
G1 X83.516 Y92.621 E47.47195
G1 X85.925 Y93.460 E47.61775
G1 X87.961 Y98.143 E47.90955
G1 X87.338 Y99.934 E48.01791
G1 X87.338 Y100.065 E48.02540
G1 X87.961 Y101.856 E48.13378
G1 X85.925 Y106.540 E48.42559
G1 X83.513 Y107.378 E48.57147
G1 X82.489 Y106.833 E48.63780
G1 X81.377 Y106.496 E48.70417
G1 X80.143 Y106.374 E48.77500
G1 X78.986 Y106.488 E48.84144
G1 X77.837 Y106.833 E48.91002
G1 X76.744 Y107.417 E48.98081
G1 X75.845 Y108.155 E49.04732
G1 X75.081 Y109.080 E49.11585
G1 X74.511 Y110.138 E49.18452
G1 X74.151 Y111.324 E49.25534
G1 X74.075 Y112.104 E49.30012
G1 X74.075 Y112.895 E49.34531
G1 X74.158 Y113.712 E49.39226
G1 X74.497 Y114.826 E49.45875
G1 X75.081 Y115.919 E49.52958
G1 X75.845 Y116.843 E49.59811
G1 X76.744 Y117.582 E49.66462
G1 X77.801 Y118.151 E49.73324
