; generated by Slic3r 1.1.7 on 2014-11-30 at 11:58:09

; perimeters extrusion width = 0.40mm
; infill extrusion width = 0.42mm
; solid infill extrusion width = 0.42mm
; top infill extrusion width = 0.42mm

G21 ; set units to millimeters
M107
M104 S215 ; set temperature
G28 ; home all axes
G1 Z5 F5000 ; lift nozzle

M109 S215 ; wait for temperature to be reached
G90 ; use absolute coordinates
G92 E0
M82 ; use absolute distances for extrusion
G1 F1800.000 E-1.00000
G92 E0
G1 Z0.400 F7800.000
G1 X69.237 Y69.237 F7800.000
G1 E1.00000 F1800.000
G1 X128.673 Y9.801 E10.98281 F378.000
G1 X140.199 Y21.327 E12.91868
G1 X134.047 Y27.479 E13.95194 F378.000
G1 X125.314 Y18.746 E15.41869
G1 X121.054 Y23.006 E16.13425
G1 X129.787 Y31.739 E17.60099
G1 X31.403 Y130.123 E34.12539
G1 X22.671 Y121.390 E35.59214
G1 X18.746 Y125.314 E36.25128
G1 X27.479 Y134.047 E37.71803
G1 X21.327 Y140.199 E38.75129
G1 X9.801 Y128.673 E40.68716
G1 X69.195 Y69.280 E50.66284
G1 X110.322 Y29.162 F7800.000
G1 X128.673 Y10.811 E53.74506 F540.000
G1 X139.189 Y21.327 E55.51130
G1 X134.047 Y26.469 E56.37492
G1 X125.314 Y17.736 E57.84167
G1 X120.044 Y23.006 E58.72687
G1 X128.777 Y31.739 E60.19362
G1 X31.403 Y129.113 E76.54837
G1 X22.671 Y120.380 E78.01512
G1 X17.736 Y125.314 E78.84390
G1 X26.469 Y134.047 E80.31065
G1 X21.327 Y139.189 E81.17428
G1 X10.811 Y128.673 E82.94052
G1 X110.280 Y29.205 E99.64715 F540.000
G1 X112.568 Y31.493 F7800.000
G1 X114.902 Y29.158 E100.03924 F378.000
G1 X120.842 Y35.098 E101.03686
G1 X34.762 Y121.178 E115.49474
G1 X28.822 Y115.238 E116.49237
G1 X112.525 Y31.535 E130.55103 F378.000
G1 X112.020 Y31.030 F7800.000
G1 X114.902 Y28.148 E131.03506 F540.000
G1 X120.951 Y34.197 E132.05100
G1 X121.852 Y35.098 E132.20233 F540.000
G1 X34.762 Y122.188 E146.82984
G1 X27.812 Y115.238 E147.99710
G1 X111.978 Y31.073 E162.13346
G1 X117.518 Y22.699 F7800.000
G1 X127.301 Y32.482 E163.77671 F1080.000
G1 X126.794 Y32.989 E163.86188
G1 X117.011 Y23.206 E165.50514
G1 X116.504 Y23.713 E165.59030
G1 X126.287 Y33.496 E167.23356
G1 X125.780 Y34.003 E167.31872
G1 X115.997 Y24.220 E168.96198
G1 X115.490 Y24.727 E169.04715
G1 X125.273 Y34.510 E170.69040
G1 X124.766 Y35.018 E170.77557
G1 X114.982 Y25.234 E172.41883
G1 X114.475 Y25.741 E172.50399
G1 X124.259 Y35.525 E174.14725
G1 X123.752 Y36.032 E174.23241
G1 X113.968 Y26.248 E175.87567
G1 X113.461 Y26.755 E175.96084
G1 X114.526 Y27.820 E176.13972
G1 X114.019 Y28.327 E176.22488
G1 X112.954 Y27.262 E176.40377
G1 X112.447 Y27.769 E176.48893
G1 X113.512 Y28.834 E176.66781
G1 X113.005 Y29.341 E176.75298
G1 X111.940 Y28.276 E176.93186
G1 X111.433 Y28.783 E177.01703
G1 X112.498 Y29.848 E177.19591
G1 X111.991 Y30.355 E177.28108
G1 X110.926 Y29.290 E177.45996
G1 X110.419 Y29.797 E177.54512
G1 X111.484 Y30.862 E177.72401
G1 X110.977 Y31.369 E177.80917
G1 X109.912 Y30.304 E177.98805
G1 X109.405 Y30.811 E178.07322
G1 X110.470 Y31.877 E178.25210
G1 X109.963 Y32.384 E178.33727
G1 X108.898 Y31.319 E178.51615
G1 X108.391 Y31.826 E178.60131
G1 X109.456 Y32.891 E178.78020
G1 X108.949 Y33.398 E178.86536
G1 X107.884 Y32.333 E179.04425
G1 X107.377 Y32.840 E179.12941
G1 X108.442 Y33.905 E179.30829
G1 X107.935 Y34.412 E179.39346
G1 X106.870 Y33.347 E179.57234
G1 X106.363 Y33.854 E179.65751
G1 X107.428 Y34.919 E179.83639
G1 X106.921 Y35.426 E179.92155
G1 X105.855 Y34.361 E180.10044
G1 X105.348 Y34.868 E180.18560
G1 X106.413 Y35.933 E180.36449
G1 X105.906 Y36.440 E180.44965
G1 X104.841 Y35.375 E180.62853
G1 X104.334 Y35.882 E180.71370
G1 X105.399 Y36.947 E180.89258
G1 X104.892 Y37.454 E180.97775
G1 X103.827 Y36.389 E181.15663
G1 X103.320 Y36.896 E181.24179
G1 X104.385 Y37.961 E181.42068
G1 X103.878 Y38.468 E181.50584
G1 X102.813 Y37.403 E181.68472
G1 X102.306 Y37.910 E181.76989
G1 X103.371 Y38.975 E181.94877
G1 X102.864 Y39.482 E182.03394
G1 X101.799 Y38.417 E182.21282
G1 X101.292 Y38.924 E182.29798
G1 X102.357 Y39.989 E182.47687
G1 X101.850 Y40.496 E182.56203
G1 X100.785 Y39.431 E182.74092
G1 X100.278 Y39.938 E182.82608
G1 X101.343 Y41.003 E183.00496
G1 X100.836 Y41.511 E183.09013
G1 X99.771 Y40.445 E183.26901
G1 X99.264 Y40.953 E183.35418
G1 X100.329 Y42.018 E183.53306
G1 X99.822 Y42.525 E183.61822
G1 X98.757 Y41.460 E183.79711
G1 X98.250 Y41.967 E183.88227
G1 X99.315 Y43.032 E184.06116
G1 X98.808 Y43.539 E184.14632
G1 X97.743 Y42.474 E184.32520
G1 X97.236 Y42.981 E184.41037
G1 X98.301 Y44.046 E184.58925
G1 X97.794 Y44.553 E184.67442
G1 X96.729 Y43.488 E184.85330
G1 X96.221 Y43.995 E184.93846
G1 X97.286 Y45.060 E185.11735
G1 X96.779 Y45.567 E185.20251
G1 X95.714 Y44.502 E185.38139
G1 X95.207 Y45.009 E185.46656
G1 X96.272 Y46.074 E185.64544
G1 X95.765 Y46.581 E185.73061
G1 X94.700 Y45.516 E185.90949
G1 X94.193 Y46.023 E185.99466
G1 X95.258 Y47.088 E186.17354
G1 X94.751 Y47.595 E186.25870
G1 X93.686 Y46.530 E186.43759
G1 X93.179 Y47.037 E186.52275
G1 X94.244 Y48.102 E186.70163
G1 X93.737 Y48.609 E186.78680
G1 X92.672 Y47.544 E186.96568
G1 X92.165 Y48.051 E187.05085
G1 X93.230 Y49.116 E187.22973
G1 X92.723 Y49.623 E187.31489
G1 X91.658 Y48.558 E187.49378
G1 X91.151 Y49.065 E187.57894
G1 X92.216 Y50.130 E187.75783
G1 X91.709 Y50.638 E187.84299
G1 X90.644 Y49.572 E188.02187
G1 X90.137 Y50.080 E188.10704
G1 X91.202 Y51.145 E188.28592
G1 X90.695 Y51.652 E188.37109
G1 X89.630 Y50.587 E188.54997
G1 X89.123 Y51.094 E188.63513
G1 X90.188 Y52.159 E188.81402
G1 X89.681 Y52.666 E188.89918
G1 X88.616 Y51.601 E189.07807
G1 X88.109 Y52.108 E189.16323
G1 X89.174 Y53.173 E189.34211
G1 X88.667 Y53.680 E189.42728
G1 X87.602 Y52.615 E189.60616
G1 X87.094 Y53.122 E189.69133
G1 X88.160 Y54.187 E189.87021
G1 X87.652 Y54.694 E189.95537
G1 X86.587 Y53.629 E190.13426
G1 X86.080 Y54.136 E190.21942
G1 X87.145 Y55.201 E190.39830
G1 X86.638 Y55.708 E190.48347
G1 X85.573 Y54.643 E190.66235
G1 X85.066 Y55.150 E190.74752
G1 X86.131 Y56.215 E190.92640
G1 X85.624 Y56.722 E191.01156
G1 X84.559 Y55.657 E191.19045
G1 X84.052 Y56.164 E191.27561
G1 X85.117 Y57.229 E191.45450
G1 X84.610 Y57.736 E191.53966
G1 X83.545 Y56.671 E191.71854
G1 X83.038 Y57.178 E191.80371
G1 X84.103 Y58.243 E191.98259
G1 X83.596 Y58.750 E192.06776
G1 X82.531 Y57.685 E192.24664
G1 X82.024 Y58.192 E192.33180
G1 X83.089 Y59.257 E192.51069
G1 X82.582 Y59.764 E192.59585
G1 X81.517 Y58.699 E192.77474
G1 X81.010 Y59.207 E192.85990
G1 X82.075 Y60.272 E193.03878
G1 X81.568 Y60.779 E193.12395
G1 X80.503 Y59.714 E193.30283
G1 X79.996 Y60.221 E193.38800
G1 X81.061 Y61.286 E193.56688
G1 X80.554 Y61.793 E193.65204
G1 X79.489 Y60.728 E193.83093
G1 X78.982 Y61.235 E193.91609
G1 X80.047 Y62.300 E194.09497
G1 X79.540 Y62.807 E194.18014
G1 X78.475 Y61.742 E194.35902
G1 X77.968 Y62.249 E194.44419
G1 X79.033 Y63.314 E194.62307
G1 X78.525 Y63.821 E194.70824
G1 X77.460 Y62.756 E194.88712
G1 X76.953 Y63.263 E194.97228
G1 X78.018 Y64.328 E195.15117
G1 X77.511 Y64.835 E195.23633
G1 X76.446 Y63.770 E195.41521
G1 X75.939 Y64.277 E195.50038
G1 X77.004 Y65.342 E195.67926
G1 X76.497 Y65.849 E195.76443
G1 X75.432 Y64.784 E195.94331
G1 X74.925 Y65.291 E196.02847
G1 X75.990 Y66.356 E196.20736
G1 X75.483 Y66.863 E196.29252
G1 X74.418 Y65.798 E196.47141
G1 X73.911 Y66.305 E196.55657
G1 X74.976 Y67.370 E196.73545
G1 X74.469 Y67.877 E196.82062
G1 X73.404 Y66.812 E196.99950
G1 X72.897 Y67.319 E197.08467
G1 X73.962 Y68.384 E197.26355
G1 X73.455 Y68.891 E197.34871
G1 X72.390 Y67.826 E197.52760
G1 X71.883 Y68.333 E197.61276
G1 X72.948 Y69.399 E197.79165
G1 X72.441 Y69.906 E197.87681
G1 X71.376 Y68.841 E198.05569
G1 X70.869 Y69.348 E198.14086
G1 X71.934 Y70.413 E198.31974
G1 X71.427 Y70.920 E198.40491
G1 X70.362 Y69.855 E198.58379
G1 X69.855 Y70.362 E198.66895
G1 X70.920 Y71.427 E198.84784
G1 X70.413 Y71.934 E198.93300
G1 X69.348 Y70.869 E199.11188
G1 X68.841 Y71.376 E199.19705
G1 X69.906 Y72.441 E199.37593
G1 X69.399 Y72.948 E199.46110
G1 X68.333 Y71.883 E199.63998
G1 X67.826 Y72.390 E199.72514
G1 X68.891 Y73.455 E199.90403
G1 X68.384 Y73.962 E199.98919
G1 X67.319 Y72.897 E200.16808
G1 X66.812 Y73.404 E200.25324
G1 X67.877 Y74.469 E200.43212
G1 X67.370 Y74.976 E200.51729
G1 X66.305 Y73.911 E200.69617
G1 X65.798 Y74.418 E200.78134
G1 X66.863 Y75.483 E200.96022
G1 X66.356 Y75.990 E201.04538
G1 X65.291 Y74.925 E201.22427
G1 X64.784 Y75.432 E201.30943
G1 X65.849 Y76.497 E201.48832
G1 X65.342 Y77.004 E201.57348
G1 X64.277 Y75.939 E201.75236
G1 X63.770 Y76.446 E201.83753
G1 X64.835 Y77.511 E202.01641
G1 X64.328 Y78.018 E202.10158
G1 X63.263 Y76.953 E202.28046
G1 X62.756 Y77.460 E202.36562
G1 X63.821 Y78.525 E202.54451
G1 X63.314 Y79.033 E202.62967
G1 X62.249 Y77.968 E202.80855
G1 X61.742 Y78.475 E202.89372
G1 X62.807 Y79.540 E203.07260
G1 X62.300 Y80.047 E203.15777
G1 X61.235 Y78.982 E203.33665
G1 X60.728 Y79.489 E203.42182
G1 X61.793 Y80.554 E203.60070
G1 X61.286 Y81.061 E203.68586
G1 X60.221 Y79.996 E203.86475
G1 X59.714 Y80.503 E203.94991
G1 X60.779 Y81.568 E204.12879
G1 X60.272 Y82.075 E204.21396
G1 X59.206 Y81.010 E204.39284
G1 X58.699 Y81.517 E204.47801
G1 X59.764 Y82.582 E204.65689
G1 X59.257 Y83.089 E204.74205
G1 X58.192 Y82.024 E204.92094
G1 X57.685 Y82.531 E205.00610
G1 X58.750 Y83.596 E205.18499
G1 X58.243 Y84.103 E205.27015
G1 X57.178 Y83.038 E205.44903
G1 X56.671 Y83.545 E205.53420
G1 X57.736 Y84.610 E205.71308
G1 X57.229 Y85.117 E205.79825
G1 X56.164 Y84.052 E205.97713
G1 X55.657 Y84.559 E206.06229
G1 X56.722 Y85.624 E206.24118
G1 X56.215 Y86.131 E206.32634
G1 X55.150 Y85.066 E206.50523
G1 X54.643 Y85.573 E206.59039
G1 X55.708 Y86.638 E206.76927
G1 X55.201 Y87.145 E206.85444
G1 X54.136 Y86.080 E207.03332
G1 X53.629 Y86.587 E207.11849
G1 X54.694 Y87.652 E207.29737
G1 X54.187 Y88.160 E207.38253
G1 X53.122 Y87.094 E207.56142
G1 X52.615 Y87.602 E207.64658
G1 X53.680 Y88.667 E207.82546
G1 X53.173 Y89.174 E207.91063
G1 X52.108 Y88.109 E208.08951
G1 X51.601 Y88.616 E208.17468
G1 X52.666 Y89.681 E208.35356
G1 X52.159 Y90.188 E208.43872
G1 X51.094 Y89.123 E208.61761
G1 X50.587 Y89.630 E208.70277
G1 X51.652 Y90.695 E208.88166
G1 X51.145 Y91.202 E208.96682
G1 X50.080 Y90.137 E209.14570
G1 X49.572 Y90.644 E209.23087
G1 X50.638 Y91.709 E209.40975
G1 X50.130 Y92.216 E209.49492
G1 X49.065 Y91.151 E209.67380
G1 X48.558 Y91.658 E209.75896
G1 X49.623 Y92.723 E209.93785
G1 X49.116 Y93.230 E210.02301
G1 X48.051 Y92.165 E210.20190
G1 X47.544 Y92.672 E210.28706
G1 X48.609 Y93.737 E210.46594
G1 X48.102 Y94.244 E210.55111
G1 X47.037 Y93.179 E210.72999
G1 X46.530 Y93.686 E210.81516
G1 X47.595 Y94.751 E210.99404
G1 X47.088 Y95.258 E211.07920
G1 X46.023 Y94.193 E211.25809
G1 X45.516 Y94.700 E211.34325
G1 X46.581 Y95.765 E211.52214
G1 X46.074 Y96.272 E211.60730
G1 X45.009 Y95.207 E211.78618
G1 X44.502 Y95.714 E211.87135
G1 X45.567 Y96.779 E212.05023
G1 X45.060 Y97.287 E212.13540
G1 X43.995 Y96.221 E212.31428
G1 X43.488 Y96.729 E212.39944
G1 X44.553 Y97.794 E212.57833
G1 X44.046 Y98.301 E212.66349
G1 X42.981 Y97.236 E212.84237
G1 X42.474 Y97.743 E212.92754
G1 X43.539 Y98.808 E213.10642
G1 X43.032 Y99.315 E213.19159
G1 X41.967 Y98.250 E213.37047
G1 X41.460 Y98.757 E213.45563
G1 X42.525 Y99.822 E213.63452
G1 X42.018 Y100.329 E213.71968
G1 X40.953 Y99.264 E213.89857
G1 X40.445 Y99.771 E213.98373
G1 X41.511 Y100.836 E214.16261
G1 X41.003 Y101.343 E214.24778
G1 X39.938 Y100.278 E214.42666
G1 X39.431 Y100.785 E214.51183
G1 X40.496 Y101.850 E214.69071
G1 X39.989 Y102.357 E214.77587
G1 X38.924 Y101.292 E214.95476
G1 X38.417 Y101.799 E215.03992
G1 X39.482 Y102.864 E215.21881
G1 X38.975 Y103.371 E215.30397
G1 X37.910 Y102.306 E215.48285
G1 X37.403 Y102.813 E215.56802
G1 X38.468 Y103.878 E215.74690
G1 X37.961 Y104.385 E215.83207
G1 X36.896 Y103.320 E216.01095
G1 X36.389 Y103.827 E216.09611
G1 X37.454 Y104.892 E216.27500
G1 X36.947 Y105.399 E216.36016
G1 X35.882 Y104.334 E216.53904
G1 X35.375 Y104.841 E216.62421
G1 X36.440 Y105.906 E216.80309
G1 X35.933 Y106.413 E216.88826
G1 X34.868 Y105.348 E217.06714
G1 X34.361 Y105.855 E217.15230
G1 X35.426 Y106.921 E217.33119
G1 X34.919 Y107.428 E217.41635
G1 X33.854 Y106.363 E217.59524
G1 X33.347 Y106.870 E217.68040
G1 X34.412 Y107.935 E217.85928
G1 X33.905 Y108.442 E217.94445
G1 X32.840 Y107.377 E218.12333
G1 X32.333 Y107.884 E218.20850
G1 X33.398 Y108.949 E218.38738
G1 X32.891 Y109.456 E218.47254
G1 X31.826 Y108.391 E218.65143
G1 X31.319 Y108.898 E218.73659
G1 X32.384 Y109.963 E218.91548
G1 X31.876 Y110.470 E219.00064
G1 X30.811 Y109.405 E219.17952
G1 X30.304 Y109.912 E219.26469
G1 X31.369 Y110.977 E219.44357
G1 X30.862 Y111.484 E219.52874
G1 X29.797 Y110.419 E219.70762
G1 X29.290 Y110.926 E219.79278
G1 X30.355 Y111.991 E219.97167
G1 X29.848 Y112.498 E220.05683
G1 X28.783 Y111.433 E220.23572
G1 X28.276 Y111.940 E220.32088
G1 X29.341 Y113.005 E220.49976
G1 X28.834 Y113.512 E220.58493
G1 X27.769 Y112.447 E220.76381
G1 X27.262 Y112.954 E220.84898
G1 X28.327 Y114.019 E221.02786
G1 X27.820 Y114.526 E221.11302
G1 X26.755 Y113.461 E221.29191
G1 X26.248 Y113.968 E221.37707
G1 X27.313 Y115.033 E221.55595
G1 X25.741 Y114.475 F7800.000
G1 X35.525 Y124.259 E223.19921 F1080.000
G1 X36.032 Y123.752 E223.28438
G1 X34.967 Y122.687 E223.46326
G1 X35.474 Y122.180 E223.54842
G1 X36.539 Y123.245 E223.72731
G1 X37.046 Y122.738 E223.81247
G1 X35.981 Y121.673 E223.99136
G1 X36.488 Y121.166 E224.07652
G1 X37.553 Y122.231 E224.25540
G1 X38.060 Y121.724 E224.34057
G1 X36.995 Y120.659 E224.51945
G1 X37.502 Y120.152 E224.60462
G1 X38.567 Y121.217 E224.78350
G1 X39.074 Y120.710 E224.86866
G1 X38.009 Y119.645 E225.04755
G1 X38.516 Y119.138 E225.13271
G1 X39.581 Y120.203 E225.31160
G1 X40.088 Y119.696 E225.39676
G1 X39.023 Y118.631 E225.57564
G1 X39.530 Y118.124 E225.66081
G1 X40.595 Y119.189 E225.83969
G1 X41.102 Y118.681 E225.92486
G1 X40.037 Y117.616 E226.10374
G1 X40.544 Y117.109 E226.18890
G1 X41.609 Y118.174 E226.36779
G1 X42.116 Y117.667 E226.45295
G1 X41.051 Y116.602 E226.63183
G1 X41.558 Y116.095 E226.71700
G1 X42.623 Y117.160 E226.89588
G1 X43.130 Y116.653 E226.98105
G1 X42.065 Y115.588 E227.15993
G1 X42.572 Y115.081 E227.24510
G1 X43.637 Y116.146 E227.42398
G1 X44.145 Y115.639 E227.50914
G1 X43.079 Y114.574 E227.68803
G1 X43.587 Y114.067 E227.77319
G1 X44.652 Y115.132 E227.95207
G1 X45.159 Y114.625 E228.03724
G1 X44.094 Y113.560 E228.21612
G1 X44.601 Y113.053 E228.30129
G1 X45.666 Y114.118 E228.48017
G1 X46.173 Y113.611 E228.56533
G1 X45.108 Y112.546 E228.74422
G1 X45.615 Y112.039 E228.82938
G1 X46.680 Y113.104 E229.00827
G1 X47.187 Y112.597 E229.09343
G1 X46.122 Y111.532 E229.27231
G1 X46.629 Y111.025 E229.35748
G1 X47.694 Y112.090 E229.53636
G1 X48.201 Y111.583 E229.62153
G1 X47.136 Y110.518 E229.80041
G1 X47.643 Y110.011 E229.88557
G1 X48.708 Y111.076 E230.06446
G1 X49.215 Y110.569 E230.14962
G1 X48.150 Y109.504 E230.32851
G1 X48.657 Y108.997 E230.41367
G1 X49.722 Y110.062 E230.59255
G1 X50.229 Y109.555 E230.67772
G1 X49.164 Y108.489 E230.85660
G1 X49.671 Y107.982 E230.94177
G1 X50.736 Y109.047 E231.12065
G1 X51.243 Y108.540 E231.20581
G1 X50.178 Y107.475 E231.38470
G1 X50.685 Y106.968 E231.46986
G1 X51.750 Y108.033 E231.64874
G1 X52.257 Y107.526 E231.73391
G1 X51.192 Y106.461 E231.91279
G1 X51.699 Y105.954 E231.99796
G1 X52.764 Y107.019 E232.17684
G1 X53.271 Y106.512 E232.26200
G1 X52.206 Y105.447 E232.44089
G1 X52.713 Y104.940 E232.52605
G1 X53.779 Y106.005 E232.70494
G1 X54.286 Y105.498 E232.79010
G1 X53.221 Y104.433 E232.96898
G1 X53.728 Y103.926 E233.05415
G1 X54.793 Y104.991 E233.23303
G1 X55.300 Y104.484 E233.31820
G1 X54.235 Y103.419 E233.49708
G1 X54.742 Y102.912 E233.58224
G1 X55.807 Y103.977 E233.76113
G1 X56.314 Y103.470 E233.84629
G1 X55.249 Y102.405 E234.02518
G1 X55.756 Y101.898 E234.11034
G1 X56.821 Y102.963 E234.28922
G1 X57.328 Y102.456 E234.37439
G1 X56.263 Y101.391 E234.55327
G1 X56.770 Y100.884 E234.63844
G1 X57.835 Y101.949 E234.81732
G1 X58.342 Y101.442 E234.90248
G1 X57.277 Y100.377 E235.08137
G1 X57.784 Y99.870 E235.16653
G1 X58.849 Y100.935 E235.34541
G1 X59.356 Y100.428 E235.43058
G1 X58.291 Y99.362 E235.60946
G1 X58.798 Y98.855 E235.69463
G1 X59.863 Y99.920 E235.87351
G1 X60.370 Y99.413 E235.95868
G1 X59.305 Y98.348 E236.13756
G1 X59.812 Y97.841 E236.22272
G1 X60.877 Y98.906 E236.40161
