; generated by Slic3r 1.1.7 on 2014-11-29 at 23:50:04

; perimeters extrusion width = 0.40mm
; infill extrusion width = 0.67mm
; solid infill extrusion width = 0.67mm
; top infill extrusion width = 0.67mm

G21 ; set units to millimeters
M107
M104 S215 ; set temperature
G28 ; home all axes
G1 Z5 F5000 ; lift nozzle

M109 S215 ; wait for temperature to be reached
G90 ; use absolute coordinates
G92 E0
M82 ; use absolute distances for extrusion
G1 F1800.000 E-1.00000
G92 E0
G1 Z0.300 F7800.000
G1 X55.679 Y64.789 F7800.000
G1 E1.00000 F1800.000
G1 X58.393 Y62.872 E1.23086 F1080.000
G1 X62.230 Y61.436 E1.51554
G1 X63.094 Y61.155 E1.57867
G1 X64.077 Y60.905 E1.64916
G1 X65.072 Y60.725 E1.71942
G1 X65.561 Y60.662 E1.75366
G1 X66.074 Y60.613 E1.78948
G1 X67.016 Y60.569 E1.85498
G1 X80.057 Y60.443 E2.76118
G1 X88.553 Y60.443 E3.35150
G1 X90.800 Y60.840 E3.51003
G1 X93.190 Y62.363 E3.70693 F1080.000
G1 X93.940 Y63.113 E3.78062
G1 X95.248 Y64.983 E3.93915
G1 X95.861 Y67.750 E4.13610
G1 X95.861 Y82.250 E5.14359
G1 X95.464 Y84.497 E5.30212
G1 X93.940 Y86.887 E5.49906
G1 X93.190 Y87.637 E5.57278
G1 X91.320 Y88.945 E5.73131
G1 X88.553 Y89.557 E5.92819
G1 X79.993 Y89.557 E6.52296
G1 X66.848 Y89.426 E7.43640
G1 X65.841 Y89.366 E7.50645
G1 X65.352 Y89.312 E7.54064
G1 X64.354 Y89.151 E7.61089
G1 X63.355 Y88.917 E7.68218
G1 X62.764 Y88.743 E7.72499
G1 X62.023 Y88.489 E7.77938
G1 X60.843 Y88.046 E7.86701
G1 X58.393 Y87.127 E8.04883
G1 X56.429 Y85.966 E8.20736
G1 X54.981 Y84.202 E8.36589
G1 X54.139 Y80.988 E8.59675
G1 X54.139 Y69.011 E9.42893
G1 X54.536 Y66.764 E9.58746
G1 X55.649 Y64.841 E9.74182
G1 F1800.000 E8.74182
G92 E0
G1 X85.729 Y81.799 F7800.000
G1 E1.00000 F1800.000
G1 X81.556 Y81.799 E1.28998 F378.000
G1 X81.238 Y81.757 E1.31225
G1 X80.924 Y81.627 E1.33584
G1 X80.655 Y81.421 E1.35944
G1 X80.447 Y81.150 E1.38314
G1 X80.317 Y80.836 E1.40674
G1 X80.275 Y80.519 E1.42900
G1 X80.275 Y69.479 E2.19604
G1 X80.317 Y69.163 E2.21822
G1 X80.448 Y68.847 E2.24193
G1 X80.655 Y68.579 E2.26547
G1 X80.924 Y68.371 E2.28914
G1 X81.238 Y68.242 E2.31273
G1 X81.555 Y68.199 E2.33497
G1 X85.729 Y68.199 E2.62494
G1 X85.729 Y81.739 E3.56572
G1 X85.729 Y82.199 F7800.000
G1 X86.843 Y81.586 F7800.000
G1 X86.843 Y68.414 E4.48092 F540.000
G1 X87.889 Y68.414 E4.55364
G1 X87.889 Y81.586 E5.46884
G1 X86.903 Y81.586 E5.53734
G1 X86.286 Y82.143 F7800.000
G1 X86.286 Y67.857 E6.52994 F540.000
G1 X88.198 Y67.857 E6.66285
G1 X88.446 Y68.105 E6.68722
G1 X88.446 Y81.895 E7.64537
G1 X88.198 Y82.143 E7.66974
G1 X86.346 Y82.143 E7.79842
G1 F1800.000 E6.79842
G92 E0
G1 X79.718 Y76.347 F7800.000
G1 E1.00000 F1800.000
G1 X78.990 Y75.784 E1.06396 F540.000
G1 X78.540 Y75.599 E1.09774
G1 X78.115 Y75.542 E1.12755
G1 X62.152 Y75.542 E2.23671
G1 X61.958 Y75.517 E2.25033
G1 X61.829 Y75.464 E2.25999
G1 X61.718 Y75.378 E2.26974
G1 X61.633 Y75.268 E2.27941
G1 X61.579 Y75.138 E2.28915
G1 X61.561 Y74.999 E2.29889
G1 X61.579 Y74.862 E2.30853
G1 X61.633 Y74.731 E2.31832
G1 X61.718 Y74.620 E2.32807
G1 X61.828 Y74.536 E2.33768
G1 X61.959 Y74.482 E2.34748
G1 X62.153 Y74.456 E2.36111
G1 X78.114 Y74.456 E3.47007
G1 X78.539 Y74.401 E3.49988
G1 X78.990 Y74.213 E3.53384
G1 X79.718 Y73.657 E3.59750
G1 X79.718 Y76.287 E3.78024
G1 X79.357 Y80.913 F7800.000
G1 X77.813 Y80.913 E3.88757 F378.000
G1 X77.796 Y80.485 E3.91734
G1 X78.050 Y80.465 E3.93505
G1 X78.287 Y80.408 E3.95196
G1 X78.512 Y80.315 E3.96887
G1 X78.692 Y80.204 E3.98359
G1 X78.904 Y80.030 E4.00267
G1 X79.062 Y79.845 E4.01958
G1 X79.189 Y79.637 E4.03649
G1 X79.282 Y79.414 E4.05329
G1 X79.340 Y79.165 E4.07101
G1 X79.357 Y78.945 E4.08638
G1 X79.357 Y77.379 E4.19515
G1 X79.316 Y77.063 E4.21734
G1 X79.185 Y76.747 E4.24105
G1 X78.978 Y76.479 E4.26459
G1 X78.709 Y76.271 E4.28826
G1 X78.395 Y76.142 E4.31185
G1 X78.078 Y76.099 E4.33409
G1 X62.116 Y76.099 E5.44315
G1 X61.813 Y76.060 E5.46440
G1 X61.548 Y75.950 E5.48430
G1 X61.320 Y75.775 E5.50424
G1 X61.147 Y75.549 E5.52408
G1 X61.037 Y75.284 E5.54401
G1 X60.999 Y74.999 E5.56395
G1 X61.037 Y74.716 E5.58382
G1 X61.147 Y74.451 E5.60373
G1 X61.321 Y74.223 E5.62367
G1 X61.548 Y74.049 E5.64353
G1 X61.813 Y73.939 E5.66348
G1 X62.116 Y73.899 E5.68474
G1 X78.077 Y73.899 E6.79373
G1 X78.394 Y73.858 E6.81596
G1 X78.709 Y73.727 E6.83963
G1 X78.978 Y73.521 E6.86319
G1 X79.186 Y73.250 E6.88689
G1 X79.316 Y72.936 E6.91049
G1 X79.357 Y72.619 E6.93276
G1 X79.357 Y71.054 E7.04146
G1 X79.339 Y70.823 E7.05755
G1 X79.283 Y70.587 E7.07446
G1 X79.189 Y70.362 E7.09136
G1 X79.062 Y70.154 E7.10827
G1 X78.904 Y69.969 E7.12518
G1 X78.719 Y69.811 E7.14209
G1 X78.512 Y69.684 E7.15900
G1 X78.287 Y69.591 E7.17591
G1 X78.050 Y69.534 E7.19282
G1 X77.796 Y69.514 E7.21054
G1 X77.813 Y69.086 E7.24031
G1 X79.357 Y69.086 E7.34764
G1 X79.367 Y67.891 E7.43070
G1 X79.435 Y67.683 E7.44590
G1 X79.492 Y67.589 E7.45352
G1 X79.646 Y67.435 E7.46871
G1 X79.841 Y67.335 E7.48392
G1 X80.069 Y67.300 E7.49993
G1 X88.429 Y67.300 E8.08080
G1 X89.004 Y67.874 E8.13723
G1 X89.004 Y82.126 E9.12744
G1 X88.429 Y82.700 E9.18388
G1 X79.948 Y82.690 E9.77316
G1 X79.740 Y82.623 E9.78835
G1 X79.564 Y82.495 E9.80351
G1 X79.492 Y82.411 E9.81118
G1 X79.393 Y82.216 E9.82637
G1 X79.357 Y81.988 E9.84239
G1 X79.357 Y80.973 E9.91293
G1 X79.357 Y80.513 F7800.000
G1 F1800.000 E8.91293
G92 E0
G1 X70.274 Y81.656 F7800.000
G1 E1.00000 F1800.000
G1 X69.244 Y81.922 E1.07392 F540.000
G1 X67.613 Y82.006 E1.18743
G1 X67.087 Y82.016 E1.22396
G1 X66.590 Y81.990 E1.25857
G1 X65.839 Y81.887 E1.31121
G1 X65.111 Y81.710 E1.36328
G1 X64.612 Y81.541 E1.39987
G1 X63.049 Y80.955 E1.51585
G1 X63.116 Y80.589 E1.54172
G1 X69.338 Y80.600 E1.97406
G1 X69.646 Y80.771 E1.99854
G1 X70.022 Y81.059 E2.03145
G1 X70.251 Y81.601 E2.07231
G1 X71.105 Y82.017 F7800.000
G1 X69.329 Y82.476 E2.19977 F378.000
G1 X67.632 Y82.563 E2.31783
G1 X67.082 Y82.573 E2.35605
G1 X66.272 Y82.517 E2.41246
G1 X65.470 Y82.379 E2.46904
G1 X64.947 Y82.242 E2.50659
G1 X64.425 Y82.066 E2.54485
G1 X61.057 Y80.803 E2.79480
G1 X61.607 Y80.330 E2.84519
G1 X61.975 Y80.141 E2.87395
G1 X62.152 Y80.085 E2.88681
G1 X62.578 Y80.031 E2.91669
G1 X69.440 Y80.043 E3.39346
G1 X69.835 Y80.229 E3.42379
G1 X70.186 Y80.483 E3.45390
G1 X70.383 Y80.483 E3.46761
G1 X70.816 Y81.507 E3.54485
G1 X71.074 Y81.965 E3.58141
G1 X70.712 Y81.944 F7800.000
G1 F1800.000 E2.58141
G92 E0
G1 X70.274 Y68.344 F7800.000
G1 E1.00000 F1800.000
G1 X70.022 Y68.940 E1.04496 F540.000
G1 X69.646 Y69.228 E1.07788
G1 X69.338 Y69.399 E1.10235
G1 X63.116 Y69.410 E1.53469
G1 X63.049 Y69.044 E1.56057
G1 X64.612 Y68.458 E1.67654
G1 X65.111 Y68.289 E1.71313
G1 X65.592 Y68.163 E1.74772
G1 X66.088 Y68.069 E1.78279
G1 X66.590 Y68.009 E1.81787
G1 X67.087 Y67.983 E1.85248
G1 X67.613 Y67.993 E1.88902
G1 X69.239 Y68.077 E2.00218
G1 X70.216 Y68.329 E2.07226
G1 X71.105 Y67.983 F7800.000
G1 X70.816 Y68.492 E2.11291 F378.000
G1 X70.383 Y69.516 E2.19015
G1 X70.186 Y69.516 E2.20387
G1 X69.835 Y69.770 E2.23398
G1 X69.440 Y69.956 E2.26431
G1 X62.578 Y69.968 E2.74108
G1 X62.152 Y69.914 E2.77095
G1 X61.975 Y69.858 E2.78382
G1 X61.608 Y69.669 E2.81255
G1 X61.058 Y69.196 E2.86292
G1 X64.425 Y67.933 E3.11277
G1 X64.947 Y67.757 E3.15103
G1 X65.470 Y67.620 E3.18858
G1 X66.272 Y67.482 E3.24516
G1 X67.082 Y67.426 E3.30157
G1 X67.632 Y67.436 E3.33979
G1 X69.324 Y67.523 E3.45751
G1 X71.047 Y67.968 E3.58112
G1 X70.779 Y68.215 F7800.000
G1 F1800.000 E2.58112
G92 E0
G1 X77.504 Y80.698 F7800.000
G1 E1.00000 F1800.000
G1 X70.800 Y80.698 E1.46583 F378.000
G1 F1800.000 E0.46583
G92 E0
G1 X83.648 Y80.999 F7800.000
G1 E1.00000 F1800.000
G1 X83.648 Y68.999 E1.83378 F378.000
G1 F1800.000 E0.83378
G92 E0
G1 X77.504 Y69.301 F7800.000
G1 E1.00000 F1800.000
G1 X70.800 Y69.301 E1.46582 F378.000
G1 F1800.000 E0.46582
G92 E0
G1 X69.998 Y81.392 F7800.000
G1 E1.00000 F1800.000
G1 X69.185 Y81.258 E1.04309 F360.000
G1 X67.588 Y81.302 E1.12652
G1 X66.878 Y81.302 E1.16364
G1 X65.961 Y81.246 E1.21166
G1 X65.037 Y81.130 E1.26026
G1 F1800.000 E0.26026
G92 E0
G1 X61.846 Y75.033 F7800.000
G1 E1.00000 F1800.000
G1 X62.189 Y74.999 E1.01798 F360.000
G1 X78.120 Y74.999 E1.85030
G1 F1800.000 E0.85030
G92 E0
G1 X69.998 Y68.608 F7800.000
G1 E1.00000 F1800.000
G1 X69.185 Y68.742 E1.04303 F360.000
G1 X67.588 Y68.697 E1.12648
G1 X66.878 Y68.697 E1.16359
G1 X65.961 Y68.753 E1.21161
G1 X65.037 Y68.869 E1.26021
G1 F1800.000 E0.26021
G92 E0
G1 X79.761 Y70.377 F7800.000
G1 E1.00000 F1800.000
G1 X79.816 Y71.029 E1.03421 F360.000
G1 X79.816 Y72.660 E1.11944
G1 X79.794 Y72.994 E1.13688
G1 X79.606 Y73.252 E1.15358
G1 X80.902 Y67.791 F7800.000
G1 X81.537 Y67.749 E1.18679 F360.000
G1 X86.007 Y67.749 E1.42035
G1 X87.366 Y68.693 F7800.000
G1 X87.366 Y81.307 E2.07940 F360.000
G1 F1800.000 E1.07940
G92 E0
G1 X79.761 Y79.622 F7800.000
G1 E1.00000 F1800.000
G1 X79.816 Y78.970 E1.03421 F360.000
G1 X79.816 Y77.337 E1.11950
G1 X79.794 Y77.014 E1.13644
G1 X79.611 Y76.757 E1.15292
G1 X80.906 Y82.209 F7800.000
G1 X81.538 Y82.249 E1.18600 F360.000
G1 X86.008 Y82.250 E1.41955
M106 S255
M104 S210 ; set temperature
G1 F1800.000 E0.41955
G92 E0
G1 Z0.500 F7800.000
G1 X85.838 Y68.299 F7800.000
G1 E1.00000 F1800.000
G1 X85.839 Y81.699 E1.44569 F874.489
G1 X81.562 Y81.699 E1.58793
G1 X81.264 Y81.660 E1.59793
G1 X80.975 Y81.540 E1.60835
G1 X80.726 Y81.350 E1.61877
G1 X80.535 Y81.100 E1.62923
G1 X80.415 Y80.810 E1.63966
G1 X80.375 Y80.512 E1.64966
G1 X80.375 Y69.486 E2.01639
G1 X80.415 Y69.189 E2.02636
G1 X80.535 Y68.898 E2.03683
G1 X80.726 Y68.650 E2.04723
G1 X80.975 Y68.458 E2.05768
G1 X81.264 Y68.339 E2.06810
G1 X81.562 Y68.299 E2.07809
G1 X85.778 Y68.299 E2.21833
G1 X86.238 Y68.299 F7800.000
G1 F1800.000 E1.21833
G92 E0
G1 X79.657 Y80.613 F7800.000
G1 E1.00000 F1800.000
G1 X78.683 Y80.613 E1.03241 F1249.269
G1 X79.117 Y80.242 E1.05139
G1 X79.306 Y80.021 E1.06105
G1 X79.458 Y79.774 E1.07071
G1 X79.568 Y79.508 E1.08028
G1 X79.627 Y79.271 E1.08842
G1 X79.668 Y78.822 E1.10339
G1 X79.975 Y78.834 E1.11362
G1 X79.975 Y80.334 E1.16349
G1 X79.949 Y80.334 E1.16439
G1 X80.025 Y80.915 E1.18387
G1 X80.185 Y81.301 E1.19779
G1 X80.441 Y81.635 E1.21177
G1 X80.773 Y81.889 E1.22570
G1 X81.160 Y82.050 E1.23961
G1 X81.551 Y82.101 E1.25272
G1 X81.531 Y82.400 E1.26269
G1 X80.081 Y82.400 E1.31091
G1 X79.934 Y82.379 E1.31584
G1 X79.823 Y82.322 E1.31999
G1 X79.703 Y82.181 E1.32617
G1 X79.664 Y82.062 E1.33031
G1 X79.657 Y80.673 E1.37652
G1 X79.575 Y76.056 F7800.000
G1 X79.062 Y75.659 E1.39809 F1249.269
G1 X78.578 Y75.460 E1.41552
G1 X78.125 Y75.399 E1.43072
G1 X62.161 Y75.399 E1.96167
G1 X61.995 Y75.377 E1.96725
G1 X61.901 Y75.339 E1.97062
G1 X61.820 Y75.276 E1.97404
G1 X61.758 Y75.195 E1.97742
G1 X61.719 Y75.101 E1.98083
G1 X61.705 Y74.999 E1.98423
G1 X61.719 Y74.899 E1.98759
G1 X61.758 Y74.803 E1.99104
G1 X61.820 Y74.722 E1.99445
G1 X61.900 Y74.661 E1.99779
G1 X61.996 Y74.621 E2.00124
G1 X62.163 Y74.599 E2.00683
G1 X78.123 Y74.599 E2.53767
G1 X78.576 Y74.540 E2.55286
G1 X79.062 Y74.338 E2.57039
G1 X79.575 Y73.946 E2.59186
G1 X79.575 Y75.996 E2.66004
G1 X79.676 Y77.503 F7800.000
G1 X79.608 Y76.985 E2.67745 F1249.269
G1 X79.447 Y76.596 E2.69144
G1 X79.192 Y76.265 E2.70532
G1 X78.860 Y76.009 E2.71928
G1 X78.473 Y75.850 E2.73320
G1 X78.098 Y75.799 E2.74580
G1 X62.135 Y75.799 E3.27672
G1 X61.891 Y75.767 E3.28492
G1 X61.699 Y75.688 E3.29181
G1 X61.534 Y75.561 E3.29872
G1 X61.409 Y75.397 E3.30560
G1 X61.329 Y75.205 E3.31251
G1 X61.302 Y74.999 E3.31943
G1 X61.329 Y74.794 E3.32630
G1 X61.409 Y74.602 E3.33322
G1 X61.535 Y74.437 E3.34014
G1 X61.699 Y74.311 E3.34701
G1 X61.891 Y74.231 E3.35394
G1 X62.136 Y74.199 E3.36215
G1 X78.097 Y74.199 E3.89300
G1 X78.472 Y74.150 E3.90560
G1 X78.860 Y73.989 E3.91958
G1 X79.192 Y73.735 E3.93347
G1 X79.448 Y73.401 E3.94746
G1 X79.608 Y73.015 E3.96137
G1 X79.676 Y72.494 E3.97883
G1 X79.975 Y72.514 E3.98880
G1 X79.975 Y77.484 E4.15409
G1 X79.736 Y77.500 E4.16207
G1 X79.657 Y69.386 F7800.000
G1 X79.664 Y67.938 E4.21024 F1249.269
G1 X79.703 Y67.819 E4.21438
G1 X79.823 Y67.678 E4.22056
G1 X79.934 Y67.621 E4.22471
G1 X80.081 Y67.600 E4.22963
G1 X81.519 Y67.600 E4.27745
G1 X81.539 Y67.899 E4.28740
G1 X81.160 Y67.950 E4.30011
G1 X80.773 Y68.109 E4.31404
G1 X80.441 Y68.365 E4.32799
G1 X80.186 Y68.696 E4.34187
G1 X80.025 Y69.085 E4.35587
G1 X79.975 Y69.460 E4.36845
G1 X79.975 Y70.978 E4.41896
G1 X79.693 Y71.012 E4.42842
G1 X79.569 Y70.494 E4.44614
G1 X79.458 Y70.225 E4.45581
G1 X79.306 Y69.978 E4.46547
G1 X79.117 Y69.757 E4.47514
G1 X78.683 Y69.386 E4.49412
G1 X79.597 Y69.386 E4.52453
G1 F1800.000 E3.52453
G92 E0
G1 X86.638 Y68.000 F7800.000
G1 E1.00000 F1800.000
G1 X88.139 Y68.000 E1.04992 F1249.269
G1 X88.303 Y68.164 E1.05765
G1 X88.303 Y81.836 E1.51236
G1 X88.139 Y82.000 E1.52009
G1 X86.639 Y82.000 E1.56998
G1 X86.638 Y68.060 E2.03363
G1 X86.238 Y67.600 F7800.000
G1 X88.305 Y67.600 E2.10236 F1249.269
G1 X88.704 Y67.999 E2.12111
G1 X88.704 Y82.001 E2.58685
G1 X88.305 Y82.400 E2.60560
G1 X86.239 Y82.400 E2.67431
G1 X86.238 Y67.660 E3.16456
G1 F1800.000 E2.16456
G92 E0
G1 X70.078 Y68.441 F7800.000
G1 E1.00000 F1800.000
G1 X69.905 Y68.849 E1.01475 F1249.269
G1 X69.563 Y69.111 E1.02908
G1 X69.307 Y69.256 E1.03888
G1 X63.612 Y69.266 E1.22830
G1 X63.564 Y69.003 E1.23719
G1 X65.153 Y68.426 E1.29343
G1 X65.624 Y68.303 E1.30962
G1 X66.355 Y68.177 E1.33431
G1 X67.088 Y68.126 E1.35875
G1 X67.608 Y68.136 E1.37603
G1 X69.218 Y68.219 E1.42964
G1 X70.020 Y68.426 E1.45719
G1 X70.641 Y68.173 F7800.000
G1 X70.184 Y69.216 E1.49506 F1249.269
G1 X70.084 Y69.216 E1.49839
G1 X69.679 Y69.514 E1.51510
G1 X69.385 Y69.656 E1.52597
G1 X62.597 Y69.668 E1.75175
G1 X62.216 Y69.619 E1.76453
G1 X62.089 Y69.580 E1.76893
G1 X61.584 Y69.319 E1.78786
G1 X64.526 Y68.215 E1.89235
G1 X65.035 Y68.044 E1.91024
G1 X65.791 Y67.860 E1.93612
G1 X66.568 Y67.753 E1.96219
G1 X67.085 Y67.726 E1.97941
G1 X67.622 Y67.736 E1.99727
G1 X69.278 Y67.821 E2.05245
G1 X70.583 Y68.158 E2.09725
G1 F1800.000 E1.09725
G92 E0
G1 X70.078 Y81.559 F7800.000
G1 E1.00000 F1800.000
G1 X69.222 Y81.780 E1.02940 F1249.269
G1 X67.608 Y81.863 E1.08317
G1 X67.088 Y81.873 E1.10045
G1 X66.602 Y81.847 E1.11665
G1 X65.866 Y81.746 E1.14136
G1 X65.153 Y81.573 E1.16576
G1 X63.564 Y80.996 E1.22198
G1 X63.612 Y80.733 E1.23088
G1 X69.307 Y80.743 E1.42028
G1 X69.563 Y80.888 E1.43007
G1 X69.905 Y81.150 E1.44440
G1 X70.055 Y81.504 E1.45719
G1 X70.641 Y81.827 F7800.000
G1 X69.283 Y82.178 E1.50384 F1249.269
G1 X67.622 Y82.263 E1.55918
G1 X67.085 Y82.273 E1.57704
G1 X66.308 Y82.219 E1.60294
G1 X65.536 Y82.087 E1.62899
G1 X65.035 Y81.955 E1.64621
G1 X64.526 Y81.784 E1.66409
G1 X61.584 Y80.680 E1.76859
G1 X62.089 Y80.419 E1.78751
G1 X62.216 Y80.380 E1.79192
G1 X62.597 Y80.331 E1.80469
G1 X69.385 Y80.343 E2.03048
G1 X69.679 Y80.486 E2.04135
G1 X70.084 Y80.783 E2.05806
G1 X70.184 Y80.783 E2.06139
G1 X70.614 Y81.773 E2.09729
G1 X70.716 Y81.013 F7800.000
G1 X70.995 Y81.641 E2.12015 F874.489
G1 X71.208 Y81.965 E2.13304
G1 X71.119 Y82.116 E2.13887
G1 X69.344 Y82.575 E2.19984
G1 X67.636 Y82.663 E2.25675
G1 X67.081 Y82.673 E2.27519
G1 X66.534 Y82.645 E2.29343
G1 X65.717 Y82.532 E2.32085
G1 X64.917 Y82.338 E2.34822
G1 X64.392 Y82.161 E2.36667
G1 X60.985 Y80.883 E2.48769
G1 X61.095 Y80.687 E2.49516
G1 X61.222 Y80.529 E2.50191
G1 X61.551 Y80.247 E2.51631
G1 X61.937 Y80.048 E2.53076
G1 X62.130 Y79.987 E2.53750
G1 X62.572 Y79.931 E2.55231
G1 X69.458 Y79.943 E2.78134
G1 X69.887 Y80.143 E2.79708
G1 X70.220 Y80.383 E2.81073
G1 X77.815 Y80.383 E3.06336
G1 X78.034 Y80.366 E3.07067
G1 X78.256 Y80.313 E3.07824
G1 X78.466 Y80.226 E3.08581
G1 X78.660 Y80.107 E3.09338
G1 X78.833 Y79.959 E3.10095
G1 X78.981 Y79.786 E3.10852
G1 X79.100 Y79.592 E3.11609
G1 X79.187 Y79.382 E3.12363
G1 X79.241 Y79.153 E3.13146
G1 X79.257 Y78.941 E3.13854
G1 X79.257 Y77.386 E3.19026
G1 X79.218 Y77.089 E3.20022
G1 X79.098 Y76.798 E3.21069
G1 X78.907 Y76.550 E3.22109
G1 X78.658 Y76.358 E3.23154
G1 X78.369 Y76.239 E3.24196
G1 X78.071 Y76.199 E3.25195
G1 X62.109 Y76.199 E3.78284
G1 X61.787 Y76.157 E3.79367
G1 X61.497 Y76.037 E3.80407
G1 X61.249 Y75.846 E3.81449
G1 X61.059 Y75.599 E3.82486
G1 X60.939 Y75.310 E3.83528
G1 X60.898 Y74.999 E3.84570
G1 X60.939 Y74.689 E3.85609
G1 X61.059 Y74.401 E3.86649
