; generated by Slic3r 1.1.7 on 2014-12-06 at 00:08:36

; perimeters extrusion width = 0.40mm
; infill extrusion width = 0.42mm
; solid infill extrusion width = 0.42mm
; top infill extrusion width = 0.42mm

G21 ; set units to millimeters
M107
M104 S215 ; set temperature
G28 ; home all axes
G29; calibrate bed leveling
G1 Z5 F5000 ; lift nozzle
G28 X ; Go to corner x
G28 Y ; Go to corner y

M109 S215 ; wait for temperature to be reached
G90 ; use absolute coordinates
G92 E0
M82 ; use absolute distances for extrusion
G1 F1800.000 E-1.00000
G1 Z0.600 F7800.000
G92 E0
G1 X41.609 Y58.890 F7800.000
G1 Z0.300 F7800.000
G1 E1.00000 F1800.000
G1 X44.172 Y57.104 E1.12669 F1080.000
G1 X51.630 Y54.310 E1.44969
G1 X53.016 Y53.852 E1.50889
G1 X53.754 Y53.649 E1.53995
G1 X54.528 Y53.463 E1.57224
G1 X55.283 Y53.311 E1.60347
G1 X56.062 Y53.180 E1.63549
G1 X56.822 Y53.080 E1.66657
G1 X57.607 Y53.003 E1.69855
G1 X59.098 Y52.931 E1.75910
G1 X85.115 Y52.679 E2.81432
G1 X102.107 Y52.679 E3.50345
G1 X104.311 Y53.075 E3.59429
G1 X106.577 Y54.530 E3.70348 F1080.000
G1 X108.077 Y56.030 E3.78951
G1 X109.355 Y57.869 E3.88035
G1 X109.928 Y60.500 E3.98955
G1 X109.928 Y89.500 E5.16569
G1 X109.532 Y91.705 E5.25653
G1 X108.077 Y93.970 E5.36573
G1 X106.577 Y95.470 E5.45176
G1 X104.737 Y96.748 E5.54261
G1 X102.107 Y97.321 E5.65179
G1 X85.053 Y97.321 E6.34343
G1 X58.936 Y97.064 E7.40272
G1 X58.169 Y97.033 E7.43382
G1 X57.383 Y96.976 E7.46581
G1 X56.620 Y96.894 E7.49691
G1 X55.839 Y96.783 E7.52889
G1 X55.081 Y96.649 E7.56013
G1 X54.301 Y96.483 E7.59248
G1 X53.560 Y96.298 E7.62345
G1 X52.698 Y96.048 E7.65985
G1 X51.431 Y95.617 E7.71413
G1 X44.172 Y92.894 E8.02856
G1 X42.247 Y91.748 E8.11940
G1 X40.843 Y90.003 E8.21024
G1 X40.072 Y86.976 E8.33694
G1 X40.072 Y63.022 E9.30842
G1 X40.468 Y60.818 E9.39927
G1 X41.579 Y58.941 E9.48768
G1 F1800.000 E8.48768
G1 Z0.600 F7800.000
G92 E0
G1 X85.680 Y63.967 F7800.000
G1 Z0.300 F7800.000
G1 E1.00000 F1800.000
G1 X85.760 Y63.359 E1.02487 F540.000
G1 X86.007 Y62.760 E1.05117
G1 X86.401 Y62.250 E1.07729
G1 X86.913 Y61.854 E1.10354
G1 X87.510 Y61.609 E1.12971
G1 X88.119 Y61.527 E1.15465
G1 X96.203 Y61.527 E1.48248
G1 X96.203 Y62.933 E1.53952
G1 X96.204 Y88.469 E2.57519 F540.000
G1 X88.120 Y88.469 E2.90306
G1 X87.510 Y88.389 E2.92802
G1 X86.914 Y88.142 E2.95420
G1 X86.401 Y87.750 E2.98037
G1 X86.007 Y87.235 E3.00666
G1 X85.760 Y86.639 E3.03284
G1 X85.680 Y86.029 E3.05781
G1 X85.680 Y64.027 E3.95012
G1 X86.001 Y64.027 F7800.000
G1 X86.073 Y63.443 E3.97399 F378.000
G1 X86.288 Y62.922 E3.99684
G1 X86.630 Y62.479 E4.01954
G1 X87.075 Y62.135 E4.04237
G1 X87.594 Y61.922 E4.06510
G1 X88.141 Y61.848 E4.08749
G1 X95.881 Y61.848 E4.40141 F378.000
G1 X95.883 Y88.148 E5.46804
G1 X88.141 Y88.148 E5.78202
G1 X87.594 Y88.076 E5.80441
G1 X87.075 Y87.861 E5.82717
G1 X86.630 Y87.521 E5.84990
G1 X86.288 Y87.074 E5.87274
G1 X86.073 Y86.555 E5.89550
G1 X86.001 Y86.008 E5.91789
G1 X86.001 Y64.087 E6.80692
G1 F1800.000 E5.80692
G1 Z0.600 F7800.000
G92 E0
G1 X92.647 Y74.701 F7800.000
G1 Z0.300 F7800.000
G1 E1.00000 F1800.000
G1 X92.647 Y86.848 E1.49265 F540.000
G1 X91.947 Y86.848 E1.52104 F540.000
G1 X91.947 Y63.148 E2.48223
G1 X92.647 Y63.148 E2.51062
G1 X92.647 Y74.641 E2.97672
G1 F1800.000 E1.97672
G1 Z0.600 F7800.000
G92 E0
G1 X83.503 Y70.847 F7800.000
G1 Z0.300 F7800.000
G1 E1.00000 F1800.000
G1 X83.586 Y70.229 E1.02528 F540.000
G1 X83.586 Y67.113 E1.15163
G1 X83.551 Y66.667 E1.16979
G1 X83.442 Y66.213 E1.18871
G1 X83.264 Y65.782 E1.20763
G1 X83.020 Y65.385 E1.22655
G1 X82.717 Y65.030 E1.24547
G1 X82.397 Y64.756 E1.26257
G1 X81.965 Y64.483 E1.28329
G1 X81.534 Y64.305 E1.30221
G1 X81.080 Y64.196 E1.32113
G1 X80.634 Y64.161 E1.33930
G1 X65.415 Y64.161 E1.95650
G1 X65.012 Y64.469 E1.97710
G1 X64.736 Y64.651 E1.99047
G1 X64.447 Y64.811 E2.00388
G1 X63.903 Y65.041 E2.02783
G1 X50.148 Y65.064 E2.58568
G1 X49.276 Y64.954 E2.62135
G1 X48.901 Y64.836 E2.63729
G1 X48.143 Y64.445 E2.67190
G1 X47.496 Y63.888 E2.70650
G1 X47.248 Y63.584 E2.72241
G1 X47.073 Y63.270 E2.73698
G1 X53.807 Y60.744 E3.02869
G1 X54.856 Y60.391 E3.07357
G1 X55.911 Y60.114 E3.11781
G1 X56.987 Y59.910 E3.16223
G1 X58.073 Y59.780 E3.20660
G1 X59.163 Y59.724 E3.25086
G1 X60.269 Y59.743 E3.29570
G1 X63.668 Y59.919 E3.43375
G1 X67.192 Y60.829 E3.58136
G1 X67.329 Y61.065 E3.59245
G1 X67.134 Y61.339 E3.60610
G1 X66.928 Y61.682 E3.62232
G1 X66.749 Y62.038 E3.63849
G1 X66.324 Y63.043 E3.68275
G1 X83.586 Y63.043 E4.38286
G1 X83.586 Y61.019 E4.46499
G1 X83.607 Y60.761 E4.47546
G1 X83.663 Y60.528 E4.48518
G1 X83.754 Y60.307 E4.49490
G1 X83.880 Y60.102 E4.50461
G1 X84.037 Y59.919 E4.51442
G1 X84.217 Y59.765 E4.52404
G1 X84.422 Y59.639 E4.53377
G1 X84.643 Y59.548 E4.54349
G1 X84.876 Y59.492 E4.55321
G1 X85.134 Y59.471 E4.56368
G1 X101.912 Y59.471 E5.24414 F540.000
G1 X103.136 Y60.695 E5.31434
G1 X103.136 Y89.305 E6.47463
G1 X101.912 Y90.529 E6.54483
G1 X85.134 Y90.529 E7.22529
G1 X84.876 Y90.508 E7.23576
G1 X84.643 Y90.452 E7.24548
G1 X84.422 Y90.361 E7.25520
G1 X84.217 Y90.235 E7.26493
G1 X84.036 Y90.081 E7.27456
G1 X83.880 Y89.898 E7.28435
G1 X83.754 Y89.693 E7.29407
G1 X83.663 Y89.472 E7.30379
G1 X83.607 Y89.239 E7.31351
G1 X83.586 Y88.981 E7.32398
G1 X83.586 Y86.955 E7.40619
G1 X66.324 Y86.955 E8.10629
G1 X66.749 Y87.960 E8.15056
G1 X66.928 Y88.316 E8.16672
G1 X67.134 Y88.659 E8.18295
G1 X67.330 Y88.934 E8.19665
G1 X67.192 Y89.171 E8.20779
G1 X63.678 Y90.079 E8.35499
G1 X60.269 Y90.255 E8.49343
G1 X59.163 Y90.274 E8.53827
G1 X58.619 Y90.255 E8.56035
G1 X58.073 Y90.218 E8.58254
G1 X56.987 Y90.088 E8.62691
G1 X55.911 Y89.884 E8.67133
G1 X54.856 Y89.607 E8.71557
G1 X53.807 Y89.254 E8.76045
G1 X47.073 Y86.728 E9.05216
G1 X47.249 Y86.414 E9.06675
G1 X47.496 Y86.108 E9.08271
G1 X48.142 Y85.554 E9.11723
G1 X48.901 Y85.162 E9.15186
G1 X49.276 Y85.044 E9.16779
G1 X50.148 Y84.934 E9.20347
G1 X63.903 Y84.957 E9.76132
G1 X64.447 Y85.187 E9.78527
G1 X64.737 Y85.347 E9.79868
G1 X65.012 Y85.529 E9.81205
G1 X65.415 Y85.837 E9.83265
G1 X80.634 Y85.837 E10.44985
G1 X81.080 Y85.802 E10.46802
G1 X81.534 Y85.693 E10.48694
G1 X81.965 Y85.515 E10.50586
G1 X82.362 Y85.271 E10.52478
G1 X82.717 Y84.968 E10.54370
G1 X83.020 Y84.613 E10.56262
G1 X83.264 Y84.216 E10.58154
G1 X83.442 Y83.787 E10.60036
G1 X83.553 Y83.315 E10.62002
G1 X83.586 Y82.884 E10.63754
G1 X83.586 Y79.767 E10.76397
G1 X83.506 Y79.159 E10.78884
G1 X83.259 Y78.560 E10.81514
G1 X82.865 Y78.050 E10.84125
G1 X82.353 Y77.654 E10.86751
G1 X81.756 Y77.409 E10.89368
G1 X81.147 Y77.327 E10.91862
G1 X49.223 Y77.327 E12.21331
G1 X48.592 Y77.245 E12.23915
G1 X48.031 Y77.012 E12.26376
G1 X47.549 Y76.642 E12.28841
G1 X47.181 Y76.162 E12.31294
G1 X46.948 Y75.601 E12.33758
G1 X46.869 Y74.998 E12.36224
G1 X46.948 Y74.398 E12.38681
G1 X47.181 Y73.837 E12.41141
G1 X47.550 Y73.354 E12.43606
G1 X48.031 Y72.986 E12.46063
G1 X48.592 Y72.753 E12.48529
G1 X49.224 Y72.669 E12.51114
G1 X81.146 Y72.669 E13.80577
G1 X81.755 Y72.590 E13.83070
G1 X82.353 Y72.341 E13.85695
G1 X82.865 Y71.950 E13.88308
G1 X83.259 Y71.435 E13.90937
G1 X83.480 Y70.902 E13.93279
G1 X83.183 Y70.779 F7800.000
G1 X83.265 Y70.208 E13.95619 F378.000
G1 X83.265 Y67.126 E14.08117
G1 X83.233 Y66.717 E14.09780
G1 X83.136 Y66.313 E14.11467
G1 X82.977 Y65.929 E14.13153
G1 X82.759 Y65.574 E14.14840
G1 X82.489 Y65.258 E14.16527
G1 X82.173 Y64.988 E14.18214
G1 X81.818 Y64.770 E14.19900
G1 X81.434 Y64.611 E14.21587
G1 X81.030 Y64.514 E14.23274
G1 X80.621 Y64.482 E14.24937
G1 X65.524 Y64.482 E14.86164
G1 X65.198 Y64.732 E14.87829
G1 X64.903 Y64.926 E14.89261
G1 X64.593 Y65.098 E14.90700
G1 X64.273 Y65.245 E14.92128
G1 X63.962 Y65.362 E14.93477
G1 X50.128 Y65.386 E15.49580
G1 X49.207 Y65.269 E15.53347
G1 X48.778 Y65.135 E15.55169
G1 X47.962 Y64.713 E15.58897
G1 X47.265 Y64.113 E15.62626
G1 X46.981 Y63.765 E15.64445
G1 X46.609 Y63.101 E15.67533
G1 X53.699 Y60.441 E15.98244
G1 X54.761 Y60.083 E16.02789
G1 X55.840 Y59.800 E16.07313
G1 X56.938 Y59.592 E16.11844
G1 X58.046 Y59.459 E16.16370
G1 X58.603 Y59.422 E16.18634
G1 X59.160 Y59.402 E16.20897
G1 X60.280 Y59.422 E16.25438
G1 X63.717 Y59.599 E16.39396
G1 X67.402 Y60.551 E16.54832
G1 X67.718 Y61.093 E16.57376
G1 X67.403 Y61.516 E16.59512
G1 X67.210 Y61.837 E16.61035
G1 X67.041 Y62.173 E16.62559
G1 X66.809 Y62.722 E16.64976
G1 X83.265 Y62.722 E17.31716
G1 X83.265 Y61.006 E17.38676
G1 X83.288 Y60.711 E17.39877
G1 X83.356 Y60.428 E17.41054
G1 X83.467 Y60.160 E17.42231
G1 X83.619 Y59.913 E17.43409
G1 X83.809 Y59.691 E17.44594
G1 X84.028 Y59.504 E17.45762
G1 X84.275 Y59.352 E17.46940
G1 X84.543 Y59.241 E17.48117
G1 X84.826 Y59.173 E17.49294
G1 X85.121 Y59.150 E17.50495
G1 X102.045 Y59.150 E18.19132
G1 X102.237 Y59.342 E18.20234
G1 X103.457 Y60.562 E18.27232 F378.000
G1 X103.457 Y89.438 E19.44341
G1 X102.045 Y90.850 E19.52441
G1 X85.121 Y90.850 E20.21079
G1 X84.826 Y90.827 E20.22280
G1 X84.543 Y90.759 E20.23457
G1 X84.324 Y90.668 E20.24420
G1 X84.028 Y90.496 E20.25809
G1 X83.808 Y90.309 E20.26978
G1 X83.619 Y90.087 E20.28163
G1 X83.467 Y89.840 E20.29340
G1 X83.356 Y89.572 E20.30517
G1 X83.288 Y89.289 E20.31694
G1 X83.265 Y88.994 E20.32895
G1 X83.265 Y87.276 E20.39863
G1 X66.809 Y87.276 E21.06604
G1 X67.041 Y87.825 E21.09021
G1 X67.210 Y88.161 E21.10544
G1 X67.403 Y88.482 E21.12068
G1 X67.718 Y88.906 E21.14208
G1 X67.402 Y89.449 E21.16757
G1 X63.727 Y90.398 E21.32153
G1 X60.280 Y90.576 E21.46150
G1 X59.160 Y90.596 E21.50691
G1 X58.046 Y90.539 E21.55218
G1 X56.938 Y90.406 E21.59743
G1 X56.387 Y90.311 E21.62011
G1 X55.840 Y90.198 E21.64275
G1 X54.761 Y89.915 E21.68799
G1 X53.699 Y89.557 E21.73344
G1 X46.609 Y86.897 E22.04055
G1 X46.982 Y86.233 E22.07144
G1 X47.265 Y85.883 E22.08969
G1 X47.961 Y85.285 E22.12691
G1 X48.778 Y84.863 E22.16420
G1 X49.207 Y84.729 E22.18242
G1 X50.128 Y84.612 E22.22009
G1 X63.962 Y84.636 E22.78112
G1 X64.273 Y84.753 E22.79461
G1 X64.593 Y84.900 E22.80889
G1 X64.903 Y85.072 E22.82328
G1 X65.198 Y85.266 E22.83760
G1 X65.524 Y85.516 E22.85425
G1 X80.621 Y85.516 E23.46652
G1 X81.030 Y85.484 E23.48315
G1 X81.434 Y85.387 E23.50002
G1 X81.818 Y85.228 E23.51689
G1 X82.173 Y85.010 E23.53375
G1 X82.489 Y84.740 E23.55062
G1 X82.759 Y84.424 E23.56749
G1 X82.977 Y84.069 E23.58436
G1 X83.135 Y83.686 E23.60119
G1 X83.233 Y83.275 E23.61830
G1 X83.265 Y82.872 E23.63472
G1 X83.265 Y79.788 E23.75978
G1 X83.193 Y79.243 E23.78209
G1 X82.978 Y78.722 E23.80494
G1 X82.636 Y78.279 E23.82764
G1 X82.191 Y77.935 E23.85046
G1 X81.672 Y77.722 E23.87320
G1 X81.125 Y77.648 E23.89559
G1 X49.203 Y77.648 E25.19025
G1 X48.508 Y77.558 E25.21866
G1 X47.869 Y77.293 E25.24672
G1 X47.320 Y76.871 E25.27479
G1 X46.900 Y76.324 E25.30275
G1 X46.635 Y75.685 E25.33083
G1 X46.544 Y74.998 E25.35892
G1 X46.635 Y74.313 E25.38694
G1 X46.900 Y73.676 E25.41495
G1 X47.320 Y73.125 E25.44303
G1 X47.869 Y72.705 E25.47105
G1 X48.508 Y72.440 E25.49913
G1 X49.203 Y72.348 E25.52755
G1 X81.125 Y72.348 E26.82218
G1 X81.672 Y72.276 E26.84456
G1 X82.191 Y72.061 E26.86735
G1 X82.636 Y71.721 E26.89006
G1 X82.978 Y71.274 E26.91291
G1 X83.160 Y70.834 E26.93220
G1 X83.663 Y66.221 F7800.000
G1 X85.467 Y68.024 E27.03562 F1080.000
G1 X85.467 Y68.481 E27.05415
G1 X83.775 Y66.789 E27.15119
G1 X83.799 Y67.271 E27.17075
G1 X85.467 Y68.938 E27.26636
G1 X85.467 Y69.395 E27.28489
G1 X83.799 Y67.728 E27.38050
G1 X83.799 Y68.184 E27.39903
G1 X85.467 Y69.851 E27.49464
G1 X85.467 Y70.308 E27.51316
G1 X83.799 Y68.641 E27.60878
G1 X83.799 Y69.098 E27.62730
G1 X85.467 Y70.765 E27.72291
G1 X85.467 Y71.222 E27.74144
G1 X83.799 Y69.555 E27.83705
G1 X83.799 Y70.012 E27.85558
G1 X85.467 Y71.679 E27.95119
G1 X85.467 Y72.135 E27.96972
G1 X83.773 Y70.442 E28.06683
G1 X83.720 Y70.846 E28.08335
G1 X85.467 Y72.592 E28.18351
G1 X85.467 Y73.049 E28.20203
G1 X83.596 Y71.179 E28.30931
G1 X83.462 Y71.502 E28.32349
G1 X85.467 Y73.506 E28.43845
G1 X85.467 Y73.963 E28.45698
G1 X83.272 Y71.769 E28.58282
G1 X83.074 Y72.028 E28.59604
G1 X85.467 Y74.420 E28.73323
G1 X85.467 Y74.876 E28.75176
G1 X82.833 Y72.243 E28.90280
G1 X82.574 Y72.441 E28.91602
G1 X85.467 Y75.333 E29.08191
G1 X85.467 Y75.790 E29.10044
G1 X82.279 Y72.603 E29.28325
G1 X81.957 Y72.737 E29.29742
G1 X85.467 Y76.247 E29.49874
G1 X85.467 Y76.704 E29.51727
G1 X81.589 Y72.826 E29.73965
G1 X81.185 Y72.879 E29.75617
G1 X85.467 Y77.160 E30.00173
G1 X85.467 Y77.617 E30.02026
G1 X80.732 Y72.882 E30.29182
G1 X80.275 Y72.882 E30.31035
G1 X85.467 Y78.074 E30.60812
G1 X85.467 Y78.531 E30.62664
G1 X79.818 Y72.882 E30.95061
G1 X79.361 Y72.882 E30.96914
G1 X85.467 Y78.988 E31.31931
G1 X85.467 Y79.445 E31.33783
G1 X78.904 Y72.882 E31.71420
G1 X78.448 Y72.882 E31.73273
G1 X85.467 Y79.901 E32.13530
G1 X85.655 Y86.942 F7800.000
G1 X83.291 Y84.579 E32.27084 F1080.000
G1 X83.463 Y84.293 E32.28435
G1 X85.505 Y86.335 E32.40149
G1 X85.467 Y85.840 E32.42163
G1 X83.596 Y83.970 E32.52890
G1 X83.700 Y83.617 E32.54382
G1 X85.467 Y85.383 E32.64512
G1 X85.467 Y84.926 E32.66364
G1 X83.773 Y83.233 E32.76079
G1 X83.799 Y82.803 E32.77827
G1 X85.467 Y84.470 E32.87388
G1 X85.467 Y84.013 E32.89240
G1 X83.799 Y82.346 E32.98802
G1 X83.799 Y81.889 E33.00654
G1 X85.467 Y83.556 E33.10216
G1 X85.467 Y83.099 E33.12068
G1 X83.799 Y81.432 E33.21629
G1 X83.799 Y80.975 E33.23482
G1 X85.467 Y82.642 E33.33043
G1 X85.467 Y82.185 E33.34896
G1 X83.799 Y80.518 E33.44457
G1 X83.799 Y80.062 E33.46310
G1 X85.467 Y81.729 E33.55871
G1 X85.467 Y81.272 E33.57724
G1 X83.777 Y79.582 E33.67414
G1 X83.685 Y79.033 E33.69671
G1 X85.467 Y80.815 E33.79890
G1 X85.467 Y80.358 E33.81742
G1 X77.991 Y72.882 E34.24619
G1 X77.534 Y72.882 E34.26472
G1 X81.882 Y77.230 E34.51408
G1 X81.331 Y77.136 E34.53673
G1 X77.077 Y72.882 E34.78072
G1 X76.620 Y72.882 E34.79925
G1 X80.851 Y77.114 E35.04192
G1 X80.395 Y77.114 E35.06044
G1 X76.164 Y72.882 E35.30311
G1 X75.707 Y72.882 E35.32164
G1 X79.938 Y77.114 E35.56431
G1 X79.481 Y77.114 E35.58284
G1 X75.250 Y72.882 E35.82551
G1 X74.793 Y72.882 E35.84404
G1 X79.024 Y77.114 E36.08671
G1 X78.567 Y77.114 E36.10524
G1 X74.336 Y72.882 E36.34791
G1 X73.879 Y72.882 E36.36643
G1 X78.110 Y77.114 E36.60911
G1 X77.654 Y77.114 E36.62763
G1 X73.423 Y72.882 E36.87030
G1 X72.966 Y72.882 E36.88883
G1 X77.197 Y77.114 E37.13150
G1 X76.740 Y77.114 E37.15003
G1 X72.509 Y72.882 E37.39270
G1 X72.052 Y72.882 E37.41123
G1 X76.283 Y77.114 E37.65390
G1 X75.826 Y77.114 E37.67243
G1 X71.595 Y72.882 E37.91510
G1 X71.139 Y72.882 E37.93362
G1 X75.370 Y77.114 E38.17630
G1 X74.913 Y77.114 E38.19482
G1 X70.682 Y72.882 E38.43749
G1 X70.225 Y72.882 E38.45602
G1 X74.456 Y77.114 E38.69869
G1 X73.999 Y77.114 E38.71722
G1 X69.768 Y72.882 E38.95989
G1 X69.311 Y72.882 E38.97842
G1 X73.542 Y77.114 E39.22109
G1 X73.085 Y77.114 E39.23962
G1 X68.854 Y72.882 E39.48229
G1 X68.398 Y72.882 E39.50081
G1 X72.629 Y77.114 E39.74349
G1 X72.172 Y77.114 E39.76201
G1 X67.941 Y72.882 E40.00468
G1 X67.484 Y72.882 E40.02321
G1 X71.715 Y77.114 E40.26588
G1 X71.258 Y77.114 E40.28441
G1 X67.027 Y72.882 E40.52708
G1 X66.570 Y72.882 E40.54561
G1 X70.801 Y77.114 E40.78828
G1 X70.345 Y77.114 E40.80681
G1 X66.114 Y72.882 E41.04948
G1 X65.657 Y72.882 E41.06800
G1 X69.888 Y77.114 E41.31068
G1 X69.431 Y77.114 E41.32920
G1 X65.200 Y72.882 E41.57187
G1 X64.743 Y72.883 E41.59040
G1 X68.974 Y77.114 E41.83307
G1 X68.517 Y77.114 E41.85160
G1 X64.286 Y72.883 E42.09427
G1 X63.829 Y72.883 E42.11280
G1 X68.060 Y77.114 E42.35547
G1 X67.604 Y77.114 E42.37400
G1 X63.373 Y72.883 E42.61667
G1 X62.916 Y72.883 E42.63519
G1 X67.147 Y77.114 E42.87786
G1 X66.690 Y77.114 E42.89639
G1 X62.459 Y72.883 E43.13906
G1 X62.002 Y72.883 E43.15759
G1 X66.233 Y77.114 E43.40026
G1 X65.776 Y77.114 E43.41879
G1 X61.545 Y72.883 E43.66146
G1 X61.089 Y72.883 E43.67999
G1 X65.320 Y77.114 E43.92266
G1 X64.863 Y77.114 E43.94118
G1 X60.632 Y72.883 E44.18386
G1 X60.175 Y72.883 E44.20238
G1 X64.406 Y77.114 E44.44505
G1 X63.949 Y77.114 E44.46358
G1 X59.718 Y72.883 E44.70625
G1 X59.261 Y72.883 E44.72478
G1 X63.492 Y77.114 E44.96745
G1 X63.035 Y77.114 E44.98598
G1 X58.804 Y72.883 E45.22865
G1 X58.348 Y72.883 E45.24718
G1 X62.579 Y77.114 E45.48985
G1 X62.122 Y77.114 E45.50837
G1 X57.891 Y72.883 E45.75105
