; generated by Slic3r 1.1.7 on 2014-11-29 at 23:56:11

; perimeters extrusion width = 0.40mm
; infill extrusion width = 0.67mm
; solid infill extrusion width = 0.67mm
; top infill extrusion width = 0.67mm

G21 ; set units to millimeters
M107
M104 S215 ; set temperature
G28 ; home all axes
G1 Z5 F5000 ; lift nozzle

M109 S215 ; wait for temperature to be reached
G90 ; use absolute coordinates
G92 E0
M82 ; use absolute distances for extrusion
G1 F1800.000 E-1.00000
G92 E0
G1 Z0.300 F7800.000
G1 X59.983 Y60.778 F7800.000
G1 E1.00000 F1800.000
G1 X61.733 Y59.315 E1.15853 F1080.000
G1 X65.000 Y58.443 E1.39348
G1 X85.000 Y58.443 E2.78312
G1 X87.247 Y58.840 E2.94165
G1 X89.222 Y59.983 E3.10018 F1080.000
G1 X90.685 Y61.733 E3.25871
G1 X91.557 Y65.000 E3.49365
G1 X91.557 Y85.000 E4.88330
G1 X91.160 Y87.247 E5.04183
G1 X90.017 Y89.222 E5.20036
G1 X88.267 Y90.685 E5.35888
G1 X85.000 Y91.557 E5.59383
G1 X65.000 Y91.557 E6.98347
G1 X62.753 Y91.160 E7.14200
G1 X60.778 Y90.017 E7.30053
G1 X59.315 Y88.267 E7.45906
G1 X58.443 Y85.000 E7.69401
G1 X58.443 Y65.000 E9.08365
G1 X58.840 Y62.753 E9.24218
G1 X59.953 Y60.830 E9.39654
G1 F1800.000 E8.39654
G92 E0
G1 X83.586 Y83.586 F7800.000
G1 E1.00000 F1800.000
G1 X66.414 Y83.586 E2.19312 F540.000
G1 X66.414 Y66.414 E3.38625
G1 X83.586 Y66.414 E4.57937
G1 X83.586 Y83.526 E5.76833
G1 X84.143 Y84.143 F7800.000
G1 X65.857 Y84.143 E7.03886 F540.000
G1 X65.857 Y65.857 E8.30940
G1 X84.143 Y65.857 E9.57994
G1 X84.143 Y84.083 E10.84631
G1 X84.700 Y84.700 F7800.000
G1 X65.300 Y84.700 E12.19426 F378.000
G1 X65.300 Y65.300 E13.54221
G1 X84.700 Y65.300 E14.89016
G1 X84.700 Y84.640 E16.23394
G1 X84.354 Y84.500 F7800.000
G1 X66.798 Y83.162 F7800.000
G1 X66.838 Y83.202 E16.23788 F1080.000
G1 X67.636 Y83.202 E16.29334
G1 X66.798 Y82.364 E16.37571
G1 X66.798 Y81.565 E16.43117
G1 X68.435 Y83.202 E16.59197
G1 X69.233 Y83.202 E16.64744
G1 X66.798 Y80.767 E16.88668
G1 X66.798 Y79.969 E16.94214
G1 X70.031 Y83.202 E17.25982
G1 X70.829 Y83.202 E17.31529
G1 X66.798 Y79.171 E17.71140
G1 X66.798 Y78.373 E17.76687
G1 X71.627 Y83.202 E18.24142
G1 X72.426 Y83.202 E18.29688
G1 X66.798 Y77.574 E18.84987
G1 X66.798 Y76.776 E18.90534
G1 X73.224 Y83.202 E19.53677
G1 X74.022 Y83.202 E19.59223
G1 X66.798 Y75.978 E20.30209
G1 X66.798 Y75.180 E20.35756
G1 X74.820 Y83.202 E21.14586
G1 X75.619 Y83.202 E21.20132
G1 X66.798 Y74.381 E22.06806
G1 X66.798 Y73.583 E22.12353
G1 X76.417 Y83.202 E23.06870
G1 X77.215 Y83.202 E23.12417
G1 X66.798 Y72.785 E24.14778
G1 X66.798 Y71.987 E24.20325
G1 X78.013 Y83.202 E25.30530
G1 X78.812 Y83.202 E25.36076
G1 X66.798 Y71.188 E26.54125
G1 X66.798 Y70.390 E26.59671
G1 X79.610 Y83.202 E27.85564
G1 X80.408 Y83.202 E27.91110
G1 X66.798 Y69.592 E29.24846
G1 X66.798 Y68.794 E29.30393
G1 X81.206 Y83.202 E30.71973
G1 X82.005 Y83.202 E30.77519
G1 X66.798 Y67.995 E32.26943
G1 X66.798 Y67.197 E32.32489
G1 X82.803 Y83.202 E33.89757
G1 X83.202 Y82.803 E33.93678
G1 X67.197 Y66.798 E35.50946
G1 X67.995 Y66.798 E35.56492
G1 X83.202 Y82.005 E37.05916
G1 X83.202 Y81.206 E37.11462
G1 X68.794 Y66.798 E38.53042
G1 X69.592 Y66.798 E38.58589
G1 X83.202 Y80.408 E39.92325
G1 X83.202 Y79.610 E39.97871
G1 X70.390 Y66.798 E41.23764
G1 X71.188 Y66.798 E41.29310
G1 X83.202 Y78.812 E42.47359
G1 X83.202 Y78.013 E42.52905
G1 X71.987 Y66.798 E43.63111
G1 X72.785 Y66.798 E43.68657
G1 X83.202 Y77.215 E44.71018
G1 X83.202 Y76.417 E44.76565
G1 X73.583 Y66.798 E45.71082
G1 X74.381 Y66.798 E45.76629
G1 X83.202 Y75.619 E46.63303
G1 X83.202 Y74.820 E46.68849
G1 X75.180 Y66.798 E47.47679
G1 X75.978 Y66.798 E47.53226
G1 X83.202 Y74.022 E48.24212
G1 X83.202 Y73.224 E48.29759
G1 X76.776 Y66.798 E48.92901
G1 X77.574 Y66.798 E48.98448
G1 X83.202 Y72.426 E49.53747
G1 X83.202 Y71.627 E49.59293
G1 X78.373 Y66.798 E50.06749
G1 X79.171 Y66.798 E50.12295
G1 X83.202 Y70.829 E50.51907
G1 X83.202 Y70.031 E50.57453
G1 X79.969 Y66.798 E50.89221
G1 X80.767 Y66.798 E50.94767
G1 X83.202 Y69.233 E51.18691
G1 X83.202 Y68.435 E51.24238
G1 X81.565 Y66.798 E51.40318
G1 X82.364 Y66.798 E51.45865
G1 X83.202 Y67.636 E51.54101
G1 X83.202 Y66.838 E51.59648
G1 X83.162 Y66.798 E51.60041
M106 S255
M104 S210 ; set temperature
G1 F1800.000 E50.60041
G92 E0
G1 Z0.500 F7800.000
G1 X84.000 Y84.000 F7800.000
G1 E1.00000 F1800.000
G1 X66.000 Y84.000 E1.59868 F1020.050
G1 X66.000 Y66.000 E2.19736
G1 X84.000 Y66.000 E2.79605
G1 X84.000 Y83.940 E3.39273
G1 X84.400 Y84.400 F7800.000
G1 X65.600 Y84.400 E4.01802 F1020.050
G1 X65.600 Y65.600 E4.64332
G1 X84.400 Y65.600 E5.26861
G1 X84.400 Y84.340 E5.89190
G1 X84.800 Y84.800 F7800.000
G1 X65.200 Y84.800 E6.54380 F714.035
G1 X65.200 Y65.200 E7.19570
G1 X84.800 Y65.200 E7.84760
G1 X84.800 Y84.740 E8.49750
G1 X84.454 Y84.600 F7800.000
G1 X83.679 Y83.639 F7800.000
G1 X83.639 Y83.679 E8.50046 F2040.100
G1 X82.727 Y83.679 E8.54807
G1 X83.679 Y82.727 E8.61837
G1 X83.679 Y81.816 E8.66599
G1 X81.816 Y83.679 E8.80363
G1 X80.904 Y83.679 E8.85125
G1 X83.679 Y80.904 E9.05623
G1 X83.679 Y79.993 E9.10384
G1 X79.993 Y83.679 E9.37617
G1 X79.081 Y83.679 E9.42379
G1 X83.679 Y79.081 E9.76345
G1 X83.679 Y78.170 E9.81107
G1 X78.170 Y83.679 E10.21808
G1 X77.259 Y83.679 E10.26569
G1 X83.679 Y77.259 E10.74004
G1 X83.679 Y76.347 E10.78766
G1 X76.347 Y83.679 E11.32935
G1 X75.436 Y83.679 E11.37697
G1 X83.679 Y75.436 E11.98600
G1 X83.679 Y74.524 E12.03362
G1 X74.524 Y83.679 E12.70999
G1 X73.613 Y83.679 E12.75761
G1 X83.679 Y73.613 E13.50133
G1 X83.679 Y72.701 E13.54895
G1 X72.701 Y83.679 E14.36000
G1 X71.790 Y83.679 E14.40762
G1 X83.679 Y71.790 E15.28602
G1 X83.679 Y70.879 E15.33364
G1 X70.879 Y83.679 E16.27938
G1 X69.967 Y83.679 E16.32700
G1 X83.679 Y69.967 E17.34008
G1 X83.679 Y69.056 E17.38770
G1 X69.056 Y83.679 E18.46813
G1 X68.144 Y83.679 E18.51575
G1 X83.679 Y68.144 E19.66351
G1 X83.679 Y67.233 E19.71113
G1 X67.233 Y83.679 E20.92624
G1 X66.341 Y83.659 E20.97283
G1 X83.659 Y66.341 E22.25232
G1 X82.767 Y66.321 E22.29891
G1 X66.321 Y82.767 E23.51402
G1 X66.321 Y81.856 E23.56164
G1 X81.856 Y66.321 E24.70940
G1 X80.944 Y66.321 E24.75702
G1 X66.321 Y80.944 E25.83745
G1 X66.321 Y80.033 E25.88507
G1 X80.033 Y66.321 E26.89815
G1 X79.121 Y66.321 E26.94577
G1 X66.321 Y79.121 E27.89151
G1 X66.321 Y78.210 E27.93913
G1 X78.210 Y66.321 E28.81753
G1 X77.299 Y66.321 E28.86515
G1 X66.321 Y77.299 E29.67620
G1 X66.321 Y76.387 E29.72382
G1 X76.387 Y66.321 E30.46754
G1 X75.476 Y66.321 E30.51516
G1 X66.321 Y75.476 E31.19153
G1 X66.321 Y74.564 E31.23915
G1 X74.564 Y66.321 E31.84818
G1 X73.653 Y66.321 E31.89580
G1 X66.321 Y73.653 E32.43749
G1 X66.321 Y72.741 E32.48511
G1 X72.741 Y66.321 E32.95946
G1 X71.830 Y66.321 E33.00707
G1 X66.321 Y71.830 E33.41408
G1 X66.321 Y70.919 E33.46170
G1 X70.919 Y66.321 E33.80136
G1 X70.007 Y66.321 E33.84898
G1 X66.321 Y70.007 E34.12131
G1 X66.321 Y69.096 E34.16892
G1 X69.096 Y66.321 E34.37390
G1 X68.184 Y66.321 E34.42152
G1 X66.321 Y68.184 E34.55916
G1 X66.321 Y67.273 E34.60678
G1 X67.273 Y66.321 E34.67708
G1 X66.361 Y66.321 E34.72469
G1 X66.321 Y66.361 E34.72765
G1 F1800.000 E33.72765
G92 E0
G1 Z0.700 F7800.000
G1 X84.000 Y84.000 F7800.000
G1 E1.00000 F1800.000
G1 X66.000 Y84.000 E1.59868 F1020.050
G1 X66.000 Y66.000 E2.19736
G1 X84.000 Y66.000 E2.79605
G1 X84.000 Y83.940 E3.39273
G1 X84.400 Y84.400 F7800.000
G1 X65.600 Y84.400 E4.01802 F1020.050
G1 X65.600 Y65.600 E4.64332
G1 X84.400 Y65.600 E5.26861
G1 X84.400 Y84.340 E5.89190
G1 X84.800 Y84.800 F7800.000
G1 X65.200 Y84.800 E6.54380 F714.035
G1 X65.200 Y65.200 E7.19570
G1 X84.800 Y65.200 E7.84760
G1 X84.800 Y84.740 E8.49750
G1 X84.454 Y84.600 F7800.000
G1 X66.361 Y83.679 F7800.000
G1 X66.321 Y83.639 E8.50046 F2040.100
G1 X66.321 Y82.727 E8.54807
G1 X67.273 Y83.679 E8.61837
G1 X68.184 Y83.679 E8.66599
G1 X66.321 Y81.816 E8.80363
G1 X66.321 Y80.904 E8.85125
G1 X69.096 Y83.679 E9.05623
G1 X70.007 Y83.679 E9.10384
G1 X66.321 Y79.993 E9.37617
G1 X66.321 Y79.081 E9.42379
G1 X70.919 Y83.679 E9.76345
G1 X71.830 Y83.679 E9.81107
G1 X66.321 Y78.170 E10.21808
G1 X66.321 Y77.259 E10.26569
G1 X72.741 Y83.679 E10.74004
G1 X73.653 Y83.679 E10.78766
G1 X66.321 Y76.347 E11.32935
G1 X66.321 Y75.436 E11.37697
G1 X74.564 Y83.679 E11.98600
G1 X75.476 Y83.679 E12.03362
G1 X66.321 Y74.524 E12.70999
G1 X66.321 Y73.613 E12.75761
G1 X76.387 Y83.679 E13.50133
G1 X77.299 Y83.679 E13.54895
G1 X66.321 Y72.701 E14.36000
G1 X66.321 Y71.790 E14.40762
G1 X78.210 Y83.679 E15.28602
G1 X79.121 Y83.679 E15.33364
G1 X66.321 Y70.879 E16.27938
G1 X66.321 Y69.967 E16.32700
G1 X80.033 Y83.679 E17.34008
G1 X80.944 Y83.679 E17.38770
G1 X66.321 Y69.056 E18.46813
G1 X66.321 Y68.144 E18.51575
G1 X81.856 Y83.679 E19.66351
G1 X82.767 Y83.679 E19.71113
G1 X66.321 Y67.233 E20.92624
G1 X66.341 Y66.341 E20.97283
G1 X83.659 Y83.659 E22.25232
G1 X83.679 Y82.767 E22.29891
G1 X67.233 Y66.321 E23.51402
G1 X68.144 Y66.321 E23.56164
G1 X83.679 Y81.856 E24.70940
G1 X83.679 Y80.944 E24.75702
G1 X69.056 Y66.321 E25.83745
G1 X69.967 Y66.321 E25.88506
G1 X83.679 Y80.033 E26.89815
G1 X83.679 Y79.121 E26.94577
G1 X70.879 Y66.321 E27.89151
G1 X71.790 Y66.321 E27.93913
G1 X83.679 Y78.210 E28.81753
G1 X83.679 Y77.299 E28.86515
G1 X72.701 Y66.321 E29.67620
G1 X73.613 Y66.321 E29.72382
G1 X83.679 Y76.387 E30.46754
G1 X83.679 Y75.476 E30.51516
G1 X74.524 Y66.321 E31.19153
G1 X75.436 Y66.321 E31.23915
G1 X83.679 Y74.564 E31.84818
G1 X83.679 Y73.653 E31.89580
G1 X76.347 Y66.321 E32.43749
G1 X77.259 Y66.321 E32.48511
G1 X83.679 Y72.741 E32.95946
G1 X83.679 Y71.830 E33.00707
G1 X78.170 Y66.321 E33.41408
G1 X79.081 Y66.321 E33.46170
G1 X83.679 Y70.919 E33.80136
G1 X83.679 Y70.007 E33.84898
G1 X79.993 Y66.321 E34.12131
G1 X80.904 Y66.321 E34.16892
G1 X83.679 Y69.096 E34.37390
G1 X83.679 Y68.184 E34.42152
G1 X81.816 Y66.321 E34.55916
G1 X82.727 Y66.321 E34.60678
G1 X83.679 Y67.273 E34.67708
G1 X83.679 Y66.361 E34.72469
G1 X83.639 Y66.321 E34.72765
G1 F1800.000 E33.72765
G92 E0
G1 Z0.900 F7800.000
G1 X84.000 Y84.000 F7800.000
G1 E1.00000 F1800.000
G1 X66.000 Y84.000 E1.59868 F1020.050
G1 X66.000 Y66.000 E2.19736
G1 X84.000 Y66.000 E2.79605
G1 X84.000 Y83.940 E3.39273
G1 X84.400 Y84.400 F7800.000
G1 X65.600 Y84.400 E4.01802 F1020.050
G1 X65.600 Y65.600 E4.64332
G1 X84.400 Y65.600 E5.26861
G1 X84.400 Y84.340 E5.89190
G1 X84.800 Y84.800 F7800.000
G1 X65.200 Y84.800 E6.54380 F714.035
G1 X65.200 Y65.200 E7.19570
G1 X84.800 Y65.200 E7.84760
G1 X84.800 Y84.740 E8.49750
G1 X84.454 Y84.600 F7800.000
G1 X83.679 Y83.639 F7800.000
G1 X83.639 Y83.679 E8.50046 F2040.100
G1 X82.727 Y83.679 E8.54807
G1 X83.679 Y82.727 E8.61837
G1 X83.679 Y81.816 E8.66599
G1 X81.816 Y83.679 E8.80363
G1 X80.904 Y83.679 E8.85125
G1 X83.679 Y80.904 E9.05623
G1 X83.679 Y79.993 E9.10384
G1 X79.993 Y83.679 E9.37617
G1 X79.081 Y83.679 E9.42379
G1 X83.679 Y79.081 E9.76345
G1 X83.679 Y78.170 E9.81107
G1 X78.170 Y83.679 E10.21808
G1 X77.259 Y83.679 E10.26569
G1 X83.679 Y77.259 E10.74004
G1 X83.679 Y76.347 E10.78766
G1 X76.347 Y83.679 E11.32935
G1 X75.436 Y83.679 E11.37697
G1 X83.679 Y75.436 E11.98600
G1 X83.679 Y74.524 E12.03362
G1 X74.524 Y83.679 E12.70999
G1 X73.613 Y83.679 E12.75761
G1 X83.679 Y73.613 E13.50133
G1 X83.679 Y72.701 E13.54895
G1 X72.701 Y83.679 E14.36000
G1 X71.790 Y83.679 E14.40762
G1 X83.679 Y71.790 E15.28602
G1 X83.679 Y70.879 E15.33364
G1 X70.879 Y83.679 E16.27938
G1 X69.967 Y83.679 E16.32700
G1 X83.679 Y69.967 E17.34008
G1 X83.679 Y69.056 E17.38770
G1 X69.056 Y83.679 E18.46813
G1 X68.144 Y83.679 E18.51575
G1 X83.679 Y68.144 E19.66351
G1 X83.679 Y67.233 E19.71113
G1 X67.233 Y83.679 E20.92624
G1 X66.341 Y83.659 E20.97283
G1 X83.659 Y66.341 E22.25232
G1 X82.767 Y66.321 E22.29891
G1 X66.321 Y82.767 E23.51402
G1 X66.321 Y81.856 E23.56164
G1 X81.856 Y66.321 E24.70940
G1 X80.944 Y66.321 E24.75702
G1 X66.321 Y80.944 E25.83745
G1 X66.321 Y80.033 E25.88507
G1 X80.033 Y66.321 E26.89815
G1 X79.121 Y66.321 E26.94577
G1 X66.321 Y79.121 E27.89151
G1 X66.321 Y78.210 E27.93913
G1 X78.210 Y66.321 E28.81753
G1 X77.299 Y66.321 E28.86515
G1 X66.321 Y77.299 E29.67620
G1 X66.321 Y76.387 E29.72382
G1 X76.387 Y66.321 E30.46754
G1 X75.476 Y66.321 E30.51516
G1 X66.321 Y75.476 E31.19153
G1 X66.321 Y74.564 E31.23915
G1 X74.564 Y66.321 E31.84818
G1 X73.653 Y66.321 E31.89580
G1 X66.321 Y73.653 E32.43749
G1 X66.321 Y72.741 E32.48511
G1 X72.741 Y66.321 E32.95946
G1 X71.830 Y66.321 E33.00707
G1 X66.321 Y71.830 E33.41408
G1 X66.321 Y70.919 E33.46170
G1 X70.919 Y66.321 E33.80136
G1 X70.007 Y66.321 E33.84898
G1 X66.321 Y70.007 E34.12131
G1 X66.321 Y69.096 E34.16892
G1 X69.096 Y66.321 E34.37390
G1 X68.184 Y66.321 E34.42152
G1 X66.321 Y68.184 E34.55916
G1 X66.321 Y67.273 E34.60678
G1 X67.273 Y66.321 E34.67708
G1 X66.361 Y66.321 E34.72469
G1 X66.321 Y66.361 E34.72765
G1 F1800.000 E33.72765
G92 E0
G1 Z1.100 F7800.000
G1 X84.000 Y84.000 F7800.000
G1 E1.00000 F1800.000
G1 X66.000 Y84.000 E1.59868 F770.647
G1 X66.000 Y66.000 E2.19736
G1 X84.000 Y66.000 E2.79605
G1 X84.000 Y83.940 E3.39273
G1 X84.400 Y84.400 F7800.000
G1 X65.600 Y84.400 E4.01802 F770.647
G1 X65.600 Y65.600 E4.64332
G1 X84.400 Y65.600 E5.26861
G1 X84.400 Y84.340 E5.89190
G1 X84.800 Y84.800 F7800.000
G1 X65.200 Y84.800 E6.54380 F600.000
G1 X65.200 Y65.200 E7.19570
G1 X84.800 Y65.200 E7.84760
G1 X84.800 Y84.740 E8.49750
G1 X84.454 Y84.600 F7800.000
G1 X83.659 Y82.265 F7800.000
G1 X83.131 Y80.296 E8.60401 F1541.295
G1 X83.659 Y79.768 E8.64300
G1 X83.659 Y78.624 E8.70280
G1 X83.337 Y77.424 E8.76768
G1 X82.286 Y77.142 E8.82454
G1 X81.723 Y75.040 E8.93826
G1 X82.492 Y74.270 E8.99511
G1 X81.929 Y72.168 E9.10883
G1 X80.878 Y71.886 E9.16568
G1 X80.314 Y69.784 E9.27940
G1 X81.084 Y69.014 E9.33625
G1 X80.521 Y66.912 E9.44997
G1 X79.469 Y66.630 E9.50683
G1 X79.392 Y66.341 E9.52245
G1 X78.741 Y66.341 E9.55644
G1 X78.862 Y66.793 E9.58086
G1 X78.093 Y67.562 E9.63772
G1 X78.656 Y69.665 E9.75144
G1 X79.707 Y69.947 E9.80829
G1 X80.271 Y72.049 E9.92201
G1 X79.501 Y72.818 E9.97886
G1 X80.065 Y74.921 E10.09258
G1 X81.116 Y75.203 E10.14943
G1 X81.679 Y77.305 E10.26315
G1 X80.910 Y78.074 E10.32001
G1 X81.473 Y80.177 E10.43372
G1 X82.524 Y80.458 E10.49058
G1 X83.087 Y82.561 E10.60429
G1 X82.318 Y83.330 E10.66115
G1 X82.406 Y83.659 E10.67890
G1 X81.755 Y83.659 E10.71288
G1 X81.711 Y83.493 E10.72184
G1 X80.660 Y83.211 E10.77870
G1 X80.096 Y81.109 E10.89241
G1 X80.866 Y80.339 E10.94927
G1 X80.303 Y78.237 E11.06298
G1 X79.251 Y77.955 E11.11984
G1 X78.688 Y75.853 E11.23355
G1 X79.458 Y75.083 E11.29041
G1 X78.894 Y72.981 E11.40413
G1 X77.843 Y72.699 E11.46098
G1 X77.280 Y70.597 E11.57470
G1 X78.049 Y69.827 E11.63155
G1 X77.486 Y67.725 E11.74527
G1 X76.435 Y67.443 E11.80212
G1 X76.139 Y66.341 E11.86173
G1 X75.489 Y66.341 E11.89572
G1 X75.828 Y67.606 E11.96412
G1 X75.058 Y68.376 E12.02098
G1 X75.622 Y70.478 E12.13469
G1 X76.673 Y70.760 E12.19155
G1 X77.236 Y72.862 E12.30526
G1 X76.467 Y73.632 E12.36212
G1 X77.030 Y75.734 E12.47583
G1 X78.081 Y76.016 E12.53269
G1 X78.645 Y78.118 E12.64641
G1 X77.875 Y78.888 E12.70326
G1 X78.438 Y80.990 E12.81698
G1 X79.490 Y81.272 E12.87383
G1 X80.053 Y83.374 E12.98755
G1 X79.768 Y83.659 E13.00858
G1 X77.527 Y83.659 E13.12566
G1 X77.062 Y81.922 E13.21959
G1 X77.831 Y81.153 E13.27644
G1 X77.268 Y79.050 E13.39016
G1 X76.217 Y78.768 E13.44702
G1 X75.654 Y76.666 E13.56073
G1 X76.423 Y75.897 E13.61759
G1 X75.860 Y73.794 E13.73130
G1 X74.809 Y73.513 E13.78816
G1 X74.245 Y71.410 E13.90187
G1 X75.015 Y70.641 E13.95873
G1 X74.451 Y68.538 E14.07244
G1 X73.400 Y68.257 E14.12930
G1 X72.887 Y66.341 E14.23289
G1 X72.237 Y66.341 E14.26687
G1 X72.793 Y68.419 E14.37925
G1 X72.024 Y69.189 E14.43611
G1 X72.587 Y71.291 E14.54983
G1 X73.638 Y71.573 E14.60668
G1 X74.202 Y73.675 E14.72040
G1 X73.432 Y74.445 E14.77725
G1 X73.995 Y76.547 E14.89097
G1 X75.047 Y76.829 E14.94782
G1 X75.610 Y78.931 E15.06154
G1 X74.840 Y79.701 E15.11840
G1 X75.404 Y81.803 E15.23211
G1 X76.455 Y82.085 E15.28897
G1 X76.877 Y83.659 E15.37410
G1 X74.275 Y83.659 E15.51003
G1 X74.027 Y82.735 E15.55998
G1 X74.797 Y81.966 E15.61684
G1 X74.234 Y79.863 E15.73055
G1 X73.182 Y79.582 E15.78741
G1 X72.619 Y77.479 E15.90112
G1 X73.389 Y76.710 E15.95798
G1 X72.825 Y74.607 E16.07170
G1 X71.774 Y74.326 E16.12855
