; generated by Slic3r 1.1.7 on 2014-11-29 at 23:41:44

; perimeters extrusion width = 0.40mm
; infill extrusion width = 0.67mm
; solid infill extrusion width = 0.67mm
; top infill extrusion width = 0.67mm

G21 ; set units to millimeters
M107
M104 S215 ; set temperature
G28 ; home all axes
G1 Z5 F5000 ; lift nozzle

M109 S215 ; wait for temperature to be reached
G90 ; use absolute coordinates
G92 E0
M82 ; use absolute distances for extrusion
G1 F1800.000 E-1.00000
G92 E0
G1 Z0.300 F7800.000
G1 X35.733 Y46.315 F7800.000
G1 E1.00000 F1800.000
G1 X39.000 Y45.443 E1.23495 F1080.000
G1 X111.000 Y45.443 E6.23765
G1 X113.247 Y45.840 E6.39618
G1 X115.222 Y46.983 E6.55471 F1080.000
G1 X116.685 Y48.733 E6.71324
G1 X117.557 Y52.000 E6.94819
G1 X117.557 Y72.000 E8.33783
G1 X117.160 Y74.247 E8.49636
G1 X115.637 Y76.637 E8.69328
G1 X89.637 Y102.637 E11.24811
G1 X87.767 Y103.945 E11.40664
G1 X85.000 Y104.557 E11.60356
G1 X65.000 Y104.557 E12.99320
G1 X62.753 Y104.160 E13.15173
G1 X60.363 Y102.637 E13.34865
G1 X34.363 Y76.637 E15.90347
G1 X33.055 Y74.767 E16.06200
G1 X32.443 Y72.000 E16.25892
G1 X32.443 Y52.000 E17.64856
G1 X32.840 Y49.753 E17.80709
G1 X33.983 Y47.778 E17.96562
G1 X35.687 Y46.353 E18.11998
G1 F1800.000 E17.11998
G92 E0
G1 X83.586 Y70.586 F7800.000
G1 E1.00000 F1800.000
G1 X66.414 Y70.586 E2.19312 F540.000
G1 X66.414 Y53.414 E3.38625
G1 X83.586 Y53.414 E4.57937
G1 X83.586 Y70.526 E5.76833
G1 X84.143 Y71.143 F7800.000
G1 X65.857 Y71.143 E7.03886 F540.000
G1 X65.857 Y52.857 E8.30940
G1 X84.143 Y52.857 E9.57994
G1 X84.143 Y71.083 E10.84631
G1 X84.700 Y71.700 F7800.000
G1 X65.300 Y71.700 E12.19426 F378.000
G1 X65.300 Y52.300 E13.54221
G1 X84.700 Y52.300 E14.89016
G1 X84.700 Y71.640 E16.23394
G1 X84.354 Y71.500 F7800.000
G1 X66.798 Y70.162 F7800.000
G1 X66.838 Y70.202 E16.23788 F1080.000
G1 X67.636 Y70.202 E16.29334
G1 X66.798 Y69.364 E16.37571
G1 X66.798 Y68.565 E16.43117
G1 X68.435 Y70.202 E16.59197
G1 X69.233 Y70.202 E16.64744
G1 X66.798 Y67.767 E16.88668
G1 X66.798 Y66.969 E16.94214
G1 X70.031 Y70.202 E17.25982
G1 X70.829 Y70.202 E17.31529
G1 X66.798 Y66.171 E17.71140
G1 X66.798 Y65.373 E17.76687
G1 X71.627 Y70.202 E18.24142
G1 X72.426 Y70.202 E18.29688
G1 X66.798 Y64.574 E18.84987
G1 X66.798 Y63.776 E18.90534
G1 X73.224 Y70.202 E19.53677
G1 X74.022 Y70.202 E19.59223
G1 X66.798 Y62.978 E20.30209
G1 X66.798 Y62.180 E20.35756
G1 X74.820 Y70.202 E21.14586
G1 X75.619 Y70.202 E21.20132
G1 X66.798 Y61.381 E22.06806
G1 X66.798 Y60.583 E22.12353
G1 X76.417 Y70.202 E23.06870
G1 X77.215 Y70.202 E23.12417
G1 X66.798 Y59.785 E24.14778
G1 X66.798 Y58.987 E24.20325
G1 X78.013 Y70.202 E25.30530
G1 X78.812 Y70.202 E25.36076
G1 X66.798 Y58.188 E26.54125
G1 X66.798 Y57.390 E26.59671
G1 X79.610 Y70.202 E27.85564
G1 X80.408 Y70.202 E27.91110
G1 X66.798 Y56.592 E29.24846
G1 X66.798 Y55.794 E29.30393
G1 X81.206 Y70.202 E30.71973
G1 X82.005 Y70.202 E30.77519
G1 X66.798 Y54.995 E32.26943
G1 X66.798 Y54.197 E32.32489
G1 X82.803 Y70.202 E33.89757
G1 X83.202 Y69.803 E33.93678
G1 X67.197 Y53.798 E35.50946
G1 X67.995 Y53.798 E35.56492
G1 X83.202 Y69.005 E37.05916
G1 X83.202 Y68.206 E37.11462
G1 X68.794 Y53.798 E38.53042
G1 X69.592 Y53.798 E38.58589
G1 X83.202 Y67.408 E39.92325
G1 X83.202 Y66.610 E39.97871
G1 X70.390 Y53.798 E41.23764
G1 X71.188 Y53.798 E41.29310
G1 X83.202 Y65.812 E42.47359
G1 X83.202 Y65.013 E42.52905
G1 X71.987 Y53.798 E43.63111
G1 X72.785 Y53.798 E43.68657
G1 X83.202 Y64.215 E44.71018
G1 X83.202 Y63.417 E44.76565
G1 X73.583 Y53.798 E45.71082
G1 X74.381 Y53.798 E45.76629
G1 X83.202 Y62.619 E46.63303
G1 X83.202 Y61.820 E46.68849
G1 X75.180 Y53.798 E47.47679
G1 X75.978 Y53.798 E47.53226
G1 X83.202 Y61.022 E48.24212
G1 X83.202 Y60.224 E48.29759
G1 X76.776 Y53.798 E48.92901
G1 X77.574 Y53.798 E48.98448
G1 X83.202 Y59.426 E49.53747
G1 X83.202 Y58.627 E49.59293
G1 X78.373 Y53.798 E50.06749
G1 X79.171 Y53.798 E50.12295
G1 X83.202 Y57.829 E50.51907
G1 X83.202 Y57.031 E50.57453
G1 X79.969 Y53.798 E50.89221
G1 X80.767 Y53.798 E50.94767
G1 X83.202 Y56.233 E51.18691
G1 X83.202 Y55.435 E51.24238
G1 X81.565 Y53.798 E51.40318
G1 X82.364 Y53.798 E51.45865
G1 X83.202 Y54.636 E51.54101
G1 X83.202 Y53.838 E51.59648
G1 X83.162 Y53.798 E51.60041
G1 F1800.000 E50.60041
G92 E0
G1 X83.586 Y79.414 F7800.000
G1 E1.00000 F1800.000
G1 X83.586 Y96.586 E2.19312 F540.000
G1 X66.414 Y96.586 E3.38625
G1 X66.414 Y79.414 E4.57937
G1 X83.526 Y79.414 E5.76833
G1 X84.143 Y78.857 F7800.000
G1 X84.143 Y97.143 E7.03886 F540.000
G1 X65.857 Y97.143 E8.30940
G1 X65.857 Y78.857 E9.57994
G1 X84.083 Y78.857 E10.84631
G1 X84.700 Y78.300 F7800.000
G1 X84.700 Y97.700 E12.19426 F378.000
G1 X65.300 Y97.700 E13.54221
G1 X65.300 Y78.300 E14.89016
G1 X84.640 Y78.300 E16.23394
G1 X84.500 Y78.646 F7800.000
G1 X83.162 Y79.798 F7800.000
G1 X83.202 Y79.838 E16.23788 F1080.000
G1 X83.202 Y80.636 E16.29334
G1 X82.364 Y79.798 E16.37571
G1 X81.565 Y79.798 E16.43117
G1 X83.202 Y81.435 E16.59197
G1 X83.202 Y82.233 E16.64744
G1 X80.767 Y79.798 E16.88668
G1 X79.969 Y79.798 E16.94214
G1 X83.202 Y83.031 E17.25982
G1 X83.202 Y83.829 E17.31529
G1 X79.171 Y79.798 E17.71140
G1 X78.373 Y79.798 E17.76687
G1 X83.202 Y84.627 E18.24142
G1 X83.202 Y85.426 E18.29688
G1 X77.574 Y79.798 E18.84987
G1 X76.776 Y79.798 E18.90534
G1 X83.202 Y86.224 E19.53677
G1 X83.202 Y87.022 E19.59223
G1 X75.978 Y79.798 E20.30209
G1 X75.180 Y79.798 E20.35756
G1 X83.202 Y87.820 E21.14586
G1 X83.202 Y88.619 E21.20132
G1 X74.381 Y79.798 E22.06806
G1 X73.583 Y79.798 E22.12353
G1 X83.202 Y89.417 E23.06870
G1 X83.202 Y90.215 E23.12417
G1 X72.785 Y79.798 E24.14778
G1 X71.987 Y79.798 E24.20325
G1 X83.202 Y91.013 E25.30530
G1 X83.202 Y91.812 E25.36076
G1 X71.188 Y79.798 E26.54125
G1 X70.390 Y79.798 E26.59671
G1 X83.202 Y92.610 E27.85564
G1 X83.202 Y93.408 E27.91110
G1 X69.592 Y79.798 E29.24846
G1 X68.794 Y79.798 E29.30393
G1 X83.202 Y94.206 E30.71973
G1 X83.202 Y95.005 E30.77519
G1 X67.995 Y79.798 E32.26943
G1 X67.197 Y79.798 E32.32489
G1 X83.202 Y95.803 E33.89757
G1 X82.803 Y96.202 E33.93678
G1 X66.798 Y80.197 E35.50946
G1 X66.798 Y80.995 E35.56492
G1 X82.005 Y96.202 E37.05916
G1 X81.206 Y96.202 E37.11462
G1 X66.798 Y81.794 E38.53042
G1 X66.798 Y82.592 E38.58589
G1 X80.408 Y96.202 E39.92325
G1 X79.610 Y96.202 E39.97871
G1 X66.798 Y83.390 E41.23764
G1 X66.798 Y84.188 E41.29310
G1 X78.812 Y96.202 E42.47359
G1 X78.013 Y96.202 E42.52906
G1 X66.798 Y84.987 E43.63111
G1 X66.798 Y85.785 E43.68657
G1 X77.215 Y96.202 E44.71018
G1 X76.417 Y96.202 E44.76565
G1 X66.798 Y86.583 E45.71082
G1 X66.798 Y87.381 E45.76629
G1 X75.619 Y96.202 E46.63303
G1 X74.820 Y96.202 E46.68849
G1 X66.798 Y88.180 E47.47679
G1 X66.798 Y88.978 E47.53226
G1 X74.022 Y96.202 E48.24212
G1 X73.224 Y96.202 E48.29759
G1 X66.798 Y89.776 E48.92901
G1 X66.798 Y90.574 E48.98448
G1 X72.426 Y96.202 E49.53747
G1 X71.627 Y96.202 E49.59293
G1 X66.798 Y91.373 E50.06749
G1 X66.798 Y92.171 E50.12295
G1 X70.829 Y96.202 E50.51907
G1 X70.031 Y96.202 E50.57453
G1 X66.798 Y92.969 E50.89221
G1 X66.798 Y93.767 E50.94767
G1 X69.233 Y96.202 E51.18691
G1 X68.435 Y96.202 E51.24238
G1 X66.798 Y94.565 E51.40318
G1 X66.798 Y95.364 E51.45865
G1 X67.636 Y96.202 E51.54101
G1 X66.838 Y96.202 E51.59648
G1 X66.798 Y96.162 E51.60041
G1 F1800.000 E50.60041
G92 E0
G1 X57.586 Y70.586 F7800.000
G1 E1.00000 F1800.000
G1 X40.414 Y70.586 E2.19312 F540.000
G1 X40.414 Y53.414 E3.38625
G1 X57.586 Y53.414 E4.57937
G1 X57.586 Y70.526 E5.76833
G1 X58.143 Y71.143 F7800.000
G1 X39.857 Y71.143 E7.03886 F540.000
G1 X39.857 Y52.857 E8.30940
G1 X58.143 Y52.857 E9.57994
G1 X58.143 Y71.083 E10.84631
G1 X58.700 Y71.700 F7800.000
G1 X39.300 Y71.700 E12.19426 F378.000
G1 X39.300 Y52.300 E13.54221
G1 X58.700 Y52.300 E14.89016
G1 X58.700 Y71.640 E16.23394
G1 X58.354 Y71.500 F7800.000
G1 X40.798 Y70.162 F7800.000
G1 X40.838 Y70.202 E16.23788 F1080.000
G1 X41.636 Y70.202 E16.29334
G1 X40.798 Y69.364 E16.37571
G1 X40.798 Y68.565 E16.43117
G1 X42.435 Y70.202 E16.59197
G1 X43.233 Y70.202 E16.64744
G1 X40.798 Y67.767 E16.88668
G1 X40.798 Y66.969 E16.94214
G1 X44.031 Y70.202 E17.25982
G1 X44.829 Y70.202 E17.31529
G1 X40.798 Y66.171 E17.71140
G1 X40.798 Y65.373 E17.76687
G1 X45.627 Y70.202 E18.24142
G1 X46.426 Y70.202 E18.29688
G1 X40.798 Y64.574 E18.84987
G1 X40.798 Y63.776 E18.90534
G1 X47.224 Y70.202 E19.53677
G1 X48.022 Y70.202 E19.59223
G1 X40.798 Y62.978 E20.30209
G1 X40.798 Y62.180 E20.35756
G1 X48.820 Y70.202 E21.14586
G1 X49.619 Y70.202 E21.20132
G1 X40.798 Y61.381 E22.06806
G1 X40.798 Y60.583 E22.12353
G1 X50.417 Y70.202 E23.06870
G1 X51.215 Y70.202 E23.12417
G1 X40.798 Y59.785 E24.14778
G1 X40.798 Y58.987 E24.20325
G1 X52.013 Y70.202 E25.30530
G1 X52.812 Y70.202 E25.36076
G1 X40.798 Y58.188 E26.54125
G1 X40.798 Y57.390 E26.59671
G1 X53.610 Y70.202 E27.85564
G1 X54.408 Y70.202 E27.91110
G1 X40.798 Y56.592 E29.24846
G1 X40.798 Y55.794 E29.30393
G1 X55.206 Y70.202 E30.71973
G1 X56.005 Y70.202 E30.77519
G1 X40.798 Y54.995 E32.26943
G1 X40.798 Y54.197 E32.32489
G1 X56.803 Y70.202 E33.89757
G1 X57.202 Y69.803 E33.93679
G1 X41.197 Y53.798 E35.50946
G1 X41.995 Y53.798 E35.56492
G1 X57.202 Y69.005 E37.05916
G1 X57.202 Y68.206 E37.11462
G1 X42.794 Y53.798 E38.53042
G1 X43.592 Y53.798 E38.58589
G1 X57.202 Y67.408 E39.92325
G1 X57.202 Y66.610 E39.97871
G1 X44.390 Y53.798 E41.23764
G1 X45.188 Y53.798 E41.29310
G1 X57.202 Y65.812 E42.47359
G1 X57.202 Y65.013 E42.52906
G1 X45.987 Y53.798 E43.63111
G1 X46.785 Y53.798 E43.68657
G1 X57.202 Y64.215 E44.71018
G1 X57.202 Y63.417 E44.76565
G1 X47.583 Y53.798 E45.71083
G1 X48.381 Y53.798 E45.76629
G1 X57.202 Y62.619 E46.63303
G1 X57.202 Y61.820 E46.68849
G1 X49.180 Y53.798 E47.47679
G1 X49.978 Y53.798 E47.53226
G1 X57.202 Y61.022 E48.24212
G1 X57.202 Y60.224 E48.29759
G1 X50.776 Y53.798 E48.92901
G1 X51.574 Y53.798 E48.98448
G1 X57.202 Y59.426 E49.53747
G1 X57.202 Y58.627 E49.59293
G1 X52.373 Y53.798 E50.06749
G1 X53.171 Y53.798 E50.12295
G1 X57.202 Y57.829 E50.51907
G1 X57.202 Y57.031 E50.57453
G1 X53.969 Y53.798 E50.89221
G1 X54.767 Y53.798 E50.94767
G1 X57.202 Y56.233 E51.18691
G1 X57.202 Y55.435 E51.24238
G1 X55.565 Y53.798 E51.40318
G1 X56.364 Y53.798 E51.45865
G1 X57.202 Y54.636 E51.54101
G1 X57.202 Y53.838 E51.59648
G1 X57.162 Y53.798 E51.60041
G1 F1800.000 E50.60041
G92 E0
G1 X92.414 Y53.414 F7800.000
G1 E1.00000 F1800.000
G1 X109.586 Y53.414 E2.19312 F540.000
G1 X109.586 Y70.586 E3.38625
G1 X92.414 Y70.586 E4.57937
G1 X92.414 Y53.474 E5.76833
G1 X91.857 Y52.857 F7800.000
G1 X110.143 Y52.857 E7.03886 F540.000
G1 X110.143 Y71.143 E8.30940
G1 X91.857 Y71.143 E9.57994
G1 X91.857 Y52.917 E10.84631
G1 X91.300 Y52.300 F7800.000
G1 X110.700 Y52.300 E12.19426 F378.000
G1 X110.700 Y71.700 E13.54221
G1 X91.300 Y71.700 E14.89016
G1 X91.300 Y52.360 E16.23394
G1 X91.646 Y52.500 F7800.000
G1 X109.162 Y53.798 F7800.000
G1 X109.202 Y53.838 E16.23788 F1080.000
G1 X109.202 Y54.636 E16.29334
G1 X108.364 Y53.798 E16.37571
G1 X107.565 Y53.798 E16.43117
G1 X109.202 Y55.435 E16.59197
G1 X109.202 Y56.233 E16.64744
G1 X106.767 Y53.798 E16.88668
G1 X105.969 Y53.798 E16.94214
G1 X109.202 Y57.031 E17.25982
G1 X109.202 Y57.829 E17.31529
G1 X105.171 Y53.798 E17.71140
G1 X104.373 Y53.798 E17.76687
G1 X109.202 Y58.627 E18.24142
G1 X109.202 Y59.426 E18.29688
G1 X103.574 Y53.798 E18.84988
G1 X102.776 Y53.798 E18.90534
G1 X109.202 Y60.224 E19.53677
G1 X109.202 Y61.022 E19.59223
G1 X101.978 Y53.798 E20.30210
G1 X101.180 Y53.798 E20.35756
G1 X109.202 Y61.820 E21.14586
G1 X109.202 Y62.619 E21.20133
G1 X100.381 Y53.798 E22.06807
G1 X99.583 Y53.798 E22.12353
G1 X109.202 Y63.417 E23.06871
G1 X109.202 Y64.215 E23.12417
G1 X98.785 Y53.798 E24.14778
G1 X97.987 Y53.798 E24.20325
G1 X109.202 Y65.013 E25.30530
G1 X109.202 Y65.812 E25.36076
G1 X97.188 Y53.798 E26.54125
G1 X96.390 Y53.798 E26.59671
G1 X109.202 Y66.610 E27.85564
G1 X109.202 Y67.408 E27.91110
G1 X95.592 Y53.798 E29.24847
G1 X94.794 Y53.798 E29.30393
G1 X109.202 Y68.206 E30.71973
G1 X109.202 Y69.005 E30.77519
G1 X93.995 Y53.798 E32.26943
G1 X93.197 Y53.798 E32.32490
G1 X109.202 Y69.803 E33.89757
G1 X108.803 Y70.202 E33.93679
G1 X92.798 Y54.197 E35.50946
G1 X92.798 Y54.995 E35.56493
G1 X108.005 Y70.202 E37.05916
G1 X107.206 Y70.202 E37.11463
G1 X92.798 Y55.794 E38.53043
G1 X92.798 Y56.592 E38.58589
G1 X106.408 Y70.202 E39.92325
G1 X105.610 Y70.202 E39.97872
G1 X92.798 Y57.390 E41.23764
G1 X92.798 Y58.188 E41.29311
G1 X104.812 Y70.202 E42.47359
G1 X104.013 Y70.202 E42.52906
G1 X92.798 Y58.987 E43.63111
G1 X92.798 Y59.785 E43.68657
G1 X103.215 Y70.202 E44.71019
G1 X102.417 Y70.202 E44.76565
G1 X92.798 Y60.583 E45.71083
G1 X92.798 Y61.381 E45.76629
G1 X101.619 Y70.202 E46.63303
G1 X100.820 Y70.202 E46.68849
G1 X92.798 Y62.180 E47.47679
G1 X92.798 Y62.978 E47.53226
G1 X100.022 Y70.202 E48.24212
G1 X99.224 Y70.202 E48.29759
G1 X92.798 Y63.776 E48.92901
G1 X92.798 Y64.574 E48.98448
G1 X98.426 Y70.202 E49.53747
G1 X97.627 Y70.202 E49.59293
G1 X92.798 Y65.373 E50.06749
G1 X92.798 Y66.171 E50.12295
G1 X96.829 Y70.202 E50.51907
G1 X96.031 Y70.202 E50.57453
G1 X92.798 Y66.969 E50.89221
G1 X92.798 Y67.767 E50.94767
G1 X95.233 Y70.202 E51.18691
G1 X94.435 Y70.202 E51.24238
G1 X92.798 Y68.565 E51.40318
G1 X92.798 Y69.364 E51.45865
G1 X93.636 Y70.202 E51.54101
G1 X92.838 Y70.202 E51.59648
G1 X92.798 Y70.162 E51.60041
M104 S210 ; set temperature
G1 F1800.000 E50.60041
G92 E0
G1 Z0.500 F7800.000
G1 X84.000 Y71.000 F7800.000
G1 E1.00000 F1800.000
G1 X66.000 Y71.000 E1.59868 F1800.000
G1 X66.000 Y53.000 E2.19736
G1 X84.000 Y53.000 E2.79605
G1 X84.000 Y70.940 E3.39273
G1 X84.400 Y71.400 F7800.000
G1 X65.600 Y71.400 E4.01802 F1800.000
G1 X65.600 Y52.600 E4.64332
G1 X84.400 Y52.600 E5.26861
G1 X84.400 Y71.340 E5.89190
G1 X84.800 Y71.800 F7800.000
G1 X65.200 Y71.800 E6.54380 F1260.000
G1 X65.200 Y52.200 E7.19570
G1 X84.800 Y52.200 E7.84760
G1 X84.800 Y71.740 E8.49750
G1 X84.454 Y71.600 F7800.000
G1 X83.679 Y70.639 F7800.000
G1 X83.639 Y70.679 E8.50046 F3600.000
G1 X82.727 Y70.679 E8.54807
G1 X83.679 Y69.727 E8.61837
G1 X83.679 Y68.816 E8.66599
G1 X81.816 Y70.679 E8.80363
G1 X80.904 Y70.679 E8.85125
G1 X83.679 Y67.904 E9.05623
G1 X83.679 Y66.993 E9.10384
G1 X79.993 Y70.679 E9.37617
G1 X79.081 Y70.679 E9.42379
G1 X83.679 Y66.081 E9.76345
G1 X83.679 Y65.170 E9.81107
G1 X78.170 Y70.679 E10.21808
G1 X77.259 Y70.679 E10.26569
G1 X83.679 Y64.259 E10.74004
G1 X83.679 Y63.347 E10.78766
G1 X76.347 Y70.679 E11.32935
G1 X75.436 Y70.679 E11.37697
G1 X83.679 Y62.436 E11.98600
G1 X83.679 Y61.524 E12.03362
G1 X74.524 Y70.679 E12.70999
G1 X73.613 Y70.679 E12.75761
G1 X83.679 Y60.613 E13.50133
G1 X83.679 Y59.701 E13.54895
G1 X72.701 Y70.679 E14.36000
G1 X71.790 Y70.679 E14.40762
G1 X83.679 Y58.790 E15.28602
G1 X83.679 Y57.879 E15.33364
G1 X70.879 Y70.679 E16.27938
G1 X69.967 Y70.679 E16.32700
G1 X83.679 Y56.967 E17.34008
G1 X83.679 Y56.056 E17.38770
G1 X69.056 Y70.679 E18.46813
G1 X68.144 Y70.679 E18.51575
G1 X83.679 Y55.144 E19.66351
G1 X83.679 Y54.233 E19.71113
G1 X67.233 Y70.679 E20.92624
G1 X66.341 Y70.659 E20.97283
G1 X83.659 Y53.341 E22.25232
G1 X82.767 Y53.321 E22.29891
G1 X66.321 Y69.767 E23.51402
G1 X66.321 Y68.856 E23.56163
G1 X81.856 Y53.321 E24.70940
G1 X80.944 Y53.321 E24.75702
G1 X66.321 Y67.944 E25.83745
G1 X66.321 Y67.033 E25.88506
G1 X80.033 Y53.321 E26.89815
G1 X79.121 Y53.321 E26.94577
G1 X66.321 Y66.121 E27.89151
G1 X66.321 Y65.210 E27.93913
G1 X78.210 Y53.321 E28.81753
G1 X77.299 Y53.321 E28.86514
G1 X66.321 Y64.299 E29.67620
G1 X66.321 Y63.387 E29.72382
G1 X76.387 Y53.321 E30.46754
G1 X75.476 Y53.321 E30.51516
G1 X66.321 Y62.476 E31.19153
G1 X66.321 Y61.564 E31.23915
G1 X74.564 Y53.321 E31.84818
G1 X73.653 Y53.321 E31.89580
G1 X66.321 Y60.653 E32.43749
G1 X66.321 Y59.741 E32.48511
G1 X72.741 Y53.321 E32.95946
G1 X71.830 Y53.321 E33.00707
G1 X66.321 Y58.830 E33.41408
G1 X66.321 Y57.919 E33.46170
G1 X70.919 Y53.321 E33.80136
G1 X70.007 Y53.321 E33.84898
G1 X66.321 Y57.007 E34.12130
G1 X66.321 Y56.096 E34.16892
G1 X69.096 Y53.321 E34.37390
G1 X68.184 Y53.321 E34.42152
G1 X66.321 Y55.184 E34.55916
G1 X66.321 Y54.273 E34.60678
G1 X67.273 Y53.321 E34.67708
