; generated by Slic3r 1.1.7 on 2014-11-30 at 11:25:42

; perimeters extrusion width = 0.40mm
; infill extrusion width = 0.42mm
; solid infill extrusion width = 0.42mm
; top infill extrusion width = 0.42mm

G21 ; set units to millimeters
M107
M104 S215 ; set temperature
G28 ; home all axes
G1 Z5 F5000 ; lift nozzle

M109 S215 ; wait for temperature to be reached
G90 ; use absolute coordinates
G92 E0
M82 ; use absolute distances for extrusion
G1 F1800.000 E-1.00000
G92 E0
G1 Z0.400 F7800.000
G1 X52.327 Y53.220 F7800.000
G1 E1.00000 F1800.000
G1 X54.083 Y51.720 E1.27422 F1080.000
G1 X56.243 Y50.905 E1.54845
G1 X57.500 Y50.786 E1.69842
G1 X62.500 Y50.786 E2.29224
G1 X64.775 Y51.183 E2.56647
G1 X67.248 Y52.752 E2.91434 F1080.000
G1 X87.248 Y72.752 E6.27352
G1 X88.575 Y74.641 E6.54775
G1 X89.214 Y77.500 E6.89562
G1 X89.214 Y82.500 E7.48944
G1 X88.817 Y84.775 E7.76367
G1 X87.673 Y86.780 E8.03789
G1 X85.917 Y88.280 E8.31212
G1 X83.757 Y89.095 E8.58634
G1 X82.500 Y89.214 E8.73631
G1 X57.500 Y89.214 E11.70544
G1 X55.225 Y88.817 E11.97966
G1 X53.220 Y87.673 E12.25389
G1 X51.720 Y85.917 E12.52811
G1 X50.905 Y83.757 E12.80234
G1 X50.786 Y82.500 E12.95230
G1 X50.786 Y57.500 E15.92143
G1 X51.183 Y55.225 E16.19566
G1 X52.297 Y53.272 E16.46276
G1 F1800.000 E15.46276
G92 E0
G1 X57.900 Y57.900 F7800.000
G1 E1.00000 F1800.000
G1 X62.100 Y57.900 E1.49881 F378.000
G1 X62.100 Y62.900 E2.09264
G1 X67.100 Y62.900 E2.68647 F378.000
G1 X67.100 Y67.900 E3.28029
G1 X72.100 Y67.900 E3.87412
G1 X72.100 Y72.900 E4.46794
G1 X77.100 Y72.900 E5.06177
G1 X77.100 Y77.900 E5.65559
G1 X82.100 Y77.900 E6.24942
G1 X82.100 Y82.100 E6.74823
G1 X72.900 Y82.100 E7.84087
G1 X72.900 Y77.100 E8.43470
G1 X62.100 Y77.100 E9.71736
G1 X62.100 Y82.100 E10.31119
G1 X57.900 Y82.100 E10.81000
G1 X57.900 Y57.960 E13.67699
G1 X58.398 Y60.297 F7800.000
G1 X79.703 Y81.602 E17.25549 F1080.000
G1 X81.602 Y78.438 F7800.000
G1 X81.562 Y78.398 E17.26221 F1080.000
G1 X80.550 Y78.398 E17.38248
G1 X81.602 Y79.450 E17.55928
G1 X81.602 Y80.463 E17.67955
G1 X79.537 Y78.398 E18.02644
G1 X78.524 Y78.398 E18.14671
G1 X81.602 Y81.476 E18.66368
G1 X80.716 Y81.602 E18.76999
G1 X77.512 Y78.398 E19.30821
G1 X73.398 Y78.334 F7800.000
G1 X76.666 Y81.602 E19.85707 F1080.000
G1 X75.653 Y81.602 E19.97734
G1 X73.398 Y79.347 E20.35611
G1 X73.398 Y80.360 E20.47637
G1 X74.640 Y81.602 E20.68506
G1 X73.628 Y81.602 E20.80533
G1 X73.398 Y81.372 E20.84393
G1 X73.398 Y77.322 F7800.000
G1 X77.678 Y81.602 E21.56287 F1080.000
G1 X78.691 Y81.602 E21.68313
G1 X58.398 Y61.309 E25.09155
G1 X58.398 Y62.322 E25.21182
G1 X72.678 Y76.602 E27.61035
G1 X71.666 Y76.602 E27.73062
G1 X58.398 Y63.334 E29.95906
G1 X58.398 Y64.347 E30.07933
G1 X70.653 Y76.602 E32.13770
G1 X69.640 Y76.602 E32.25796
G1 X58.398 Y65.360 E34.14624
G1 X58.398 Y66.372 E34.26651
G1 X68.628 Y76.602 E35.98470
G1 X67.615 Y76.602 E36.10497
G1 X58.398 Y67.385 E37.65308
G1 X58.398 Y68.398 E37.77335
G1 X66.602 Y76.602 E39.15137
G1 X65.590 Y76.602 E39.27164
G1 X58.398 Y69.410 E40.47958
G1 X58.398 Y70.423 E40.59985
G1 X64.577 Y76.602 E41.63770
G1 X63.564 Y76.602 E41.75797
G1 X58.398 Y71.436 E42.62574
G1 X58.398 Y72.448 E42.74601
G1 X62.552 Y76.602 E43.44369
G1 X61.602 Y76.666 E43.55670
G1 X58.398 Y73.461 E44.09492
G1 X58.398 Y74.474 E44.21519
G1 X61.602 Y77.678 E44.75342
G1 X61.602 Y78.691 E44.87369
G1 X58.398 Y75.486 E45.41191
G1 X58.398 Y76.499 E45.53218
G1 X61.602 Y79.703 E46.07041
G1 X61.602 Y80.716 E46.19068
G1 X58.398 Y77.512 E46.72890
G1 X58.398 Y78.524 E46.84917
G1 X61.476 Y81.602 E47.36614
G1 X60.463 Y81.602 E47.48641
G1 X58.398 Y79.537 E47.83330
G1 X58.398 Y80.550 E47.95357
G1 X59.450 Y81.602 E48.13037
G1 X58.438 Y81.602 E48.25064
G1 X58.398 Y81.562 E48.25736
G1 X67.512 Y68.398 F7800.000
G1 X71.602 Y72.488 E48.94442 F1080.000
G1 X71.602 Y71.476 E49.06468
G1 X68.524 Y68.398 E49.58166
G1 X69.537 Y68.398 E49.70193
G1 X71.602 Y70.463 E50.04881
G1 X71.602 Y69.450 E50.16908
G1 X70.550 Y68.398 E50.34588
G1 X71.562 Y68.398 E50.46615
G1 X71.602 Y68.438 E50.47287
G1 X72.512 Y73.398 F7800.000
G1 X76.602 Y77.488 E51.15993 F1080.000
G1 X76.602 Y76.476 E51.28020
G1 X73.524 Y73.398 E51.79717
G1 X74.537 Y73.398 E51.91744
G1 X76.602 Y75.463 E52.26433
G1 X76.602 Y74.450 E52.38459
G1 X75.550 Y73.398 E52.56140
G1 X76.562 Y73.398 E52.68167
G1 X76.602 Y73.438 E52.68838
G1 F1800.000 E51.68838
G92 E0
G1 X66.602 Y63.438 F7800.000
G1 E1.00000 F1800.000
G1 X66.562 Y63.398 E1.00672 F1080.000
G1 X65.550 Y63.398 E1.12699
G1 X66.602 Y64.450 E1.30379
G1 X66.602 Y65.463 E1.42406
G1 X64.537 Y63.398 E1.77095
G1 X63.524 Y63.398 E1.89121
G1 X66.602 Y66.476 E2.40819
G1 X66.602 Y67.488 E2.52846
G1 X62.512 Y63.398 E3.21551
G1 X61.602 Y62.488 F7800.000
G1 X58.398 Y59.284 E3.75374 F1080.000
G1 X58.524 Y58.398 E3.86005
G1 X61.602 Y61.476 E4.37702
G1 X61.602 Y60.463 E4.49729
G1 X59.537 Y58.398 E4.84418
G1 X60.550 Y58.398 E4.96444
G1 X61.602 Y59.450 E5.14125
G1 X61.602 Y58.438 E5.26152
G1 X61.562 Y58.398 E5.26823
M106 S255
M104 S210 ; set temperature
G1 F1800.000 E4.26823
G92 E0
G1 Z0.700 F7800.000
G1 X61.562 Y57.700 F7800.000
G1 E1.00000 F1800.000
G1 X62.300 Y57.700 E1.03681 F709.796
G1 X62.300 Y62.700 E1.28626
G1 X67.300 Y62.700 E1.53571 F709.796
G1 X67.300 Y67.700 E1.78516
G1 X72.300 Y67.700 E2.03461
G1 X72.300 Y72.700 E2.28406
G1 X77.300 Y72.700 E2.53351
G1 X77.300 Y77.700 E2.78296
G1 X82.300 Y77.700 E3.03241
G1 X82.300 Y82.300 E3.26191
G1 X72.700 Y82.300 E3.74086
G1 X72.700 Y77.300 E3.99031
G1 X62.300 Y77.300 E4.50916
G1 X62.300 Y82.300 E4.75862
G1 X57.700 Y82.300 E4.98811
G1 X57.700 Y57.700 E6.21541
G1 X61.502 Y57.700 E6.40510
G1 X58.014 Y57.974 F7800.000
G1 X57.974 Y58.014 E6.40806 F2027.987
G1 X57.974 Y58.607 E6.43904
G1 X58.607 Y57.974 E6.48580
G1 X59.200 Y57.974 E6.51677
G1 X57.974 Y59.200 E6.60734
G1 X57.974 Y59.793 E6.63831
G1 X59.793 Y57.974 E6.77268
G1 X60.386 Y57.974 E6.80366
G1 X57.974 Y60.386 E6.98183
G1 X57.974 Y60.979 E7.01281
G1 X60.979 Y57.974 E7.23479
G1 X61.571 Y57.974 E7.26576
G1 X57.974 Y61.571 E7.53155
G1 X57.974 Y62.164 E7.56252
G1 X62.026 Y58.113 E7.86187
G1 X62.026 Y58.706 E7.89285
G1 X57.974 Y62.757 E8.19220
G1 X57.974 Y63.350 E8.22317
G1 X62.026 Y59.299 E8.52252
G1 X62.026 Y59.891 E8.55350
G1 X57.974 Y63.943 E8.85285
G1 X57.974 Y64.536 E8.88382
G1 X62.026 Y60.484 E9.18317
G1 X62.026 Y61.077 E9.21415
G1 X57.974 Y65.129 E9.51350
G1 X57.974 Y65.722 E9.54447
G1 X62.026 Y61.670 E9.84382
G1 X62.026 Y62.263 E9.87480
G1 X57.974 Y66.315 E10.17415
G1 X57.974 Y66.907 E10.20512
G1 X62.026 Y62.856 E10.50447
G1 X62.500 Y62.974 E10.53002
G1 X57.974 Y67.500 E10.86443
G1 X57.974 Y68.093 E10.89541
G1 X63.093 Y62.974 E11.27362
G1 X63.686 Y62.974 E11.30459
G1 X57.974 Y68.686 E11.72661
G1 X57.974 Y69.279 E11.75759
G1 X64.279 Y62.974 E12.22341
G1 X64.872 Y62.974 E12.25439
G1 X57.974 Y69.872 E12.76402
G1 X57.974 Y70.465 E12.79499
G1 X65.465 Y62.974 E13.34842
G1 X66.058 Y62.974 E13.37940
G1 X57.974 Y71.058 E13.97664
G1 X57.974 Y71.650 E14.00761
G1 X66.650 Y62.974 E14.64866
G1 X67.026 Y63.192 E14.67132
G1 X57.974 Y72.243 E15.34010
G1 X57.974 Y72.836 E15.37107
G1 X67.026 Y63.785 E16.03985
G1 X67.026 Y64.378 E16.07083
G1 X57.974 Y73.429 E16.73960
G1 X57.974 Y74.022 E16.77058
G1 X67.026 Y64.970 E17.43936
G1 X67.026 Y65.563 E17.47033
G1 X57.974 Y74.615 E18.13911
G1 X57.974 Y75.208 E18.17008
G1 X67.026 Y66.156 E18.83886
G1 X67.026 Y66.749 E18.86984
G1 X57.974 Y75.801 E19.53861
G1 X57.974 Y76.393 E19.56959
G1 X67.026 Y67.342 E20.23837
G1 X67.026 Y67.935 E20.26934
G1 X57.974 Y76.986 E20.93812
G1 X57.974 Y77.579 E20.96909
G1 X67.579 Y67.974 E21.67876
G1 X68.172 Y67.974 E21.70974
G1 X57.974 Y78.172 E22.46321
G1 X57.974 Y78.765 E22.49418
G1 X68.765 Y67.974 E23.29146
G1 X69.358 Y67.974 E23.32243
G1 X57.974 Y79.358 E24.16352
G1 X57.974 Y79.951 E24.19449
G1 X69.951 Y67.974 E25.07938
G1 X70.544 Y67.974 E25.11035
G1 X57.974 Y80.544 E26.03905
G1 X61.828 Y82.026 F7800.000
G1 X62.026 Y81.828 E26.05366 F2027.987
G1 X62.026 Y81.235 E26.08464
G1 X61.235 Y82.026 E26.14306
G1 X60.642 Y82.026 E26.17403
G1 X62.026 Y80.642 E26.27626
G1 X62.026 Y80.049 E26.30724
G1 X60.049 Y82.026 E26.45327
G1 X59.456 Y82.026 E26.48424
G1 X62.026 Y79.456 E26.67408
G1 X62.026 Y78.864 E26.70506
G1 X58.864 Y82.026 E26.93870
G1 X58.271 Y82.026 E26.96967
G1 X62.026 Y78.271 E27.24712
G1 X62.026 Y77.678 E27.27810
G1 X57.974 Y81.729 E27.57745
G1 X57.974 Y81.136 E27.60842
G1 X71.136 Y67.974 E28.58092
G1 X71.729 Y67.974 E28.61189
G1 X62.678 Y77.026 E29.28067
G1 X63.271 Y77.026 E29.31165
G1 X72.026 Y68.271 E29.95852
G1 X72.026 Y68.864 E29.98950
G1 X63.864 Y77.026 E30.59257
G1 X64.456 Y77.026 E30.62354
G1 X72.026 Y69.456 E31.18281
G1 X72.026 Y70.049 E31.21378
G1 X65.049 Y77.026 E31.72924
G1 X65.642 Y77.026 E31.76022
G1 X72.026 Y70.642 E32.23187
G1 X72.026 Y71.235 E32.26285
G1 X66.235 Y77.026 E32.69070
G1 X66.828 Y77.026 E32.72167
G1 X72.026 Y71.828 E33.10571
G1 X72.026 Y72.421 E33.13669
G1 X67.421 Y77.026 E33.47693
G1 X68.014 Y77.026 E33.50790
G1 X72.065 Y72.974 E33.80725
G1 X72.658 Y72.974 E33.83823
G1 X68.607 Y77.026 E34.13758
G1 X69.199 Y77.026 E34.16855
G1 X73.251 Y72.974 E34.46790
G1 X73.844 Y72.974 E34.49888
G1 X69.792 Y77.026 E34.79823
G1 X70.385 Y77.026 E34.82920
G1 X74.437 Y72.974 E35.12856
G1 X75.030 Y72.974 E35.15953
G1 X70.978 Y77.026 E35.45888
G1 X71.571 Y77.026 E35.48986
G1 X75.622 Y72.974 E35.78921
G1 X76.215 Y72.974 E35.82018
G1 X72.164 Y77.026 E36.11953
G1 X72.757 Y77.026 E36.15051
G1 X76.808 Y72.974 E36.44986
G1 X77.026 Y73.350 E36.47252
G1 X72.974 Y77.401 E36.77187
G1 X72.974 Y77.994 E36.80285
G1 X77.026 Y73.942 E37.10220
G1 X77.026 Y74.535 E37.13317
G1 X72.974 Y78.587 E37.43252
G1 X72.974 Y79.180 E37.46350
G1 X77.026 Y75.128 E37.76285
G1 X77.026 Y75.721 E37.79382
G1 X72.974 Y79.773 E38.09317
G1 X72.974 Y80.366 E38.12415
G1 X77.026 Y76.314 E38.42350
G1 X77.026 Y76.907 E38.45447
G1 X72.974 Y80.958 E38.75382
G1 X72.974 Y81.551 E38.78480
G1 X77.026 Y77.500 E39.08415
G1 X77.144 Y77.974 E39.10970
G1 X73.093 Y82.026 E39.40905
G1 X73.685 Y82.026 E39.44002
G1 X77.737 Y77.974 E39.73937
G1 X78.330 Y77.974 E39.77035
G1 X74.278 Y82.026 E40.06970
G1 X74.871 Y82.026 E40.10067
G1 X78.923 Y77.974 E40.40002
G1 X79.516 Y77.974 E40.43100
G1 X75.464 Y82.026 E40.73035
G1 X76.057 Y82.026 E40.76132
G1 X80.109 Y77.974 E41.06067
G1 X80.701 Y77.974 E41.09165
G1 X76.650 Y82.026 E41.39100
G1 X77.243 Y82.026 E41.42197
G1 X81.294 Y77.974 E41.72132
G1 X81.887 Y77.974 E41.75230
G1 X77.836 Y82.026 E42.05165
G1 X78.429 Y82.026 E42.08262
G1 X82.026 Y78.429 E42.34841
G1 X82.026 Y79.021 E42.37938
G1 X79.021 Y82.026 E42.60136
G1 X79.614 Y82.026 E42.63234
G1 X82.026 Y79.614 E42.81051
G1 X82.026 Y80.207 E42.84149
G1 X80.207 Y82.026 E42.97586
G1 X80.800 Y82.026 E43.00683
G1 X82.026 Y80.800 E43.09740
G1 X82.026 Y81.393 E43.12838
G1 X81.393 Y82.026 E43.17514
G1 X81.986 Y82.026 E43.20611
G1 X82.026 Y81.986 E43.20907
G1 F1800.000 E42.20907
G92 E0
G1 Z1.000 F7800.000
G1 X82.300 Y81.986 F7800.000
G1 E1.00000 F1800.000
G1 X82.300 Y82.300 E1.01568 F600.000
G1 X72.700 Y82.300 E1.49462
G1 X72.700 Y77.300 E1.74407
G1 X62.300 Y77.300 E2.26293
G1 X62.300 Y82.300 E2.51238
G1 X57.700 Y82.300 E2.74188
G1 X57.700 Y57.700 E3.96918
G1 X62.300 Y57.700 E4.19867
G1 X62.300 Y62.700 E4.44812
G1 X67.300 Y62.700 E4.69757 F600.000
G1 X67.300 Y67.700 E4.94703
G1 X72.300 Y67.700 E5.19648
G1 X72.300 Y72.700 E5.44593
G1 X77.300 Y72.700 E5.69538
G1 X77.300 Y77.700 E5.94483
G1 X82.300 Y77.700 E6.19428
G1 X82.300 Y81.926 E6.40510
G1 X82.006 Y80.245 F7800.000
G1 X80.781 Y79.917 E6.47136 F1293.198
G1 X80.593 Y79.216 E6.50926
G1 X79.192 Y78.841 E6.58507
G1 X78.679 Y79.354 E6.62297
G1 X77.277 Y78.978 E6.69878
G1 X77.089 Y78.277 E6.73669
G1 X75.688 Y77.902 E6.81250
G1 X75.175 Y78.415 E6.85040
G1 X73.773 Y78.039 E6.92621
G1 X73.585 Y77.338 E6.96412
G1 X72.994 Y77.180 E6.99608
G1 X72.345 Y77.006 F7800.000
G1 X72.184 Y76.963 E7.00479 F1293.198
G1 X72.141 Y77.006 E7.00797
G1 X70.244 Y77.006 F7800.000
G1 X70.081 Y76.399 E7.04077 F1293.198
G1 X68.680 Y76.024 E7.11658
G1 X68.167 Y76.537 E7.15449
G1 X66.765 Y76.161 E7.23030
G1 X66.577 Y75.460 E7.26820
G1 X65.176 Y75.085 E7.34401
G1 X64.663 Y75.598 E7.38191
G1 X63.261 Y75.222 E7.45772
G1 X63.073 Y74.522 E7.49563
G1 X61.672 Y74.146 E7.57144
G1 X61.159 Y74.659 E7.60934
G1 X59.757 Y74.284 E7.68515
G1 X59.569 Y73.583 E7.72306
G1 X58.168 Y73.207 E7.79887
G1 X57.994 Y73.380 E7.81167
G1 X57.994 Y72.077 E7.87980
G1 X58.088 Y72.102 E7.88488
G1 X58.276 Y72.803 E7.92278
G1 X59.678 Y73.178 E7.99859
G1 X60.191 Y72.665 E8.03650
G1 X61.592 Y73.041 E8.11231
G1 X61.780 Y73.741 E8.15021
G1 X63.182 Y74.117 E8.22602
G1 X63.695 Y73.604 E8.26393
G1 X65.096 Y73.980 E8.33974
G1 X65.284 Y74.680 E8.37764
G1 X66.686 Y75.056 E8.45345
G1 X67.199 Y74.543 E8.49135
G1 X68.600 Y74.918 E8.56716
G1 X68.788 Y75.619 E8.60507
G1 X70.190 Y75.995 E8.68088
G1 X70.703 Y75.482 E8.71878
G1 X72.104 Y75.857 E8.79459
G1 X72.292 Y76.558 E8.83250
G1 X73.694 Y76.934 E8.90831
G1 X74.207 Y76.421 E8.94621
G1 X75.608 Y76.796 E9.02202
G1 X75.796 Y77.497 E9.05993
G1 X77.006 Y77.821 E9.12536
G1 X77.006 Y76.087 E9.21599
G1 X76.230 Y75.879 E9.25797
G1 X75.717 Y76.392 E9.29587
G1 X74.315 Y76.016 E9.37168
G1 X74.127 Y75.315 E9.40959
G1 X72.726 Y74.940 E9.48540
G1 X72.213 Y75.453 E9.52330
G1 X70.811 Y75.077 E9.59911
G1 X70.623 Y74.376 E9.63702
G1 X69.222 Y74.001 E9.71282
G1 X68.709 Y74.514 E9.75073
G1 X67.307 Y74.138 E9.82654
G1 X67.119 Y73.437 E9.86444
G1 X65.718 Y73.062 E9.94025
G1 X65.205 Y73.575 E9.97816
G1 X63.803 Y73.199 E10.05397
G1 X63.615 Y72.499 E10.09187
G1 X62.214 Y72.123 E10.16768
G1 X61.701 Y72.636 E10.20559
G1 X60.299 Y72.260 E10.28140
G1 X60.111 Y71.560 E10.31930
G1 X58.710 Y71.184 E10.39511
G1 X58.197 Y71.697 E10.43301
G1 X57.994 Y71.643 E10.44396
G1 X57.994 Y69.908 E10.53459
G1 X58.630 Y70.079 E10.56899
G1 X58.818 Y70.780 E10.60689
G1 X60.220 Y71.155 E10.68270
G1 X60.733 Y70.642 E10.72061
G1 X62.134 Y71.018 E10.79642
G1 X62.322 Y71.718 E10.83432
G1 X63.724 Y72.094 E10.91013
G1 X64.237 Y71.581 E10.94804
G1 X65.638 Y71.957 E11.02384
G1 X65.826 Y72.657 E11.06175
G1 X67.228 Y73.033 E11.13756
G1 X67.741 Y72.520 E11.17546
G1 X69.142 Y72.895 E11.25127
G1 X69.330 Y73.596 E11.28918
G1 X70.732 Y73.972 E11.36499
G1 X71.245 Y73.459 E11.40289
G1 X72.646 Y73.834 E11.47870
G1 X72.834 Y74.535 E11.51661
G1 X74.236 Y74.911 E11.59242
G1 X74.749 Y74.398 E11.63032
G1 X76.150 Y74.773 E11.70613
G1 X76.338 Y75.474 E11.74403
G1 X77.006 Y75.653 E11.78015
G1 X77.006 Y73.918 E11.87078
G1 X76.772 Y73.856 E11.88344
G1 X76.259 Y74.369 E11.92134
G1 X74.857 Y73.993 E11.99715
G1 X74.669 Y73.292 E12.03506
G1 X73.557 Y72.994 E12.09521
G1 X73.190 Y72.994 E12.11439
G1 X72.755 Y73.430 E12.14656
G1 X71.353 Y73.054 E12.22237
G1 X71.165 Y72.353 E12.26027
G1 X69.764 Y71.978 E12.33608
G1 X69.251 Y72.491 E12.37399
G1 X67.849 Y72.115 E12.44980
G1 X67.661 Y71.414 E12.48770
G1 X66.260 Y71.039 E12.56351
G1 X65.747 Y71.552 E12.60141
G1 X64.345 Y71.176 E12.67722
G1 X64.157 Y70.476 E12.71513
G1 X62.756 Y70.100 E12.79094
G1 X62.243 Y70.613 E12.82884
G1 X60.841 Y70.237 E12.90465
G1 X60.653 Y69.537 E12.94256
G1 X59.252 Y69.161 E13.01837
G1 X58.739 Y69.674 E13.05627
G1 X57.994 Y69.475 E13.09654
G1 X57.994 Y67.740 E13.18716
G1 X59.172 Y68.056 E13.25088
G1 X59.360 Y68.756 E13.28879
G1 X60.762 Y69.132 E13.36460
G1 X61.275 Y68.619 E13.40250
G1 X62.676 Y68.995 E13.47831
G1 X62.864 Y69.695 E13.51622
G1 X64.266 Y70.071 E13.59203
G1 X64.779 Y69.558 E13.62993
G1 X66.180 Y69.933 E13.70574
G1 X66.368 Y70.634 E13.74364
G1 X67.770 Y71.010 E13.81945
G1 X68.283 Y70.497 E13.85736
G1 X69.684 Y70.872 E13.93317
G1 X69.872 Y71.573 E13.97107
G1 X71.274 Y71.949 E14.04688
G1 X71.787 Y71.436 E14.08479
G1 X72.006 Y71.494 E14.09663
G1 X72.006 Y71.061 E14.11929
G1 X71.895 Y71.031 E14.12527
G1 X71.707 Y70.330 E14.16318
G1 X70.306 Y69.955 E14.23899
G1 X69.793 Y70.468 E14.27689
G1 X68.391 Y70.092 E14.35270
G1 X68.203 Y69.391 E14.39061
G1 X66.802 Y69.016 E14.46642
G1 X66.289 Y69.529 E14.50432
G1 X64.887 Y69.153 E14.58013
G1 X64.699 Y68.453 E14.61804
G1 X63.298 Y68.077 E14.69385
G1 X62.785 Y68.590 E14.73175
G1 X61.383 Y68.214 E14.80756
G1 X61.195 Y67.514 E14.84546
