; generated by Slic3r 1.1.7 on 2014-12-02 at 21:19:21

; perimeters extrusion width = 0.40mm
; infill extrusion width = 0.42mm
; solid infill extrusion width = 0.42mm
; top infill extrusion width = 0.42mm

G21 ; set units to millimeters
M107
M104 S215 ; set temperature
G28 ; home all axes
G29; calibrate bed leveling
G1 Z5 F5000 ; lift nozzle
G28 X ; Go to corner x
G28 Y ; Go to corner y

M109 S215 ; wait for temperature to be reached
G90 ; use absolute coordinates
G92 E0
M82 ; use absolute distances for extrusion
G1 F1800.000 E-1.00000
G1 Z0.600 F7800.000
G92 E0
G1 X78.028 Y52.033 F7800.000
G1 Z0.400 F7800.000
G1 E1.00000 F1800.000
G1 X79.263 Y51.136 E1.18130 F1080.000
G1 X79.683 Y51.067 E1.23193
G1 X80.027 Y50.637 E1.29732
G1 X80.000 Y50.212 E1.34795
G1 X80.600 Y48.808 E1.52925
G1 X81.815 Y47.803 E1.71653
G1 X82.656 Y47.168 E1.84170
G1 X84.158 Y46.896 E2.02300
G1 X84.567 Y47.016 E2.07363
G1 X85.063 Y46.777 E2.13901
G1 X85.221 Y46.390 E2.18873
G1 X86.354 Y45.390 E2.36824
G1 X87.320 Y45.133 E2.48691
G1 X88.283 Y44.924 E2.60398
G1 X89.979 Y44.667 E2.80767
G1 X90.737 Y45.319 E2.92640
G1 X91.264 Y45.321 E2.98898
G1 X92.057 Y44.648 E3.11258
G1 X93.693 Y44.920 E3.30954
G1 X94.683 Y45.134 E3.42972
G1 X95.646 Y45.390 E3.54808
G1 X96.779 Y46.389 E3.72757
G1 X96.937 Y46.777 E3.77731
G1 X97.433 Y47.016 E3.84270
G1 X97.842 Y46.896 E3.89332
G1 X99.344 Y47.168 E4.07462
G1 X100.594 Y48.129 E4.26191
G1 X101.400 Y48.808 E4.38707
G1 X102.000 Y50.212 E4.56837
G1 X101.973 Y50.637 E4.61901
G1 X102.317 Y51.067 E4.68439
G1 X102.737 Y51.136 E4.73503
G1 X103.972 Y52.033 E4.91632
G1 X104.682 Y53.441 E5.10361
G1 X105.114 Y54.403 E5.22877
G1 X105.045 Y55.928 E5.41006
G1 X104.836 Y56.300 E5.46070
G1 X104.959 Y56.836 E5.52608
G1 X105.308 Y57.081 E5.57670
G1 X106.032 Y58.425 E5.75801
G1 X106.060 Y59.478 E5.88318
G1 X106.032 Y61.055 E6.07046
G1 X105.308 Y62.399 E6.25176
G1 X104.959 Y62.644 E6.30239
G1 X104.836 Y63.180 E6.36778
G1 X105.045 Y63.552 E6.41842
G1 X105.114 Y65.077 E6.59971
G1 X104.435 Y66.550 E6.79224
G1 X103.972 Y67.447 E6.91216
G1 X102.737 Y68.344 E7.09345
G1 X102.317 Y68.413 E7.14409
G1 X101.973 Y68.843 E7.20947
G1 X102.000 Y69.269 E7.26010
G1 X101.400 Y70.672 E7.44140
G1 X100.594 Y71.351 E7.56657
G1 X99.344 Y72.312 E7.75385
G1 X97.842 Y72.585 E7.93515
G1 X97.433 Y72.464 E7.98578
G1 X96.937 Y72.703 E8.05117
G1 X96.776 Y73.098 E8.10180
G1 X95.627 Y74.102 E8.28310
G1 X94.096 Y74.481 E8.47038
G1 X93.063 Y74.687 E8.59554
G1 X91.591 Y74.281 E8.77684
G1 X91.275 Y73.995 E8.82748
G1 X90.725 Y73.995 E8.89286
G1 X90.409 Y74.281 E8.94351
G1 X88.937 Y74.687 E9.12480
G1 X87.904 Y74.481 E9.24996
G1 X86.373 Y74.102 E9.43725
G1 X85.224 Y73.098 E9.61855
G1 X85.063 Y72.703 E9.66917
G1 X84.567 Y72.464 E9.73456
G1 X84.158 Y72.585 E9.78519
G1 X82.656 Y72.312 E9.96649
G1 X81.406 Y71.351 E10.15377
G1 X80.600 Y70.672 E10.27894
G1 X80.000 Y69.268 E10.46024
G1 X80.027 Y68.843 E10.51086
G1 X79.683 Y68.413 E10.57625
G1 X79.263 Y68.344 E10.62688
G1 X78.028 Y67.447 E10.80818
G1 X77.318 Y66.039 E10.99546
G1 X76.886 Y65.077 E11.12063
G1 X76.955 Y63.552 E11.30194
G1 X77.164 Y63.180 E11.35256
G1 X77.041 Y62.644 E11.41794
G1 X76.692 Y62.399 E11.46859
G1 X75.968 Y61.055 E11.64988
G1 X75.940 Y59.478 E11.83716
G1 X75.968 Y58.425 E11.96232
G1 X76.692 Y57.081 E12.14362
G1 X77.041 Y56.836 E12.19425
G1 X77.164 Y56.300 E12.25964
G1 X76.955 Y55.928 E12.31026
G1 X76.886 Y54.403 E12.49157
G1 X77.318 Y53.441 E12.61674
G1 X78.000 Y52.087 E12.79689
G1 X78.584 Y52.511 F7800.000
G1 X79.545 Y51.814 E12.93790 F1080.000
G1 X80.154 Y51.706 E13.01131
G1 X80.347 Y51.611 E13.03683
G1 X80.517 Y51.469 E13.06318
G1 X80.660 Y51.265 E13.09286
G1 X80.745 Y51.014 E13.12431
G1 X80.757 Y50.878 E13.14046
G1 X80.723 Y50.336 E13.20496
G1 X81.190 Y49.244 E13.34597
G1 X82.256 Y48.364 E13.51020
G1 X82.950 Y47.840 E13.61347
G1 X84.119 Y47.628 E13.75448
G1 X84.714 Y47.796 E13.82790
G1 X84.950 Y47.791 E13.85602
G1 X85.178 Y47.726 E13.88413
G1 X85.391 Y47.595 E13.91382
G1 X85.555 Y47.416 E13.94266
G1 X85.617 Y47.312 E13.95704
G1 X85.819 Y46.814 E14.02083
G1 X86.701 Y46.037 E14.16045
G1 X87.484 Y45.828 E14.25675
G1 X88.409 Y45.627 E14.36917
G1 X89.761 Y45.422 E14.53159
G1 X90.733 Y46.259 E14.68386
G1 X91.260 Y46.261 E14.74645
G1 X92.267 Y45.407 E14.90320
G1 X93.573 Y45.624 E15.06040
G1 X94.518 Y45.829 E15.17524
G1 X95.299 Y46.036 E15.27129
G1 X96.181 Y46.814 E15.41090
G1 X96.383 Y47.312 E15.47471
G1 X96.453 Y47.428 E15.49085
G1 X96.638 Y47.618 E15.52231
G1 X96.856 Y47.740 E15.55199
G1 X97.070 Y47.794 E15.57821
G1 X97.286 Y47.796 E15.60385
G1 X97.881 Y47.628 E15.67726
G1 X99.050 Y47.840 E15.81828
G1 X99.744 Y48.364 E15.92155
G1 X100.810 Y49.244 E16.08578
G1 X101.277 Y50.336 E16.22679
G1 X101.246 Y50.954 E16.30020
G1 X101.295 Y51.163 E16.32572
G1 X101.396 Y51.360 E16.35207
G1 X101.564 Y51.546 E16.38175
G1 X101.790 Y51.684 E16.41321
G1 X101.919 Y51.726 E16.42935
G1 X102.455 Y51.814 E16.49386
G1 X103.416 Y52.511 E16.63487
G1 X104.037 Y53.747 E16.79909
G1 X104.393 Y54.540 E16.90236
G1 X104.339 Y55.726 E17.04336
G1 X104.044 Y56.269 E17.11679
G1 X103.997 Y56.479 E17.14230
G1 X104.003 Y56.701 E17.16865
G1 X104.073 Y56.941 E17.19833
G1 X104.217 Y57.163 E17.22979
G1 X104.315 Y57.257 E17.24593
G1 X104.760 Y57.569 E17.31043
G1 X105.322 Y58.614 E17.45145
G1 X105.346 Y59.483 E17.55472
G1 X105.322 Y60.866 E17.71895
G1 X104.760 Y61.911 E17.85996
G1 X104.258 Y62.272 E17.93338
G1 X104.114 Y62.460 E17.96150
G1 X104.027 Y62.665 E17.98785
G1 X103.993 Y62.905 E18.01669
G1 X104.026 Y63.153 E18.04637
G1 X104.073 Y63.280 E18.06252
G1 X104.339 Y63.754 E18.12704
G1 X104.393 Y64.940 E18.26804
G1 X103.798 Y66.226 E18.43635
G1 X103.416 Y66.969 E18.53554
G1 X102.455 Y67.666 E18.67655
G1 X101.919 Y67.754 E18.74106
G1 X101.803 Y67.791 E18.75543
G1 X101.593 Y67.911 E18.78428
G1 X101.418 Y68.090 E18.81396
G1 X101.303 Y68.297 E18.84207
G1 X101.246 Y68.527 E18.87019
G1 X101.277 Y69.144 E18.94361
G1 X100.810 Y70.236 E19.08462
G1 X100.145 Y70.796 E19.18789
G1 X99.050 Y71.640 E19.35212
G1 X97.881 Y71.852 E19.49313
G1 X97.360 Y71.698 E19.55764
G1 X97.226 Y71.680 E19.57378
G1 X96.962 Y71.706 E19.60523
G1 X96.731 Y71.801 E19.63491
G1 X96.555 Y71.934 E19.66114
G1 X96.419 Y72.102 E19.68678
G1 X96.179 Y72.672 E19.76020
G1 X95.285 Y73.453 E19.90120
G1 X93.942 Y73.783 E20.06543
G1 X93.089 Y73.954 E20.16870
G1 X91.945 Y73.638 E20.30971
G1 X91.542 Y73.273 E20.37422
G1 X91.429 Y73.199 E20.39037
G1 X91.180 Y73.108 E20.42182
G1 X90.930 Y73.093 E20.45150
G1 X90.714 Y73.137 E20.47773
G1 X90.519 Y73.229 E20.50337
G1 X90.055 Y73.638 E20.57679
G1 X88.911 Y73.954 E20.71779
G1 X88.058 Y73.783 E20.82106
G1 X86.715 Y73.453 E20.98529
G1 X85.821 Y72.671 E21.12631
G1 X85.617 Y72.168 E21.19080
G1 X85.547 Y72.052 E21.20696
G1 X85.362 Y71.862 E21.23840
G1 X85.144 Y71.740 E21.26808
G1 X84.930 Y71.686 E21.29431
G1 X84.714 Y71.684 E21.31995
G1 X84.119 Y71.852 E21.39336
G1 X82.950 Y71.640 E21.53438
G1 X81.855 Y70.796 E21.69860
G1 X81.190 Y70.236 E21.80188
G1 X80.723 Y69.144 E21.94289
G1 X80.757 Y68.602 E22.00739
G1 X80.745 Y68.466 E22.02354
G1 X80.660 Y68.215 E22.05499
G1 X80.517 Y68.011 E22.08466
G1 X80.347 Y67.869 E22.11090
G1 X80.154 Y67.774 E22.13653
G1 X79.545 Y67.666 E22.20995
G1 X78.584 Y66.969 E22.35096
G1 X77.963 Y65.733 E22.51519
G1 X77.607 Y64.940 E22.61846
G1 X77.661 Y63.754 E22.75948
G1 X77.956 Y63.211 E22.83289
G1 X78.003 Y63.001 E22.85841
G1 X77.997 Y62.779 E22.88475
G1 X77.927 Y62.540 E22.91443
G1 X77.783 Y62.317 E22.94588
G1 X77.685 Y62.223 E22.96203
G1 X77.240 Y61.911 E23.02655
G1 X76.678 Y60.866 E23.16755
G1 X76.654 Y59.483 E23.33178
G1 X76.678 Y58.614 E23.43505
G1 X77.240 Y57.569 E23.57605
G1 X77.742 Y57.208 E23.64947
G1 X77.875 Y57.039 E23.67498
G1 X77.966 Y56.837 E23.70133
G1 X78.007 Y56.590 E23.73102
G1 X77.974 Y56.327 E23.76246
G1 X77.927 Y56.200 E23.77861
G1 X77.661 Y55.726 E23.84312
G1 X77.607 Y54.540 E23.98413
G1 X77.963 Y53.747 E24.08741
G1 X78.557 Y52.565 E24.24450
G1 X79.141 Y52.990 F7800.000
G1 X79.828 Y52.491 E24.34522 F1080.000
G1 X80.253 Y52.420 E24.39649
G1 X80.532 Y52.322 E24.43157
G1 X80.825 Y52.148 E24.47205
G1 X81.071 Y51.921 E24.51182
G1 X81.268 Y51.643 E24.55230
G1 X81.402 Y51.329 E24.59279
G1 X81.449 Y51.134 E24.61667
G1 X81.471 Y50.934 E24.64055
G1 X81.447 Y50.461 E24.69685
G1 X81.780 Y49.681 E24.79757
G1 X82.717 Y48.910 E24.94165
G1 X83.245 Y48.513 E25.02012
G1 X84.079 Y48.361 E25.12084
G1 X84.535 Y48.491 E25.17714
G1 X84.922 Y48.512 E25.22316
G1 X85.207 Y48.468 E25.25738
G1 X85.524 Y48.352 E25.29749
G1 X85.799 Y48.183 E25.33584
G1 X86.012 Y47.987 E25.37017
G1 X86.236 Y47.672 E25.41607
G1 X86.417 Y47.239 E25.47187
G1 X87.047 Y46.683 E25.57159
G1 X87.649 Y46.523 E25.64552
G1 X88.535 Y46.330 E25.75329
G1 X89.544 Y46.177 E25.87444
G1 X90.730 Y47.198 E26.06025
G1 X91.257 Y47.200 E26.12283
G1 X92.476 Y46.166 E26.31275
G1 X93.471 Y46.331 E26.43253
G1 X94.353 Y46.524 E26.53969
G1 X94.953 Y46.683 E26.61343
G1 X95.583 Y47.239 E26.71315
G1 X95.764 Y47.672 E26.76896
G1 X95.871 Y47.842 E26.79283
G1 X95.999 Y47.999 E26.81683
G1 X96.255 Y48.222 E26.85720
G1 X96.553 Y48.388 E26.89769
G1 X96.873 Y48.486 E26.93745
G1 X97.213 Y48.515 E26.97794
G1 X97.506 Y48.482 E27.01300
G1 X97.921 Y48.361 E27.06428
G1 X98.755 Y48.513 E27.16500
G1 X99.302 Y48.925 E27.24638
G1 X100.220 Y49.681 E27.38755
G1 X100.553 Y50.461 E27.48827
G1 X100.529 Y50.934 E27.54457
G1 X100.594 Y51.316 E27.59059
G1 X100.701 Y51.584 E27.62480
G1 X100.884 Y51.868 E27.66493
G1 X101.110 Y52.098 E27.70327
G1 X101.349 Y52.261 E27.73760
G1 X101.706 Y52.410 E27.78351
G1 X102.173 Y52.491 E27.83981
G1 X102.859 Y52.990 E27.94053
G1 X103.391 Y54.052 E28.08170
G1 X103.672 Y54.677 E28.16307
G1 X103.633 Y55.525 E28.26379
G1 X103.423 Y55.902 E28.31507
G1 X103.339 Y56.130 E28.34398
G1 X103.282 Y56.466 E28.38447
G1 X103.295 Y56.801 E28.42422
G1 X103.398 Y57.180 E28.47086
G1 X103.560 Y57.480 E28.51134
G1 X103.684 Y57.639 E28.53523
G1 X103.826 Y57.781 E28.55911
G1 X104.211 Y58.057 E28.61540
G1 X104.613 Y58.803 E28.71612
G1 X104.632 Y59.488 E28.79750
G1 X104.613 Y60.677 E28.93868
G1 X104.211 Y61.424 E29.03940
G1 X103.858 Y61.672 E29.09067
G1 X103.650 Y61.881 E29.12574
G1 X103.461 Y62.165 E29.16623
G1 X103.338 Y62.477 E29.20600
G1 X103.281 Y62.813 E29.24648
G1 X103.297 Y63.153 E29.28697
G1 X103.339 Y63.350 E29.31084
G1 X103.406 Y63.540 E29.33472
G1 X103.633 Y63.955 E29.39103
G1 X103.672 Y64.803 E29.49175
G1 X103.162 Y65.903 E29.63583
G1 X102.859 Y66.491 E29.71429
G1 X102.172 Y66.989 E29.81502
G1 X101.706 Y67.070 E29.87131
G1 X101.348 Y67.219 E29.91733
G1 X101.110 Y67.382 E29.95155
G1 X100.884 Y67.613 E29.98989
G1 X100.701 Y67.896 E30.03002
G1 X100.594 Y68.165 E30.06435
G1 X100.529 Y68.546 E30.11025
G1 X100.553 Y69.019 E30.16655
G1 X100.220 Y69.799 E30.26727
G1 X99.696 Y70.241 E30.34865
G1 X98.755 Y70.967 E30.48982
G1 X97.921 Y71.119 E30.59054
G1 X97.465 Y70.989 E30.64684
G1 X97.078 Y70.968 E30.69286
G1 X96.793 Y71.012 E30.72707
G1 X96.476 Y71.128 E30.76719
G1 X96.201 Y71.297 E30.80554
G1 X95.988 Y71.493 E30.83987
G1 X95.764 Y71.808 E30.88577
G1 X95.581 Y72.245 E30.94207
G1 X94.942 Y72.803 E31.04279
G1 X94.303 Y72.968 E31.12126
G1 X93.116 Y73.220 E31.26534
G1 X92.299 Y72.995 E31.36606
G1 X91.944 Y72.680 E31.42236
G1 X91.774 Y72.573 E31.44624
G1 X91.590 Y72.488 E31.47024
G1 X91.263 Y72.397 E31.51061
G1 X90.922 Y72.378 E31.55109
G1 X90.591 Y72.428 E31.59086
G1 X90.273 Y72.549 E31.63134
G1 X90.022 Y72.706 E31.66642
G1 X89.701 Y72.995 E31.71769
G1 X88.884 Y73.220 E31.81841
G1 X88.212 Y73.086 E31.89979
G1 X87.058 Y72.803 E32.04096
G1 X86.419 Y72.245 E32.14169
G1 X86.236 Y71.808 E32.19798
G1 X86.129 Y71.638 E32.22187
G1 X86.001 Y71.482 E32.24586
G1 X85.745 Y71.258 E32.28622
G1 X85.399 Y71.073 E32.33286
G1 X85.075 Y70.985 E32.37262
G1 X84.735 Y70.967 E32.41311
G1 X84.494 Y70.998 E32.44202
G1 X84.079 Y71.119 E32.49329
G1 X83.245 Y70.967 E32.59401
G1 X82.304 Y70.241 E32.73519
G1 X81.780 Y69.799 E32.81656
G1 X81.447 Y69.019 E32.91729
G1 X81.471 Y68.546 E32.97358
G1 X81.406 Y68.164 E33.01960
G1 X81.299 Y67.896 E33.05381
G1 X81.126 Y67.624 E33.09216
G1 X80.890 Y67.382 E33.13228
G1 X80.651 Y67.219 E33.16661
G1 X80.295 Y67.070 E33.21252
G1 X79.828 Y66.989 E33.26882
G1 X79.141 Y66.491 E33.36954
G1 X78.609 Y65.428 E33.51071
G1 X78.328 Y64.803 E33.59209
G1 X78.367 Y63.955 E33.69282
G1 X78.577 Y63.578 E33.74409
G1 X78.661 Y63.350 E33.77300
G1 X78.718 Y63.014 E33.81348
G1 X78.705 Y62.679 E33.85324
G1 X78.602 Y62.300 E33.89988
G1 X78.440 Y62.000 E33.94037
G1 X78.317 Y61.842 E33.96424
G1 X78.174 Y61.700 E33.98812
G1 X77.789 Y61.423 E34.04442
G1 X77.387 Y60.677 E34.14514
G1 X77.368 Y59.488 E34.28631
G1 X77.387 Y58.803 E34.36769
G1 X77.789 Y58.057 E34.46841
G1 X78.142 Y57.808 E34.51968
G1 X78.316 Y57.639 E34.54859
G1 X78.514 Y57.361 E34.58908
G1 X78.647 Y57.054 E34.62884
G1 X78.719 Y56.667 E34.67547
G1 X78.703 Y56.327 E34.71595
G1 X78.661 Y56.130 E34.73983
G1 X78.594 Y55.941 E34.76372
G1 X78.367 Y55.525 E34.82002
G1 X78.328 Y54.677 E34.92074
G1 X78.609 Y54.052 E35.00212
G1 X79.114 Y53.043 E35.13616
G1 X79.698 Y53.468 F7800.000
G1 X80.110 Y53.169 E35.19660 F1080.000
G1 X80.574 Y53.071 E35.25285
G1 X81.007 Y52.881 E35.30909
G1 X81.328 Y52.662 E35.35527
G1 X81.610 Y52.390 E35.40168
G1 X81.855 Y52.055 E35.45105
G1 X82.057 Y51.622 E35.50779
G1 X82.131 Y51.363 E35.53985
G1 X82.171 Y51.135 E35.56730
G1 X82.187 Y50.877 E35.59795
G1 X82.170 Y50.585 E35.63267
G1 X82.370 Y50.117 E35.69311
G1 X83.139 Y49.487 E35.81122
G1 X83.539 Y49.185 E35.87071
G1 X84.040 Y49.094 E35.93114
G1 X84.499 Y49.208 E35.98739
G1 X84.973 Y49.224 E36.04363
G1 X85.286 Y49.182 E36.08117
G1 X85.647 Y49.077 E36.12589
G1 X85.896 Y48.965 E36.15822
G1 X86.086 Y48.853 E36.18446
G1 X86.308 Y48.690 E36.21719
G1 X86.465 Y48.546 E36.24248
G1 X86.644 Y48.344 E36.27454
G1 X86.779 Y48.156 E36.30198
G1 X86.905 Y47.931 E36.33262
G1 X87.016 Y47.663 E36.36705
G1 X87.394 Y47.330 E36.42689
G1 X88.493 Y47.065 E36.56120
G1 X89.326 Y46.932 E36.66143
G1 X90.071 Y47.573 E36.77815
G1 X90.071 Y58.581 E38.08543
G1 X89.973 Y58.894 E38.12446
G1 X89.826 Y59.119 E38.15629
G1 X89.727 Y59.364 E38.18769
G1 X89.677 Y59.626 E38.21942
G1 X89.681 Y59.891 E38.25087
G1 X89.737 Y60.150 E38.28234
G1 X89.843 Y60.392 E38.31381
G1 X89.996 Y60.609 E38.34527
G1 X90.240 Y60.829 E38.38437
G1 X90.472 Y60.958 E38.41583
G1 X90.747 Y61.044 E38.45011
G1 X91.013 Y61.068 E38.48177
G1 X91.276 Y61.039 E38.51323
G1 X91.507 Y60.968 E38.54188
G1 X91.686 Y60.878 E38.56569
G1 X91.831 Y60.776 E38.58669
G1 X92.004 Y60.609 E38.61534
G1 X92.124 Y60.448 E38.63916
G1 X92.233 Y60.233 E38.66781
G1 X92.293 Y60.042 E38.69162
G1 X92.327 Y59.803 E38.72027
G1 X92.312 Y59.538 E38.75174
G1 X92.267 Y59.341 E38.77575
G1 X92.174 Y59.119 E38.80440
G1 X92.027 Y58.894 E38.83623
G1 X91.929 Y58.581 E38.87526
G1 X91.929 Y47.566 E40.18339
G1 X92.686 Y46.924 E40.30126
G1 X93.507 Y47.065 E40.40018
G1 X94.207 Y47.223 E40.48546
G1 X94.606 Y47.330 E40.53454
G1 X94.984 Y47.663 E40.59438
G1 X95.181 Y48.091 E40.65033
G1 X95.463 Y48.471 E40.70657
G1 X95.770 Y48.752 E40.75587
G1 X96.179 Y49.002 E40.81292
G1 X96.617 Y49.160 E40.86818
G1 X97.013 Y49.223 E40.91575
G1 X97.227 Y49.229 E40.94116
G1 X97.501 Y49.208 E40.97380
G1 X97.960 Y49.094 E41.03005
G1 X98.461 Y49.185 E41.09048
G1 X98.861 Y49.487 E41.14997
G1 X99.630 Y50.117 E41.26809
G1 X99.830 Y50.585 E41.32852
G1 X99.822 Y51.059 E41.38477
G1 X99.862 Y51.331 E41.41741
G1 X99.915 Y51.538 E41.44286
G1 X100.096 Y51.969 E41.49829
G1 X100.325 Y52.313 E41.54743
G1 X100.651 Y52.645 E41.60271
G1 X100.980 Y52.874 E41.65026
G1 X101.170 Y52.972 E41.67567
G1 X101.426 Y53.071 E41.70832
G1 X101.890 Y53.169 E41.76457
G1 X102.302 Y53.468 E41.82500
G1 X102.745 Y54.358 E41.94312
G1 X102.950 Y54.815 E42.00260
G1 X102.928 Y55.323 E42.06303
G1 X102.715 Y55.746 E42.11929
G1 X102.593 Y56.204 E42.17553
G1 X102.564 Y56.592 E42.22171
G1 X102.601 Y56.981 E42.26811
G1 X102.711 Y57.382 E42.31749
G1 X102.922 Y57.810 E42.37423
G1 X103.079 Y58.030 E42.40629
G1 X103.233 Y58.202 E42.43373
G1 X103.424 Y58.376 E42.46438
G1 X103.663 Y58.544 E42.49911
G1 X103.904 Y58.992 E42.55955
G1 X103.918 Y59.493 E42.61903
