; generated by Slic3r 1.1.7 on 2014-12-03 at 14:54:48

; perimeters extrusion width = 0.40mm
; infill extrusion width = 0.67mm
; solid infill extrusion width = 0.67mm
; top infill extrusion width = 0.67mm

G21 ; set units to millimeters
M107
M104 S215 ; set temperature
G28 ; home all axes
G29; calibrate bed leveling
G1 Z5 F5000 ; lift nozzle
G28 X ; Go to corner x
G28 Y ; Go to corner y

M109 S215 ; wait for temperature to be reached
G90 ; use absolute coordinates
G92 E0
M82 ; use absolute distances for extrusion
G1 F1800.000 E-1.00000
G1 Z0.500 F7800.000
G92 E0
G1 X74.678 Y71.622 F7800.000
G1 Z0.300 F7800.000
G1 E1.00000 F1800.000
G1 X75.322 Y71.621 E1.04471 F1080.000
G1 X77.094 Y68.552 E1.29097
G1 X77.383 Y68.175 E1.32396
G1 X78.090 Y67.468 E1.39348
G1 X78.915 Y66.787 E1.46780
G1 X79.807 Y66.196 E1.54215
G1 X80.756 Y65.701 E1.61650
G1 X81.752 Y65.308 E1.69085
G1 X82.898 Y64.991 E1.77353
G1 X83.369 Y64.929 E1.80651
G1 X86.631 Y64.929 E2.03317
G1 X87.102 Y64.991 E2.06615
G1 X88.069 Y65.250 E2.13571
G1 X89.071 Y65.624 E2.21004
G1 X90.193 Y66.196 E2.29751
G1 X91.084 Y66.787 E2.37185
G1 X91.910 Y67.468 E2.44618
G1 X92.617 Y68.175 E2.51571
G1 X92.906 Y68.552 E2.54869
G1 X94.538 Y71.377 E2.77539
G1 X94.719 Y71.816 E2.80836
G1 X95.017 Y72.968 E2.89103
G1 X95.175 Y74.026 E2.96539
G1 X95.221 Y74.905 E3.02657
G1 X95.183 Y75.813 E3.08971
G1 X95.155 Y76.163 E3.11407
G1 X95.017 Y77.033 E3.17528
G1 X94.720 Y78.183 E3.25779
G1 X94.538 Y78.622 E3.29083
G1 X92.906 Y81.449 E3.51763
G1 X92.617 Y81.825 E3.55058
G1 X91.769 Y82.659 E3.63325
G1 X90.931 Y83.325 E3.70759
G1 X90.193 Y83.804 E3.76876
G1 X89.388 Y84.226 E3.83190
G1 X89.071 Y84.376 E3.85627
G1 X88.248 Y84.692 E3.91746
G1 X87.102 Y85.009 E4.00015
G1 X86.631 Y85.071 E4.03312
G1 X83.369 Y85.071 E4.25978
G1 X82.898 Y85.009 E4.29276
G1 X81.931 Y84.750 E4.36232
G1 X80.756 Y84.299 E4.44980
G1 X79.807 Y83.804 E4.52413
G1 X79.069 Y83.325 E4.58530
G1 X78.090 Y82.532 E4.67279
G1 X77.383 Y81.825 E4.74232
G1 X77.094 Y81.448 E4.77530
G1 X75.322 Y78.379 E5.02156
G1 X74.678 Y78.378 E5.06627
G1 X72.906 Y81.448 E5.31254
G1 X72.617 Y81.825 E5.34553
G1 X71.910 Y82.532 E5.41506
G1 X71.084 Y83.213 E5.48940
G1 X70.028 Y83.899 E5.57690
G1 X69.244 Y84.299 E5.63808
G1 X68.249 Y84.691 E5.71241
G1 X67.102 Y85.009 E5.79510
G1 X66.631 Y85.071 E5.82808
G1 X63.369 Y85.071 E6.05474
G1 X62.898 Y85.009 E6.08773
G1 X61.751 Y84.691 E6.17042
G1 X60.756 Y84.299 E6.24476
G1 X59.807 Y83.804 E6.31910
G1 X59.069 Y83.325 E6.38027
G1 X58.231 Y82.659 E6.45461
G1 X57.383 Y81.825 E6.53730
G1 X57.094 Y81.448 E6.57028
G1 X55.463 Y78.623 E6.79694
G1 X55.281 Y78.184 E6.82992
G1 X54.983 Y77.032 E6.91262
G1 X54.825 Y75.974 E6.98695
G1 X54.779 Y74.905 E7.06129
G1 X54.845 Y73.837 E7.13563
G1 X54.983 Y72.968 E7.19682
G1 X55.281 Y71.815 E7.27952
G1 X55.463 Y71.377 E7.31250
G1 X57.094 Y68.552 E7.53914
G1 X57.383 Y68.175 E7.57213
G1 X58.090 Y67.468 E7.64165
G1 X58.916 Y66.787 E7.71600
G1 X59.807 Y66.196 E7.79034
G1 X60.756 Y65.701 E7.86467
G1 X61.751 Y65.309 E7.93901
G1 X62.898 Y64.991 E8.02170
G1 X63.369 Y64.929 E8.05468
G1 X66.631 Y64.929 E8.28135
G1 X67.102 Y64.991 E8.31433
G1 X68.068 Y65.250 E8.38386
G1 X69.244 Y65.701 E8.47135
G1 X70.193 Y66.196 E8.54569
G1 X71.084 Y66.787 E8.62003
G1 X71.910 Y67.468 E8.69436
G1 X72.617 Y68.175 E8.76390
G1 X72.906 Y68.552 E8.79688
G1 X74.648 Y71.570 E9.03899
G1 X74.549 Y73.443 F7800.000
G1 X75.451 Y73.443 E9.10168 F1080.000
G1 X75.564 Y72.912 E9.13939
G1 X75.809 Y71.997 E9.20523
G1 X75.963 Y71.626 E9.23313
G1 X77.558 Y68.862 E9.45485
G1 X77.803 Y68.543 E9.48277
G1 X78.593 Y67.765 E9.55989
G1 X79.385 Y67.135 E9.63017
G1 X80.098 Y66.671 E9.68931
G1 X80.996 Y66.204 E9.75960
G1 X82.090 Y65.784 E9.84102
G1 X83.007 Y65.538 E9.90700
G1 X83.405 Y65.486 E9.93490
G1 X86.595 Y65.486 E10.15649
G1 X86.993 Y65.538 E10.18440
G1 X87.910 Y65.784 E10.25040
G1 X88.858 Y66.139 E10.32068
G1 X89.762 Y66.591 E10.39095
G1 X90.615 Y67.135 E10.46123
G1 X91.526 Y67.872 E10.54265
G1 X92.197 Y68.543 E10.60863
G1 X92.442 Y68.862 E10.63653
G1 X94.037 Y71.624 E10.85815
G1 X94.190 Y71.995 E10.88606
G1 X94.469 Y73.069 E10.96315
G1 X94.619 Y74.070 E11.03345
G1 X94.664 Y75.080 E11.10374
G1 X94.603 Y76.090 E11.17402
G1 X94.436 Y77.088 E11.24431
G1 X94.191 Y78.003 E11.31017
G1 X94.037 Y78.375 E11.33812
G1 X92.442 Y81.138 E11.55982
G1 X92.197 Y81.457 E11.58770
G1 X91.407 Y82.235 E11.66481
G1 X90.615 Y82.865 E11.73509
G1 X89.762 Y83.409 E11.80538
G1 X89.004 Y83.796 E11.86453
G1 X88.062 Y84.166 E11.93482
G1 X86.993 Y84.462 E12.01193
G1 X86.595 Y84.514 E12.03983
G1 X83.405 Y84.514 E12.26142
G1 X83.007 Y84.462 E12.28933
G1 X82.090 Y84.216 E12.35533
G1 X81.142 Y83.861 E12.42561
G1 X80.238 Y83.409 E12.49588
G1 X79.385 Y82.865 E12.56616
G1 X78.474 Y82.128 E12.64758
G1 X77.803 Y81.457 E12.71356
G1 X77.558 Y81.138 E12.74147
G1 X75.963 Y78.375 E12.96315
G1 X75.810 Y78.004 E12.99100
G1 X75.564 Y77.088 E13.05692
G1 X75.451 Y76.557 E13.09465
G1 X74.549 Y76.557 E13.15733
G1 X74.436 Y77.088 E13.19503
G1 X74.190 Y78.005 E13.26101
G1 X74.037 Y78.376 E13.28892
G1 X72.442 Y81.138 E13.51050
G1 X72.198 Y81.457 E13.53841
G1 X71.407 Y82.235 E13.61553
G1 X70.615 Y82.865 E13.68581
G1 X69.901 Y83.329 E13.74497
G1 X69.135 Y83.729 E13.80507
G1 X68.857 Y83.861 E13.82639
G1 X68.063 Y84.166 E13.88554
G1 X66.993 Y84.462 E13.96266
G1 X66.595 Y84.514 E13.99057
G1 X63.405 Y84.514 E14.21216
G1 X63.007 Y84.462 E14.24006
G1 X61.937 Y84.166 E14.31718
G1 X60.996 Y83.796 E14.38746
G1 X60.238 Y83.409 E14.44661
G1 X59.385 Y82.865 E14.51690
G1 X58.474 Y82.128 E14.59832
G1 X57.803 Y81.457 E14.66430
G1 X57.558 Y81.138 E14.69220
G1 X55.963 Y78.376 E14.91379
G1 X55.810 Y78.005 E14.94170
G1 X55.531 Y76.931 E15.01882
G1 X55.381 Y75.930 E15.08910
G1 X55.336 Y74.920 E15.15939
G1 X55.397 Y73.910 E15.22967
G1 X55.564 Y72.912 E15.29996
G1 X55.810 Y71.995 E15.36596
G1 X55.963 Y71.624 E15.39386
G1 X57.558 Y68.862 E15.61544
G1 X57.803 Y68.543 E15.64335
G1 X58.593 Y67.765 E15.72046
G1 X59.385 Y67.135 E15.79074
G1 X60.238 Y66.591 E15.86103
G1 X60.996 Y66.204 E15.92018
G1 X61.937 Y65.834 E15.99047
G1 X63.007 Y65.538 E16.06758
G1 X63.405 Y65.486 E16.09549
G1 X66.595 Y65.486 E16.31708
G1 X66.993 Y65.538 E16.34499
G1 X67.910 Y65.784 E16.41097
G1 X69.004 Y66.204 E16.49239
G1 X69.901 Y66.671 E16.56267
G1 X70.745 Y67.229 E16.63296
G1 X71.526 Y67.872 E16.70324
G1 X72.198 Y68.543 E16.76922
G1 X72.442 Y68.862 E16.79713
G1 X74.037 Y71.624 E17.01872
G1 X74.190 Y71.995 E17.04663
G1 X74.436 Y72.912 E17.11260
G1 X74.536 Y73.384 E17.14613
G1 X75.992 Y73.717 F7800.000
G1 X76.106 Y73.042 E17.19367 F1080.000
G1 X76.338 Y72.176 E17.25598
G1 X76.463 Y71.872 E17.27882
G1 X78.022 Y69.172 E17.49544
G1 X78.222 Y68.911 E17.51828
G1 X78.858 Y68.276 E17.58070
G1 X79.700 Y67.594 E17.65605
G1 X80.503 Y67.080 E17.72227
G1 X81.356 Y66.654 E17.78851
G1 X82.248 Y66.319 E17.85475
G1 X83.116 Y66.086 E17.91718
G1 X83.442 Y66.043 E17.94001
G1 X86.558 Y66.043 E18.15652
G1 X86.884 Y66.086 E18.17936
G1 X87.752 Y66.319 E18.24180
G1 X88.644 Y66.654 E18.30803
G1 X89.610 Y67.146 E18.38336
G1 X90.300 Y67.594 E18.44048
G1 X91.045 Y68.188 E18.50670
G1 X91.778 Y68.911 E18.57825
G1 X91.978 Y69.172 E18.60108
G1 X93.536 Y71.871 E18.81762
G1 X93.662 Y72.175 E18.84045
G1 X93.894 Y73.042 E18.90285
G1 X94.050 Y73.983 E18.96912
G1 X94.107 Y74.935 E19.03535
G1 X94.064 Y75.887 E19.10158
G1 X93.942 Y76.699 E19.15864
G1 X93.894 Y76.958 E19.17693
G1 X93.662 Y77.824 E19.23926
G1 X93.536 Y78.128 E19.26213
G1 X91.978 Y80.828 E19.47874
G1 X91.778 Y81.089 E19.50155
G1 X91.142 Y81.724 E19.56396
G1 X90.300 Y82.406 E19.63931
G1 X89.497 Y82.920 E19.70554
G1 X88.644 Y83.346 E19.77177
G1 X87.752 Y83.681 E19.83801
G1 X86.884 Y83.914 E19.90044
G1 X86.558 Y83.957 E19.92327
G1 X83.442 Y83.957 E20.13978
G1 X83.116 Y83.914 E20.16262
G1 X82.248 Y83.681 E20.22506
G1 X81.356 Y83.346 E20.29129
G1 X80.390 Y82.854 E20.36662
G1 X79.594 Y82.329 E20.43285
G1 X78.955 Y81.812 E20.48996
G1 X78.222 Y81.089 E20.56151
G1 X78.022 Y80.828 E20.58435
G1 X76.464 Y78.128 E20.80094
G1 X76.338 Y77.825 E20.82373
G1 X76.079 Y76.829 E20.89524
G1 X75.936 Y75.887 E20.96148
G1 X75.893 Y74.934 E21.02772
G1 X75.936 Y74.113 E21.08484
G1 X75.983 Y73.776 E21.10848
G1 X76.542 Y73.804 F7800.000
G1 X76.648 Y73.172 E21.15298 F1080.000
G1 X76.867 Y72.355 E21.21177
G1 X76.964 Y72.119 E21.22953
G1 X78.486 Y69.482 E21.44105
G1 X78.642 Y69.280 E21.45881
G1 X79.241 Y68.680 E21.51769
G1 X80.016 Y68.053 E21.58696
G1 X80.769 Y67.570 E21.64913
G1 X81.569 Y67.169 E21.71132
G1 X82.407 Y66.853 E21.77350
G1 X83.225 Y66.634 E21.83238
G1 X83.478 Y66.600 E21.85014
G1 X86.522 Y66.600 E22.06158
G1 X86.775 Y66.634 E22.07934
G1 X87.594 Y66.853 E22.13823
G1 X88.431 Y67.169 E22.20041
G1 X89.319 Y67.621 E22.26966
G1 X89.984 Y68.053 E22.32476
G1 X90.683 Y68.612 E22.38693
G1 X91.358 Y69.280 E22.45290
G1 X91.514 Y69.482 E22.47066
G1 X93.035 Y72.118 E22.68212
G1 X93.133 Y72.354 E22.69988
G1 X93.352 Y73.172 E22.75873
G1 X93.498 Y74.056 E22.82094
G1 X93.550 Y74.949 E22.88312
G1 X93.508 Y75.843 E22.94530
G1 X93.392 Y76.612 E22.99934
G1 X93.352 Y76.828 E23.01457
G1 X93.133 Y77.645 E23.07337
G1 X93.036 Y77.882 E23.09116
G1 X91.513 Y80.518 E23.30267
G1 X91.358 Y80.721 E23.32041
G1 X90.759 Y81.320 E23.37928
G1 X89.984 Y81.947 E23.44855
G1 X89.231 Y82.430 E23.51073
G1 X88.431 Y82.831 E23.57291
G1 X87.593 Y83.147 E23.63510
G1 X86.775 Y83.366 E23.69398
G1 X86.522 Y83.400 E23.71173
G1 X83.478 Y83.400 E23.92317
G1 X83.225 Y83.366 E23.94093
G1 X82.406 Y83.147 E23.99982
G1 X81.569 Y82.831 E24.06200
G1 X80.681 Y82.379 E24.13126
G1 X79.933 Y81.887 E24.19344
G1 X79.317 Y81.388 E24.24852
G1 X78.642 Y80.720 E24.31450
G1 X78.486 Y80.518 E24.33226
G1 X76.964 Y77.881 E24.54376
G1 X76.867 Y77.646 E24.56148
G1 X76.626 Y76.728 E24.62742
G1 X76.492 Y75.843 E24.68961
G1 X76.450 Y74.949 E24.75180
G1 X76.492 Y74.157 E24.80689
G1 X76.533 Y73.863 E24.82750
G1 X77.092 Y73.891 F7800.000
G1 X77.190 Y73.302 E24.86895 F1080.000
G1 X77.395 Y72.534 E24.92422
G1 X77.465 Y72.365 E24.93690
G1 X78.951 Y69.793 E25.14333
G1 X79.062 Y69.648 E25.15602
G1 X79.625 Y69.085 E25.21134
G1 X80.332 Y68.512 E25.27453
G1 X81.035 Y68.060 E25.33266
G1 X81.782 Y67.683 E25.39079
G1 X82.565 Y67.387 E25.44892
G1 X83.334 Y67.181 E25.50425
G1 X83.515 Y67.157 E25.51693
G1 X86.485 Y67.157 E25.72330
G1 X86.666 Y67.181 E25.73599
G1 X87.435 Y67.387 E25.79132
G1 X88.218 Y67.684 E25.84945
G1 X89.028 Y68.096 E25.91263
G1 X89.727 Y68.555 E25.97076
G1 X90.321 Y69.036 E26.02382
G1 X90.938 Y69.648 E26.08422
G1 X91.049 Y69.792 E26.09690
G1 X92.535 Y72.365 E26.30328
G1 X92.604 Y72.534 E26.31597
G1 X92.810 Y73.302 E26.37128
G1 X92.945 Y74.128 E26.42943
G1 X92.993 Y74.964 E26.48756
G1 X92.953 Y75.799 E26.54568
G1 X92.842 Y76.525 E26.59668
G1 X92.605 Y77.466 E26.66411
G1 X92.535 Y77.635 E26.67682
G1 X91.049 Y80.208 E26.88324
G1 X90.938 Y80.352 E26.89591
G1 X90.375 Y80.915 E26.95123
G1 X89.668 Y81.488 E27.01442
G1 X88.965 Y81.940 E27.07255
G1 X88.218 Y82.317 E27.13068
G1 X87.435 Y82.613 E27.18881
G1 X86.666 Y82.819 E27.24414
G1 X86.485 Y82.843 E27.25682
G1 X83.515 Y82.843 E27.46319
G1 X83.334 Y82.819 E27.47588
G1 X82.565 Y82.613 E27.53121
G1 X81.782 Y82.316 E27.58934
G1 X80.972 Y81.904 E27.65252
G1 X80.273 Y81.445 E27.71065
G1 X79.679 Y80.964 E27.76371
G1 X79.062 Y80.352 E27.82411
G1 X78.951 Y80.207 E27.83680
G1 X77.465 Y77.635 E28.04320
G1 X77.396 Y77.466 E28.05587
G1 X77.174 Y76.626 E28.11624
G1 X77.047 Y75.799 E28.17437
G1 X77.007 Y74.963 E28.23250
G1 X77.047 Y74.201 E28.28557
G1 X77.083 Y73.950 E28.30314
G1 X77.643 Y73.978 F7800.000
G1 X77.731 Y73.433 E28.34156 F1080.000
G1 X77.966 Y72.612 E28.40085
G1 X79.415 Y70.103 E28.60218
G1 X80.008 Y69.489 E28.66151
G1 X80.647 Y68.972 E28.71863
G1 X81.301 Y68.550 E28.77270
G1 X81.996 Y68.198 E28.82678
G1 X82.723 Y67.922 E28.88086
G1 X83.443 Y67.729 E28.93264
G1 X83.551 Y67.714 E28.94025
G1 X86.449 Y67.714 E29.14154
G1 X86.557 Y67.729 E29.14915
G1 X87.277 Y67.922 E29.20093
G1 X88.004 Y68.198 E29.25501
G1 X88.737 Y68.572 E29.31212
G1 X89.353 Y68.972 E29.36316
G1 X89.959 Y69.460 E29.41723
G1 X90.519 Y70.016 E29.47205
G1 X90.585 Y70.103 E29.47966
G1 X92.034 Y72.612 E29.68097
G1 X92.076 Y72.713 E29.68858
G1 X92.278 Y73.475 E29.74338
G1 X92.397 Y74.245 E29.79747
G1 X92.436 Y75.022 E29.85154
G1 X92.397 Y75.756 E29.90259
G1 X92.291 Y76.438 E29.95054
G1 X92.076 Y77.287 E30.01141
G1 X92.034 Y77.388 E30.01904
G1 X90.585 Y79.897 E30.22036
G1 X89.992 Y80.511 E30.27968
G1 X89.353 Y81.028 E30.33680
G1 X88.699 Y81.450 E30.39088
G1 X88.004 Y81.802 E30.44495
G1 X87.277 Y82.078 E30.49903
G1 X86.557 Y82.271 E30.55081
G1 X86.449 Y82.286 E30.55842
G1 X83.551 Y82.286 E30.75971
G1 X83.443 Y82.271 E30.76732
G1 X82.723 Y82.078 E30.81911
G1 X81.996 Y81.802 E30.87318
G1 X81.263 Y81.428 E30.93029
G1 X80.612 Y81.003 E30.98437
G1 X80.041 Y80.540 E31.03541
G1 X79.481 Y79.984 E31.09023
G1 X79.415 Y79.897 E31.09784
G1 X77.966 Y77.388 E31.29916
G1 X77.924 Y77.287 E31.30675
G1 X77.722 Y76.525 E31.36155
G1 X77.603 Y75.755 E31.41564
G1 X77.564 Y74.978 E31.46972
G1 X77.603 Y74.245 E31.52076
G1 X77.633 Y74.038 E31.53529
G1 X78.193 Y74.065 F7800.000
G1 X78.273 Y73.563 E31.57066 F1080.000
G1 X78.467 Y72.859 E31.62139
G1 X79.879 Y70.413 E31.81762
G1 X80.392 Y69.893 E31.86837
G1 X80.963 Y69.431 E31.91941
G1 X81.567 Y69.039 E31.96943
G1 X82.196 Y68.719 E32.01845
G1 X82.868 Y68.460 E32.06847
G1 X83.552 Y68.276 E32.11771
G1 X86.448 Y68.276 E32.31896
G1 X87.133 Y68.460 E32.36820
G1 X87.791 Y68.713 E32.41722
G1 X88.446 Y69.047 E32.46825
G1 X89.049 Y69.439 E32.51828
G1 X89.597 Y69.883 E32.56729
G1 X90.121 Y70.413 E32.61905
G1 X91.547 Y72.892 E32.81779
G1 X91.730 Y73.577 E32.86702
G1 X91.842 Y74.288 E32.91705
G1 X91.879 Y75.007 E32.96708
G1 X91.842 Y75.712 E33.01609
G1 X91.741 Y76.350 E33.06100
G1 X91.533 Y77.141 E33.11784
G1 X90.121 Y79.587 E33.31407
G1 X89.608 Y80.107 E33.36481
G1 X89.037 Y80.569 E33.41585
G1 X88.446 Y80.953 E33.46486
G1 X87.804 Y81.281 E33.51488
G1 X87.133 Y81.540 E33.56491
G1 X86.448 Y81.724 E33.61415
G1 X83.552 Y81.724 E33.81540
G1 X82.867 Y81.540 E33.86464
G1 X82.209 Y81.287 E33.91366
G1 X81.554 Y80.953 E33.96469
G1 X80.951 Y80.561 E34.01472
G1 X80.403 Y80.117 E34.06373
G1 X79.879 Y79.587 E34.11549
G1 X78.453 Y77.108 E34.31423
G1 X78.270 Y76.423 E34.36346
G1 X78.158 Y75.712 E34.41349
G1 X78.121 Y74.993 E34.46352
G1 X78.158 Y74.288 E34.51253
G1 X78.184 Y74.125 E34.52403
G1 F1800.000 E33.52403
G1 Z0.500 F7800.000
G92 E0
G1 X74.064 Y74.113 F7800.000
G1 Z0.300 F7800.000
G1 E1.00000 F1800.000
G1 X74.107 Y75.066 E1.06623 F1080.000
G1 X74.050 Y76.017 E1.13247
G1 X73.894 Y76.958 E1.19870
G1 X73.662 Y77.826 E1.26113
G1 X73.536 Y78.129 E1.28397
G1 X71.978 Y80.828 E1.50047
G1 X71.778 Y81.088 E1.52331
G1 X71.045 Y81.812 E1.59485
G1 X70.300 Y82.406 E1.66109
G1 X69.610 Y82.854 E1.71821
G1 X68.764 Y83.293 E1.78445
G1 X67.877 Y83.641 E1.85068
G1 X66.884 Y83.914 E1.92222
G1 X66.558 Y83.957 E1.94505
G1 X63.442 Y83.957 E2.16157
G1 X63.116 Y83.914 E2.18440
G1 X62.123 Y83.641 E2.25594
G1 X61.236 Y83.293 E2.32217
G1 X60.390 Y82.854 E2.38841
G1 X59.594 Y82.329 E2.45464
G1 X58.858 Y81.724 E2.52088
G1 X58.222 Y81.088 E2.58330
G1 X58.022 Y80.828 E2.60614
G1 X56.464 Y78.129 E2.82265
G1 X56.338 Y77.826 E2.84548
G1 X56.106 Y76.958 E2.90792
G1 X55.950 Y76.017 E2.97414
G1 X55.893 Y75.066 E3.04038
G1 X55.936 Y74.113 E3.10662
G1 X56.079 Y73.171 E3.17286
G1 X56.338 Y72.174 E3.24440
G1 X56.464 Y71.871 E3.26723
G1 X58.022 Y69.172 E3.48374
G1 X58.222 Y68.912 E3.50657
G1 X58.955 Y68.188 E3.57811
G1 X59.700 Y67.594 E3.64434
G1 X60.390 Y67.146 E3.70147
G1 X61.236 Y66.707 E3.76771
G1 X62.123 Y66.359 E3.83394
G1 X63.116 Y66.086 E3.90548
G1 X63.442 Y66.043 E3.92831
G1 X66.558 Y66.043 E4.14483
G1 X66.884 Y66.086 E4.16766
G1 X67.877 Y66.359 E4.23920
G1 X68.764 Y66.707 E4.30543
G1 X69.610 Y67.146 E4.37167
G1 X70.406 Y67.671 E4.43790
G1 X71.142 Y68.276 E4.50413
G1 X71.778 Y68.912 E4.56656
G1 X71.978 Y69.172 E4.58940
G1 X73.536 Y71.871 E4.80592
G1 X73.662 Y72.175 E4.82875
G1 X73.894 Y73.042 E4.89117
G1 X74.058 Y74.054 E4.96235
G1 X73.508 Y74.157 F7800.000
G1 X73.550 Y75.051 E5.02453 F1080.000
G1 X73.498 Y75.944 E5.08672
