; generated by Slic3r 1.1.7 on 2014-12-03 at 16:35:57

; perimeters extrusion width = 0.40mm
; infill extrusion width = 0.67mm
; solid infill extrusion width = 0.67mm
; top infill extrusion width = 0.67mm

G21 ; set units to millimeters
M107
M104 S215 ; set temperature
G28 ; home all axes
G29; calibrate bed leveling
G1 Z5 F5000 ; lift nozzle
G28 X ; Go to corner x
G28 Y ; Go to corner y

M109 S215 ; wait for temperature to be reached
G90 ; use absolute coordinates
G92 E0
M82 ; use absolute distances for extrusion
G1 F1800.000 E-1.00000
G1 Z0.500 F7800.000
G92 E0
G1 X56.107 Y64.566 F7800.000
G1 Z0.300 F7800.000
G1 E1.00000 F1800.000
G1 X56.592 Y64.173 E1.04339 F1080.000
G1 X57.246 Y63.694 E1.09972
G1 X57.770 Y63.354 E1.14314
G1 X58.470 Y62.946 E1.19946
G1 X58.981 Y62.685 E1.23933
G1 X59.766 Y62.329 E1.29920
G1 X61.119 Y61.851 E1.39891
G1 X61.765 Y61.678 E1.44536
G1 X63.606 Y61.436 E1.57440
G1 X86.394 Y61.436 E3.15772
G1 X88.235 Y61.678 E3.28676
G1 X88.818 Y61.834 E3.32868 F1080.000
G1 X89.589 Y62.081 E3.38493
G1 X90.173 Y62.305 E3.42839
G1 X90.914 Y62.632 E3.48470
G1 X92.175 Y63.318 E3.58439
G1 X93.356 Y64.132 E3.68409
G1 X93.752 Y64.452 E3.71947
G1 X94.447 Y65.065 E3.78381
G1 X94.919 Y65.537 E3.83026
G1 X96.050 Y67.011 E3.95928
G1 X97.444 Y69.426 E4.15305
G1 X98.155 Y71.141 E4.28206
G1 X98.482 Y72.515 E4.38018
G1 X98.580 Y73.132 E4.42363
G1 X98.668 Y73.938 E4.47994
G1 X98.701 Y74.562 E4.52337
G1 X98.704 Y75.372 E4.57964
G1 X98.672 Y75.997 E4.62309
G1 X98.590 Y76.803 E4.67939
G1 X98.493 Y77.421 E4.72290
G1 X98.328 Y78.213 E4.77912
G1 X98.155 Y78.859 E4.82557
G1 X97.445 Y80.574 E4.95452
G1 X96.049 Y82.991 E5.14844
G1 X94.919 Y84.463 E5.27736
G1 X93.893 Y85.434 E5.37551
G1 X92.754 Y86.306 E5.47521
G1 X91.530 Y87.054 E5.57490
G1 X90.973 Y87.338 E5.61832
G1 X90.234 Y87.671 E5.67465
G1 X89.650 Y87.895 E5.71809
G1 X88.881 Y88.149 E5.77438
G1 X88.235 Y88.322 E5.82087
G1 X86.394 Y88.564 E5.94988
G1 X63.606 Y88.564 E7.53320
G1 X61.765 Y88.322 E7.66224
G1 X60.411 Y87.919 E7.76040
G1 X59.828 Y87.695 E7.80379
G1 X59.086 Y87.368 E7.86014
G1 X57.825 Y86.682 E7.95984
G1 X57.302 Y86.342 E8.00324
G1 X56.644 Y85.868 E8.05957
G1 X55.553 Y84.935 E8.15928
G1 X55.081 Y84.462 E8.20573
G1 X53.950 Y82.989 E8.33477
G1 X52.555 Y80.574 E8.52858
G1 X51.846 Y78.859 E8.65749
G1 X51.690 Y78.277 E8.69937
G1 X51.518 Y77.485 E8.75568
G1 X51.332 Y76.062 E8.85539
G1 X51.299 Y75.438 E8.89879
G1 X51.296 Y74.628 E8.95512
G1 X51.328 Y74.004 E8.99852
G1 X51.410 Y73.197 E9.05485
G1 X51.507 Y72.580 E9.09827
G1 X51.672 Y71.787 E9.15459
G1 X51.846 Y71.140 E9.20109
G1 X52.556 Y69.425 E9.33008
G1 X53.950 Y67.011 E9.52377
G1 X55.081 Y65.538 E9.65281
G1 X56.063 Y64.608 E9.74680
G1 X56.445 Y65.011 F7800.000
G1 X56.943 Y64.606 E9.79133 F1080.000
G1 X57.549 Y64.161 E9.84361
G1 X58.073 Y63.821 E9.88703
G1 X58.723 Y63.442 E9.93930
G1 X59.234 Y63.181 E9.97917
G1 X59.966 Y62.849 E10.03499
G1 X61.263 Y62.389 E10.13064
G1 X61.909 Y62.216 E10.17709
G1 X63.606 Y61.993 E10.29603
G1 X86.394 Y61.993 E11.87935
G1 X88.091 Y62.216 E11.99828
G1 X88.674 Y62.372 E12.04020 F1080.000
G1 X89.389 Y62.601 E12.09240
G1 X89.973 Y62.825 E12.13586
G1 X90.662 Y63.128 E12.18812
G1 X91.871 Y63.785 E12.28376
G1 X93.006 Y64.565 E12.37941
G1 X93.402 Y64.885 E12.41479
G1 X94.053 Y65.459 E12.47508
G1 X94.525 Y65.931 E12.52153
G1 X95.567 Y67.289 E12.64045
G1 X96.962 Y69.704 E12.83421
G1 X97.617 Y71.285 E12.95312
G1 X97.932 Y72.602 E13.04719
G1 X98.030 Y73.219 E13.09064
G1 X98.112 Y73.967 E13.14290
G1 X98.145 Y74.591 E13.18632
G1 X98.148 Y75.343 E13.23855
G1 X98.115 Y75.967 E13.28200
G1 X98.040 Y76.716 E13.33425
G1 X97.942 Y77.334 E13.37775
G1 X97.790 Y78.069 E13.42992
G1 X97.616 Y78.715 E13.47637
G1 X96.962 Y80.295 E13.59523
G1 X95.567 Y82.712 E13.78913
G1 X94.525 Y84.069 E13.90795
G1 X93.543 Y85.001 E14.00206
G1 X92.451 Y85.839 E14.09770
G1 X91.277 Y86.558 E14.19335
G1 X90.720 Y86.842 E14.23677
G1 X90.034 Y87.151 E14.28904
G1 X89.451 Y87.375 E14.33248
G1 X88.737 Y87.611 E14.38472
G1 X88.090 Y87.784 E14.43121
G1 X86.394 Y88.007 E14.55011
G1 X63.606 Y88.007 E16.13344
G1 X61.909 Y87.784 E16.25237
G1 X60.611 Y87.399 E16.34648
G1 X60.028 Y87.175 E16.38987
G1 X59.339 Y86.872 E16.44217
G1 X58.129 Y86.215 E16.53782
G1 X57.605 Y85.875 E16.58122
G1 X56.994 Y85.435 E16.63350
G1 X55.947 Y84.541 E16.72916
G1 X55.474 Y84.069 E16.77561
G1 X54.432 Y82.711 E16.89455
G1 X53.038 Y80.295 E17.08834
G1 X52.384 Y78.715 E17.20716
G1 X52.228 Y78.133 E17.24904
G1 X52.068 Y77.398 E17.30130
G1 X51.888 Y76.033 E17.39695
G1 X51.855 Y75.409 E17.44035
G1 X51.852 Y74.657 E17.49264
G1 X51.885 Y74.033 E17.53604
G1 X51.960 Y73.284 E17.58831
G1 X52.058 Y72.667 E17.63173
G1 X52.211 Y71.931 E17.68401
G1 X52.384 Y71.284 E17.73050
G1 X53.039 Y69.704 E17.84939
G1 X54.432 Y67.289 E18.04308
G1 X55.474 Y65.931 E18.16201
G1 X56.402 Y65.052 E18.25080
G1 F1800.000 E17.25080
G1 Z0.500 F7800.000
G92 E0
G1 X80.325 Y73.005 F7800.000
G1 Z0.300 F7800.000
G1 E1.00000 F1800.000
G1 X80.574 Y72.445 E1.04260 F540.000
G1 X80.865 Y71.996 E1.07978
G1 X81.243 Y71.539 E1.12097
G1 X81.581 Y71.201 E1.15417
G1 X81.996 Y70.866 E1.19124
G1 X82.520 Y70.547 E1.23387
G1 X83.014 Y70.345 E1.27092
G1 X83.522 Y70.197 E1.30774
G1 X84.040 Y70.104 E1.34429
G1 X84.634 Y70.070 E1.38559
G1 X85.079 Y70.084 E1.41655 F540.000
G1 X85.589 Y70.155 E1.45231
G1 X86.084 Y70.278 E1.48780
G1 X86.561 Y70.452 E1.52305
G1 X87.013 Y70.673 E1.55801
G1 X87.436 Y70.938 E1.59273
G1 X87.826 Y71.244 E1.62718
G1 X88.179 Y71.587 E1.66137
G1 X88.492 Y71.962 E1.69530
G1 X88.761 Y72.365 E1.72897
G1 X88.985 Y72.791 E1.76236
G1 X89.161 Y73.234 E1.79551
G1 X89.395 Y74.066 E1.85556
G1 X89.468 Y74.531 E1.88828
G1 X89.493 Y74.999 E1.92087
G1 X89.468 Y75.470 E1.95360
G1 X89.418 Y75.790 E1.97612
G1 X89.273 Y76.388 E2.01888
G1 X89.104 Y76.828 E2.05158
G1 X88.952 Y77.126 E2.07487
G1 X88.635 Y77.641 E2.11690
G1 X88.339 Y78.006 E2.14956
G1 X88.225 Y78.120 E2.16078
G1 X88.006 Y78.339 E2.18224
G1 X87.641 Y78.635 E2.21492
G1 X87.113 Y78.959 E2.25795
G1 X86.828 Y79.104 E2.28022
G1 X86.388 Y79.273 E2.31290
G1 X85.934 Y79.395 E2.34557
G1 X85.470 Y79.468 E2.37825
G1 X85.000 Y79.493 E2.41093
G1 X84.530 Y79.468 E2.44360
G1 X84.066 Y79.395 E2.47627
G1 X83.225 Y79.181 E2.53657
G1 X82.780 Y79.004 E2.56987
G1 X82.352 Y78.779 E2.60343
G1 X81.948 Y78.508 E2.63724
G1 X81.571 Y78.194 E2.67134
G1 X81.226 Y77.839 E2.70570
G1 X80.919 Y77.447 E2.74030
G1 X80.653 Y77.022 E2.77512
G1 X80.431 Y76.567 E2.81031
G1 X80.257 Y76.088 E2.84574
G1 X80.133 Y75.591 E2.88133
G1 X80.062 Y75.078 E2.91735
G1 X80.045 Y74.559 E2.95343
G1 X80.083 Y74.036 E2.98986
G1 X80.176 Y73.516 E3.02656
G1 X80.309 Y73.063 E3.05936
G1 X80.847 Y73.207 F7800.000
G1 X81.057 Y72.724 E3.09597 F378.000
G1 X81.317 Y72.324 E3.12909
G1 X81.637 Y71.933 E3.16420
G1 X81.954 Y71.616 E3.19533
G1 X82.324 Y71.317 E3.22840
G1 X82.753 Y71.054 E3.26341
G1 X83.193 Y70.873 E3.29641
G1 X83.645 Y70.741 E3.32916
G1 X84.105 Y70.658 E3.36164
G1 X84.530 Y70.628 E3.39121
G1 X85.028 Y70.639 E3.42581 F378.000
G1 X85.480 Y70.702 E3.45750
G1 X85.919 Y70.811 E3.48894
G1 X86.340 Y70.964 E3.52012
G1 X86.740 Y71.160 E3.55102
G1 X87.114 Y71.394 E3.58168
G1 X87.458 Y71.664 E3.61207
G1 X87.769 Y71.966 E3.64220
G1 X88.045 Y72.296 E3.67207
G1 X88.281 Y72.650 E3.70168
G1 X88.478 Y73.024 E3.73102
G1 X88.632 Y73.413 E3.76010
G1 X88.849 Y74.182 E3.81560
G1 X88.913 Y74.589 E3.84424
G1 X88.935 Y75.000 E3.87283
G1 X88.913 Y75.411 E3.90147
G1 X88.866 Y75.710 E3.92249
G1 X88.743 Y76.216 E3.95866
G1 X88.595 Y76.601 E3.98729
G1 X88.456 Y76.873 E4.00856
G1 X88.183 Y77.313 E4.04450
G1 X87.831 Y77.727 E4.08226
G1 X87.633 Y77.924 E4.10169
G1 X87.313 Y78.184 E4.13031
G1 X86.860 Y78.463 E4.16727
G1 X86.601 Y78.595 E4.18751
G1 X86.216 Y78.742 E4.21613
G1 X85.818 Y78.849 E4.24475
G1 X85.411 Y78.914 E4.27337
G1 X85.000 Y78.935 E4.30199
G1 X84.589 Y78.914 E4.33061
G1 X84.182 Y78.849 E4.35922
G1 X83.404 Y78.652 E4.41497
G1 X83.013 Y78.496 E4.44420
G1 X82.637 Y78.299 E4.47371
G1 X82.282 Y78.061 E4.50346
G1 X81.950 Y77.784 E4.53350
G1 X81.646 Y77.471 E4.56379
G1 X81.375 Y77.125 E4.59433
G1 X81.140 Y76.749 E4.62512
G1 X80.944 Y76.347 E4.65621
G1 X80.790 Y75.923 E4.68756
G1 X80.681 Y75.482 E4.71913
G1 X80.618 Y75.027 E4.75102
G1 X80.603 Y74.566 E4.78310
G1 X80.637 Y74.101 E4.81548
G1 X80.721 Y73.639 E4.84812
G1 X80.831 Y73.265 E4.87521
G1 F1800.000 E3.87521
G1 Z0.500 F7800.000
G92 E0
G1 X84.654 Y70.247 F7800.000
G1 X90.737 Y74.915 F7800.000
G1 Z0.300 F7800.000
G1 E1.00000 F1800.000
G1 X90.710 Y75.600 E1.04764 F540.000
G1 X90.616 Y76.194 E1.08940
G1 X90.484 Y76.687 E1.12490
G1 X89.203 Y78.906 E1.30291
G1 X88.842 Y79.267 E1.33838
G1 X88.375 Y79.645 E1.38015
G1 X87.871 Y79.972 E1.42190
G1 X87.335 Y80.245 E1.46366
G1 X86.774 Y80.461 E1.50542
G1 X86.281 Y80.593 E1.54091
G1 X83.719 Y80.593 E1.71891
G1 X83.226 Y80.461 E1.75440
G1 X82.665 Y80.245 E1.79616
G1 X82.129 Y79.972 E1.83792
G1 X81.625 Y79.645 E1.87968
G1 X81.158 Y79.267 E1.92144
G1 X80.797 Y78.906 E1.95693
G1 X79.516 Y76.687 E2.13494
G1 X79.384 Y76.194 E2.17042
G1 X79.290 Y75.600 E2.21218
G1 X79.258 Y75.000 E2.25393
G1 X79.290 Y74.400 E2.29570
G1 X79.384 Y73.806 E2.33745
G1 X79.516 Y73.313 E2.37295
G1 X80.797 Y71.094 E2.55096
G1 X81.158 Y70.733 E2.58644
G1 X81.625 Y70.355 E2.62820
G1 X82.129 Y70.027 E2.66996
G1 X82.665 Y69.755 E2.71171
G1 X83.226 Y69.539 E2.75347
G1 X83.719 Y69.407 E2.78896
G1 X86.281 Y69.407 E2.96697 F540.000
G1 X86.774 Y69.539 E3.00245
G1 X87.335 Y69.755 E3.04421
G1 X87.871 Y70.028 E3.08597
G1 X88.375 Y70.355 E3.12773
G1 X88.842 Y70.733 E3.16949
G1 X89.203 Y71.094 E3.20498
G1 X90.484 Y73.313 E3.38299
G1 X90.616 Y73.806 E3.41848
G1 X90.710 Y74.400 E3.46023
G1 X90.734 Y74.855 E3.49191
G1 X91.290 Y74.826 F7800.000
G1 X91.300 Y75.000 E3.50402 F378.000
G1 X91.265 Y75.658 E3.54983
G1 X91.162 Y76.310 E3.59565
G1 X91.003 Y76.902 E3.63827
G1 X89.649 Y79.248 E3.82647
G1 X89.215 Y79.682 E3.86907
G1 X88.703 Y80.096 E3.91489
G1 X88.150 Y80.456 E3.96070
G1 X87.562 Y80.755 E4.00652
G1 X86.947 Y80.991 E4.05233
G1 X86.354 Y81.150 E4.09495
G1 X83.646 Y81.150 E4.28314
G1 X83.053 Y80.991 E4.32576
G1 X82.438 Y80.755 E4.37157
G1 X81.850 Y80.456 E4.41739
G1 X81.297 Y80.096 E4.46320
G1 X80.785 Y79.681 E4.50902
G1 X80.351 Y79.248 E4.55164
G1 X78.997 Y76.902 E4.73983
G1 X78.838 Y76.310 E4.78245
G1 X78.735 Y75.659 E4.82826
G1 X78.700 Y75.000 E4.87407
G1 X78.735 Y74.342 E4.91989
G1 X78.838 Y73.690 E4.96570
G1 X78.997 Y73.098 E5.00833
G1 X80.351 Y70.752 E5.19652
G1 X80.785 Y70.318 E5.23913
G1 X81.297 Y69.904 E5.28495
G1 X81.850 Y69.544 E5.33076
G1 X82.438 Y69.245 E5.37658
G1 X83.053 Y69.009 E5.42239
G1 X83.646 Y68.850 E5.46501
G1 X86.354 Y68.850 E5.65320
G1 X86.898 Y68.996 E5.69230
G1 X87.562 Y69.245 E5.74161 F378.000
G1 X88.150 Y69.544 E5.78743
G1 X88.739 Y69.927 E5.83625
G1 X89.215 Y70.319 E5.87908
G1 X89.649 Y70.752 E5.92169
G1 X91.003 Y73.098 E6.10989
G1 X91.162 Y73.690 E6.15250
G1 X91.265 Y74.341 E6.19832
G1 X91.287 Y74.766 E6.22786
G1 X87.242 Y69.199 F7800.000
G1 F1800.000 E5.22786
G1 Z0.500 F7800.000
G92 E0
G1 X79.743 Y75.760 F7800.000
G1 Z0.300 F7800.000
G1 E1.00000 F1800.000
G1 X79.838 Y76.207 E1.02389 F360.000
G1 X79.935 Y76.514 E1.04066
G1 X80.094 Y76.858 E1.06050
G1 X80.568 Y77.676 F7800.000
G1 X80.876 Y78.131 E1.08923 F360.000
G1 X81.217 Y78.583 E1.11882
G1 X81.609 Y78.933 E1.14628
G1 X82.108 Y79.302 E1.17868
G1 X82.116 Y79.288 F7800.000
G1 X82.520 Y79.521 E1.20304 F360.000
G1 X82.909 Y79.698 E1.22534
G1 X83.417 Y79.873 E1.25343
G1 X83.801 Y79.969 E1.27413
G1 X84.579 Y80.038 E1.31493
G1 X84.602 Y79.751 F7800.000
G1 X84.855 Y80.039 E1.33498 F360.000
G1 X84.986 Y80.043 E1.34183
G1 X85.145 Y80.039 E1.35017
G1 X85.398 Y79.751 E1.37022
G1 X85.421 Y80.038 F7800.000
G1 X86.199 Y79.969 E1.41102 F360.000
G1 X86.581 Y79.867 E1.43171
G1 X87.081 Y79.675 E1.45969
G1 X87.559 Y79.432 E1.48767
G1 X88.008 Y79.140 E1.51565
G1 X88.424 Y78.803 E1.54364
G1 X88.704 Y78.523 E1.56432
G1 X89.153 Y77.883 E1.60514
G1 X89.573 Y77.155 F7800.000
G1 X89.903 Y76.447 E1.64594 F360.000
G1 X90.005 Y76.064 E1.66664
G1 X90.089 Y75.535 E1.69461
G1 X90.117 Y75.000 E1.72260
G1 X90.089 Y74.465 E1.75058
G1 X90.005 Y73.936 E1.77856
G1 X89.903 Y73.554 E1.79925
G1 X89.636 Y72.922 E1.83506
G1 X89.626 Y72.926 F7800.000
G1 X89.450 Y72.559 E1.85634 F360.000
G1 X89.206 Y72.118 E1.88267
G1 X88.905 Y71.634 E1.91247
G1 X88.763 Y71.432 E1.92536
G1 X88.585 Y71.235 E1.93922
G1 X88.157 Y70.845 E1.96951
G1 X87.713 Y70.521 E1.99816
G1 X87.138 Y70.197 E2.03266
G1 X86.733 Y70.021 E2.05574
G1 X86.222 Y69.853 E2.08384
G1 X85.929 Y69.818 E2.09927
G1 F1800.000 E1.09927
G1 Z0.500 F7800.000
G92 E0
G1 X61.313 Y79.392 F7800.000
G1 Z0.300 F7800.000
G1 E1.00000 F1800.000
G1 X61.158 Y79.267 E1.01386 F540.000
G1 X60.797 Y78.906 E1.04935
G1 X59.516 Y76.687 E1.22735
G1 X59.384 Y76.194 E1.26284
G1 X59.290 Y75.600 E1.30460
G1 X59.258 Y75.000 E1.34636
G1 X59.290 Y74.400 E1.38812
G1 X59.384 Y73.806 E1.42988
G1 X59.516 Y73.313 E1.46537
G1 X60.797 Y71.094 E1.64337
G1 X61.158 Y70.733 E1.67886
G1 X61.625 Y70.355 E1.72062
G1 X62.129 Y70.028 E1.76238
G1 X62.665 Y69.755 E1.80414
G1 X63.226 Y69.539 E1.84589
G1 X63.719 Y69.407 E1.88138
G1 X66.281 Y69.407 E2.05939 F540.000
G1 X66.774 Y69.539 E2.09488
G1 X67.335 Y69.755 E2.13663
G1 X67.871 Y70.028 E2.17839
G1 X68.375 Y70.355 E2.22015
G1 X68.842 Y70.733 E2.26191
G1 X69.203 Y71.094 E2.29740
G1 X70.484 Y73.313 E2.47540
G1 X70.616 Y73.806 E2.51089
G1 X70.710 Y74.400 E2.55265
G1 X70.742 Y75.000 E2.59441
G1 X70.710 Y75.600 E2.63617
G1 X70.616 Y76.194 E2.67793
G1 X70.484 Y76.687 E2.71342
G1 X69.203 Y78.906 E2.89142
G1 X68.842 Y79.267 E2.92691
G1 X68.375 Y79.645 E2.96867
G1 X67.871 Y79.972 E3.01043
G1 X67.335 Y80.245 E3.05219
G1 X66.774 Y80.461 E3.09394
G1 X66.281 Y80.593 E3.12943
G1 X63.719 Y80.593 E3.30744
G1 X63.226 Y80.461 E3.34293
G1 X62.665 Y80.245 E3.38469
G1 X62.129 Y79.972 E3.42644
G1 X61.625 Y79.645 E3.46820
G1 X61.360 Y79.430 E3.49193
G1 X61.009 Y79.863 F7800.000
G1 X60.785 Y79.682 E3.51199 F378.000
G1 X60.351 Y79.248 E3.55460
G1 X58.997 Y76.902 E3.74280
G1 X58.838 Y76.310 E3.78541
G1 X58.735 Y75.658 E3.83123
G1 X58.697 Y74.931 E3.88183
G1 X58.735 Y74.342 E3.92289
G1 X58.838 Y73.690 E3.96870
G1 X58.997 Y73.098 E4.01132
G1 X60.351 Y70.752 E4.19951
G1 X60.785 Y70.318 E4.24213
G1 X61.297 Y69.904 E4.28794
G1 X61.850 Y69.544 E4.33376
G1 X62.438 Y69.245 E4.37958
G1 X63.053 Y69.009 E4.42539
G1 X63.646 Y68.850 E4.46801
G1 X66.354 Y68.850 E4.65620
G1 X66.898 Y68.996 E4.69530
G1 X67.562 Y69.245 E4.74461 F378.000
G1 X68.150 Y69.544 E4.79043
G1 X68.703 Y69.904 E4.83624
G1 X69.215 Y70.318 E4.88206
G1 X69.649 Y70.752 E4.92467
G1 X71.003 Y73.098 E5.11287
G1 X71.162 Y73.690 E5.15548
G1 X71.265 Y74.342 E5.20130
G1 X71.300 Y75.000 E5.24711
G1 X71.265 Y75.658 E5.29293
G1 X71.162 Y76.310 E5.33874
G1 X71.003 Y76.902 E5.38136
G1 X69.649 Y79.248 E5.56955
G1 X69.215 Y79.682 E5.61217
G1 X68.703 Y80.096 E5.65798
G1 X68.150 Y80.456 E5.70380
G1 X67.562 Y80.755 E5.74961
G1 X66.947 Y80.991 E5.79543
G1 X66.354 Y81.150 E5.83804
G1 X63.646 Y81.150 E6.02624
G1 X63.053 Y80.991 E6.06885
G1 X62.438 Y80.755 E6.11467
G1 X61.850 Y80.456 E6.16048
G1 X61.297 Y80.096 E6.20630
G1 X61.056 Y79.901 E6.22789
G1 X67.141 Y69.314 F7800.000
G1 X68.436 Y70.898 F7800.000
G1 X68.935 Y71.397 E6.27687 F1080.000
G1 X70.019 Y73.274 F7800.000
G1 X66.649 Y69.905 E6.60798 F1080.000
G1 X65.742 Y69.791 E6.67150
G1 X70.316 Y74.365 E7.12099
G1 X70.347 Y75.190 E7.17833
G1 X64.948 Y69.791 E7.70885
G1 X64.155 Y69.791 E7.76398
G1 X70.273 Y75.909 E8.36513
G1 X70.120 Y76.550 E8.41091
G1 X63.448 Y69.877 E9.06656
G1 X62.866 Y70.089 E9.10959
G1 X69.830 Y77.053 E9.79389
G1 X69.539 Y77.556 E9.83425
G1 X62.336 Y70.353 E10.54204
G1 X61.854 Y70.664 E10.58192
G1 X69.249 Y78.059 E11.30856
G1 X68.959 Y78.562 E11.34892
G1 X61.429 Y71.033 E12.08874
G1 X61.042 Y71.438 E12.12773
G1 X68.571 Y78.967 E12.86755
G1 X68.146 Y79.336 E12.90663
G1 X60.751 Y71.941 E13.63327
G1 X60.461 Y72.444 E13.67363
G1 X67.664 Y79.647 E14.38141
G1 X67.134 Y79.911 E14.42252
G1 X60.170 Y72.947 E15.10682
G1 X59.880 Y73.450 E15.14718
G1 X66.552 Y80.123 E15.80284
G1 X65.845 Y80.209 E15.85234
