; generated by Slic3r 1.1.7 on 2014-12-03 at 17:34:57

; perimeters extrusion width = 0.40mm
; infill extrusion width = 0.67mm
; solid infill extrusion width = 0.67mm
; top infill extrusion width = 0.67mm

G21 ; set units to millimeters
M107
M104 S215 ; set temperature
G28 ; home all axes
G29; calibrate bed leveling
G1 Z5 F5000 ; lift nozzle
G28 X ; Go to corner x
G28 Y ; Go to corner y

M109 S215 ; wait for temperature to be reached
G90 ; use absolute coordinates
G92 E0
M82 ; use absolute distances for extrusion
G1 F1800.000 E-1.00000
G1 Z0.500 F7800.000
G92 E0
G1 X53.950 Y38.661 F7800.000
G1 Z0.300 F7800.000
G1 E1.00000 F1800.000
G1 X55.081 Y37.188 E1.12903 F1080.000
G1 X56.107 Y36.216 E1.22719
G1 X56.592 Y35.823 E1.27059
G1 X57.246 Y35.344 E1.32692
G1 X57.770 Y35.004 E1.37034
G1 X58.470 Y34.596 E1.42666
G1 X58.981 Y34.335 E1.46653
G1 X59.766 Y33.979 E1.52640
G1 X61.119 Y33.501 E1.62610
G1 X61.765 Y33.328 E1.67255
G1 X63.606 Y33.086 E1.80159
G1 X86.394 Y33.086 E3.38492
G1 X88.235 Y33.328 E3.51396
G1 X88.827 Y33.487 E3.55652 F1080.000
G1 X89.589 Y33.731 E3.61213
G1 X90.914 Y34.282 E3.71186
G1 X92.175 Y34.968 E3.81155
G1 X92.707 Y35.314 E3.85566
G1 X93.356 Y35.782 E3.91128
G1 X93.850 Y36.182 E3.95545
G1 X94.447 Y36.715 E4.01102
G1 X94.919 Y37.187 E4.05747
G1 X96.050 Y38.661 E4.18651
G1 X97.397 Y40.995 E4.37375
G1 X98.155 Y42.791 E4.50919
G1 X98.314 Y43.385 E4.55194
G1 X98.482 Y44.165 E4.60737
G1 X98.668 Y45.588 E4.70709
G1 X98.714 Y46.650 E4.78095
G1 X98.704 Y103.721 E8.74639
G1 X98.671 Y104.359 E8.79072
G1 X98.591 Y105.152 E8.84616
G1 X98.491 Y105.783 E8.89056
G1 X98.328 Y106.563 E8.94590
G1 X98.155 Y107.209 E8.99237
G1 X97.444 Y108.925 E9.12140
G1 X96.049 Y111.340 E9.31521
G1 X94.919 Y112.813 E9.44415
G1 X93.777 Y113.878 E9.55269
G1 X92.754 Y114.656 E9.64198
G1 X92.222 Y115.002 E9.68608
G1 X91.530 Y115.404 E9.74170
G1 X90.964 Y115.693 E9.78587
G1 X90.234 Y116.021 E9.84146
G1 X89.641 Y116.249 E9.88559
G1 X88.881 Y116.499 E9.94119
G1 X88.235 Y116.672 E9.98766
G1 X86.394 Y116.914 E10.11668
G1 X63.606 Y116.914 E11.70001
G1 X61.765 Y116.672 E11.82904
G1 X60.411 Y116.269 E11.92720
G1 X59.828 Y116.045 E11.97059
G1 X59.086 Y115.718 E12.02694
G1 X57.825 Y115.032 E12.12665
G1 X57.302 Y114.692 E12.17004
G1 X56.644 Y114.218 E12.22638
G1 X55.553 Y113.285 E12.32609
G1 X55.081 Y112.813 E12.37254
G1 X53.950 Y111.339 E12.50157
G1 X52.555 Y108.924 E12.69538
G1 X51.846 Y107.209 E12.82429
G1 X51.690 Y106.627 E12.86617
G1 X51.518 Y105.835 E12.92248
G1 X51.332 Y104.412 E13.02219
G1 X51.286 Y103.350 E13.09606
G1 X51.296 Y46.278 E17.06156
G1 X51.328 Y45.654 E17.10497
G1 X51.410 Y44.847 E17.16129
G1 X51.507 Y44.230 E17.20471
G1 X51.672 Y43.437 E17.26104
G1 X51.846 Y42.790 E17.30753
G1 X52.556 Y41.075 E17.43653
G1 X53.920 Y38.713 E17.62604
G1 X54.402 Y38.991 F7800.000
G1 X55.474 Y37.581 E17.74911 F1080.000
G1 X56.457 Y36.649 E17.84322
G1 X56.943 Y36.256 E17.88661
G1 X57.549 Y35.811 E17.93889
G1 X58.073 Y35.471 E17.98231
G1 X58.723 Y35.092 E18.03458
G1 X59.234 Y34.831 E18.07445
G1 X59.966 Y34.499 E18.13027
G1 X61.263 Y34.039 E18.22592
G1 X61.909 Y33.866 E18.27237
G1 X63.606 Y33.643 E18.39131
G1 X86.394 Y33.643 E19.97463
G1 X88.091 Y33.866 E20.09357
G1 X88.683 Y34.025 E20.13613 F1080.000
G1 X89.389 Y34.251 E20.18769
G1 X90.662 Y34.778 E20.28337
G1 X91.871 Y35.435 E20.37901
G1 X92.404 Y35.781 E20.42312
G1 X93.006 Y36.215 E20.47468
G1 X93.500 Y36.615 E20.51885
G1 X94.053 Y37.109 E20.57037
G1 X94.525 Y37.581 E20.61682
G1 X95.568 Y38.939 E20.73576
G1 X96.915 Y41.273 E20.92300
G1 X97.616 Y42.935 E21.04834
G1 X97.776 Y43.529 E21.09107
G1 X97.932 Y44.252 E21.14246
G1 X98.112 Y45.617 E21.23814
G1 X98.157 Y46.650 E21.30997
G1 X98.148 Y103.692 E25.27339
G1 X98.115 Y104.329 E25.31770
G1 X98.040 Y105.065 E25.36910
G1 X97.940 Y105.696 E25.41348
G1 X97.790 Y106.419 E25.46479
G1 X97.616 Y107.065 E25.51126
G1 X96.962 Y108.646 E25.63018
G1 X95.567 Y111.062 E25.82399
G1 X94.525 Y112.419 E25.94283
G1 X93.426 Y113.445 E26.04732
G1 X92.451 Y114.189 E26.13256
G1 X91.918 Y114.534 E26.17666
G1 X91.277 Y114.908 E26.22823
G1 X90.711 Y115.197 E26.27239
G1 X90.034 Y115.501 E26.32393
G1 X89.441 Y115.729 E26.36806
G1 X88.737 Y115.961 E26.41961
G1 X88.091 Y116.134 E26.46608
G1 X86.394 Y116.357 E26.58500
G1 X63.606 Y116.357 E28.16833
G1 X61.909 Y116.134 E28.28726
G1 X60.611 Y115.749 E28.38136
G1 X60.028 Y115.525 E28.42476
G1 X59.339 Y115.222 E28.47705
G1 X58.129 Y114.565 E28.57271
G1 X57.605 Y114.225 E28.61610
G1 X56.994 Y113.785 E28.66839
G1 X55.947 Y112.891 E28.76405
G1 X55.474 Y112.419 E28.81050
G1 X54.432 Y111.061 E28.92943
G1 X53.038 Y108.645 E29.12323
G1 X52.384 Y107.065 E29.24205
G1 X52.228 Y106.483 E29.28392
G1 X52.068 Y105.748 E29.33619
G1 X51.888 Y104.383 E29.43184
G1 X51.843 Y103.350 E29.50369
G1 X51.852 Y46.307 E33.46716
G1 X51.885 Y45.683 E33.51057
G1 X51.960 Y44.934 E33.56284
G1 X52.058 Y44.317 E33.60626
G1 X52.211 Y43.581 E33.65853
G1 X52.384 Y42.934 E33.70502
G1 X53.039 Y41.354 E33.82392
G1 X54.372 Y39.043 E34.00927
G1 F1800.000 E33.00927
G1 Z0.500 F7800.000
G92 E0
G1 X81.202 Y62.130 F7800.000
G1 Z0.300 F7800.000
G1 E1.00000 F1800.000
G1 X81.581 Y61.751 E1.03725 F540.000
G1 X81.996 Y61.416 E1.07432
G1 X82.520 Y61.097 E1.11695
G1 X83.014 Y60.895 E1.15401
G1 X83.522 Y60.747 E1.19083
G1 X84.040 Y60.654 E1.22738
G1 X84.634 Y60.620 E1.26868
G1 X85.079 Y60.634 E1.29964 F540.000
G1 X85.589 Y60.705 E1.33540
G1 X86.084 Y60.828 E1.37089
G1 X86.561 Y61.002 E1.40614
G1 X87.013 Y61.223 E1.44109
G1 X87.436 Y61.488 E1.47581
G1 X87.826 Y61.794 E1.51027
G1 X88.179 Y62.137 E1.54446
G1 X88.492 Y62.512 E1.57838
G1 X88.761 Y62.915 E1.61205
G1 X88.985 Y63.341 E1.64545
G1 X89.161 Y63.784 E1.67860
G1 X89.395 Y64.616 E1.73864
G1 X89.468 Y65.081 E1.77136
G1 X89.493 Y65.549 E1.80395
G1 X89.468 Y66.020 E1.83669
G1 X89.395 Y66.484 E1.86936
G1 X89.273 Y66.938 E1.90201
G1 X89.104 Y67.378 E1.93471
G1 X88.952 Y67.676 E1.95800
G1 X88.635 Y68.191 E2.00003
G1 X88.339 Y68.556 E2.03269
G1 X88.006 Y68.889 E2.06537
G1 X87.641 Y69.185 E2.09804
G1 X87.247 Y69.441 E2.13071
G1 X86.828 Y69.654 E2.16339
G1 X86.388 Y69.823 E2.19606
G1 X85.934 Y69.945 E2.22874
G1 X85.470 Y70.018 E2.26142
G1 X85.000 Y70.043 E2.29410
G1 X84.530 Y70.018 E2.32677
G1 X84.066 Y69.945 E2.35944
G1 X83.225 Y69.731 E2.41974
G1 X82.780 Y69.554 E2.45304
G1 X82.352 Y69.329 E2.48660
G1 X81.948 Y69.058 E2.52041
G1 X81.571 Y68.744 E2.55451
G1 X81.226 Y68.389 E2.58887
G1 X80.919 Y67.997 E2.62347
G1 X80.653 Y67.572 E2.65829
G1 X80.431 Y67.117 E2.69348
G1 X80.257 Y66.638 E2.72891
G1 X80.133 Y66.141 E2.76450
G1 X80.062 Y65.628 E2.80052
G1 X80.045 Y65.109 E2.83660
G1 X80.083 Y64.586 E2.87303
G1 X80.176 Y64.066 E2.90973
G1 X80.325 Y63.555 E2.94669
G1 X80.574 Y62.995 E2.98929
G1 X80.865 Y62.546 E3.02648
G1 X81.164 Y62.177 E3.05946
G1 X81.597 Y62.527 F7800.000
G1 X81.954 Y62.166 E3.09473 F378.000
G1 X82.324 Y61.867 E3.12781
G1 X82.753 Y61.604 E3.16281
G1 X83.193 Y61.423 E3.19581
G1 X83.645 Y61.291 E3.22856
G1 X84.105 Y61.208 E3.26105
G1 X84.530 Y61.178 E3.29061
G1 X85.028 Y61.189 E3.32521 F378.000
G1 X85.480 Y61.252 E3.35691
G1 X85.919 Y61.361 E3.38834
G1 X86.340 Y61.514 E3.41952
G1 X86.740 Y61.710 E3.45043
G1 X87.114 Y61.944 E3.48109
G1 X87.458 Y62.214 E3.51148
G1 X87.769 Y62.516 E3.54161
G1 X88.044 Y62.846 E3.57147
G1 X88.281 Y63.200 E3.60108
G1 X88.478 Y63.574 E3.63042
G1 X88.632 Y63.963 E3.65951
G1 X88.849 Y64.732 E3.71501
G1 X88.913 Y65.139 E3.74364
G1 X88.935 Y65.550 E3.77223
G1 X88.913 Y65.961 E3.80087
G1 X88.849 Y66.368 E3.82949
G1 X88.743 Y66.766 E3.85810
G1 X88.595 Y67.151 E3.88673
G1 X88.456 Y67.423 E3.90800
G1 X88.183 Y67.863 E3.94393
G1 X87.924 Y68.183 E3.97255
G1 X87.633 Y68.474 E4.00117
G1 X87.313 Y68.734 E4.02979
G1 X86.968 Y68.958 E4.05840
G1 X86.601 Y69.145 E4.08702
G1 X86.216 Y69.292 E4.11564
G1 X85.818 Y69.399 E4.14426
G1 X85.411 Y69.464 E4.17288
G1 X85.000 Y69.485 E4.20150
G1 X84.589 Y69.464 E4.23012
G1 X84.182 Y69.399 E4.25873
G1 X83.404 Y69.202 E4.31448
G1 X83.013 Y69.046 E4.34371
G1 X82.637 Y68.849 E4.37322
G1 X82.282 Y68.611 E4.40298
G1 X81.950 Y68.334 E4.43301
G1 X81.646 Y68.021 E4.46330
G1 X81.375 Y67.675 E4.49384
G1 X81.140 Y67.299 E4.52463
G1 X80.944 Y66.897 E4.55572
G1 X80.790 Y66.473 E4.58707
G1 X80.681 Y66.032 E4.61864
G1 X80.618 Y65.577 E4.65053
G1 X80.603 Y65.116 E4.68261
G1 X80.637 Y64.651 E4.71499
G1 X80.721 Y64.189 E4.74763
G1 X80.854 Y63.734 E4.78053
G1 X81.057 Y63.274 E4.81552
G1 X81.317 Y62.874 E4.84863
G1 X81.559 Y62.574 E4.87543
G1 X84.677 Y60.806 F7800.000
G1 X80.337 Y62.440 F7800.000
G1 X80.797 Y61.644 E4.93926 F540.000
G1 X81.158 Y61.283 E4.97476
G1 X81.625 Y60.905 E5.01651
G1 X82.129 Y60.578 E5.05827
G1 X82.665 Y60.305 E5.10002
G1 X83.226 Y60.089 E5.14179
G1 X83.719 Y59.957 E5.17728
G1 X86.281 Y59.957 E5.35528 F540.000
G1 X86.774 Y60.089 E5.39077
G1 X87.335 Y60.305 E5.43253
G1 X87.871 Y60.578 E5.47429
G1 X88.375 Y60.905 E5.51605
G1 X88.842 Y61.283 E5.55780
G1 X89.203 Y61.644 E5.59330
G1 X90.484 Y63.863 E5.77130
G1 X90.616 Y64.356 E5.80677
G1 X90.710 Y64.950 E5.84855
G1 X90.742 Y65.550 E5.89031
G1 X90.710 Y66.150 E5.93206
G1 X90.616 Y66.744 E5.97381
G1 X90.484 Y67.237 E6.00932
G1 X89.203 Y69.456 E6.18732
G1 X88.842 Y69.817 E6.22281
G1 X88.375 Y70.195 E6.26457
G1 X87.871 Y70.523 E6.30633
G1 X87.335 Y70.795 E6.34808
G1 X86.774 Y71.011 E6.38984
G1 X86.281 Y71.143 E6.42533
G1 X83.719 Y71.143 E6.60334
G1 X83.226 Y71.011 E6.63883
G1 X82.665 Y70.795 E6.68059
G1 X82.129 Y70.522 E6.72234
G1 X81.625 Y70.195 E6.76410
G1 X81.158 Y69.817 E6.80585
G1 X80.797 Y69.456 E6.84135
G1 X79.516 Y67.237 E7.01936
G1 X79.384 Y66.744 E7.05483
G1 X79.290 Y66.150 E7.09660
G1 X79.258 Y65.550 E7.13837
G1 X79.290 Y64.950 E7.18011
G1 X79.384 Y64.356 E7.22186
G1 X79.516 Y63.863 E7.25737
G1 X80.307 Y62.492 E7.36737
G1 X79.825 Y62.213 F7800.000
G1 X80.351 Y61.302 E7.44047 F378.000
G1 X80.785 Y60.868 E7.48308
G1 X81.297 Y60.454 E7.52890
G1 X81.850 Y60.094 E7.57471
G1 X82.438 Y59.795 E7.62053
G1 X83.053 Y59.559 E7.66634
G1 X83.646 Y59.400 E7.70896
G1 X86.354 Y59.400 E7.89715
G1 X86.908 Y59.548 E7.93696
G1 X87.562 Y59.795 E7.98557 F378.000
G1 X88.150 Y60.094 E8.03139
G1 X88.703 Y60.454 E8.07720
G1 X89.215 Y60.868 E8.12302
G1 X89.649 Y61.302 E8.16563
G1 X91.003 Y63.648 E8.35383
G1 X91.162 Y64.240 E8.39644
G1 X91.265 Y64.892 E8.44226
G1 X91.300 Y65.550 E8.48807
G1 X91.265 Y66.208 E8.53389
G1 X91.162 Y66.860 E8.57970
G1 X91.003 Y67.452 E8.62232
G1 X89.649 Y69.798 E8.81051
G1 X89.215 Y70.232 E8.85313
G1 X88.703 Y70.646 E8.89894
G1 X88.150 Y71.006 E8.94476
G1 X87.562 Y71.305 E8.99057
G1 X86.947 Y71.541 E9.03639
G1 X86.354 Y71.700 E9.07900
G1 X83.646 Y71.700 E9.26720
G1 X83.053 Y71.541 E9.30981
G1 X82.438 Y71.305 E9.35563
G1 X81.850 Y71.006 E9.40145
G1 X81.297 Y70.646 E9.44726
G1 X80.785 Y70.232 E9.49308
G1 X80.351 Y69.798 E9.53569
G1 X78.997 Y67.452 E9.72389
G1 X78.838 Y66.860 E9.76650
G1 X78.735 Y66.208 E9.81232
G1 X78.700 Y65.550 E9.85813
G1 X78.735 Y64.892 E9.90395
G1 X78.838 Y64.240 E9.94976
G1 X78.997 Y63.648 E9.99238
G1 X79.795 Y62.265 E10.10331
G1 X87.079 Y59.910 F7800.000
G1 F1800.000 E9.10331
G1 Z0.500 F7800.000
G92 E0
G1 X79.743 Y66.310 F7800.000
G1 Z0.300 F7800.000
G1 E1.00000 F1800.000
G1 X79.838 Y66.757 E1.02389 F360.000
G1 X79.935 Y67.064 E1.04066
G1 X80.094 Y67.409 E1.06051
G1 X80.568 Y68.226 F7800.000
G1 X80.876 Y68.681 E1.08924 F360.000
G1 X81.217 Y69.133 E1.11883
G1 X81.609 Y69.483 E1.14629
G1 X82.108 Y69.852 E1.17869
G1 X82.116 Y69.838 F7800.000
G1 X82.520 Y70.071 E1.20305 F360.000
G1 X82.908 Y70.248 E1.22535
G1 X83.417 Y70.423 E1.25344
G1 X83.801 Y70.519 E1.27415
G1 X84.579 Y70.588 E1.31494
G1 X84.602 Y70.301 F7800.000
G1 X84.855 Y70.589 E1.33499 F360.000
G1 X84.986 Y70.593 E1.34185
G1 X85.145 Y70.589 E1.35019
G1 X85.398 Y70.301 E1.37024
G1 X85.421 Y70.588 F7800.000
G1 X86.199 Y70.519 E1.41103 F360.000
G1 X86.581 Y70.417 E1.43172
G1 X87.081 Y70.225 E1.45971
G1 X87.559 Y69.982 E1.48768
G1 X88.008 Y69.690 E1.51567
G1 X88.424 Y69.353 E1.54365
G1 X88.704 Y69.073 E1.56434
G1 X89.153 Y68.433 E1.60515
G1 X89.573 Y67.704 F7800.000
G1 X89.903 Y66.996 E1.64596 F360.000
G1 X90.005 Y66.614 E1.66666
G1 X90.089 Y66.085 E1.69463
G1 X90.117 Y65.550 E1.72260
G1 X90.089 Y65.015 E1.75059
G1 X90.005 Y64.486 E1.77859
G1 X89.903 Y64.104 E1.79926
G1 X89.636 Y63.472 E1.83507
G1 X89.626 Y63.476 F7800.000
G1 X89.450 Y63.109 E1.85636 F360.000
G1 X89.206 Y62.668 E1.88269
G1 X88.905 Y62.184 E1.91248
G1 X88.763 Y61.982 E1.92537
G1 X88.585 Y61.785 E1.93923
G1 X88.157 Y61.395 E1.96953
G1 X87.713 Y61.071 E1.99818
G1 X87.139 Y60.747 E2.03267
G1 X86.733 Y60.571 E2.05575
G1 X86.222 Y60.403 E2.08385
G1 X85.929 Y60.368 E2.09928
G1 F1800.000 E1.09928
G1 Z0.500 F7800.000
G92 E0
G1 X67.798 Y70.560 F7800.000
G1 Z0.300 F7800.000
G1 E1.00000 F1800.000
G1 X67.335 Y70.795 E1.03604 F540.000
G1 X66.774 Y71.011 E1.07780
G1 X66.281 Y71.143 E1.11329
G1 X63.719 Y71.143 E1.29129
G1 X63.226 Y71.011 E1.32678
G1 X62.665 Y70.795 E1.36854
G1 X62.129 Y70.522 E1.41030
G1 X61.625 Y70.195 E1.45206
G1 X61.158 Y69.817 E1.49382
G1 X60.797 Y69.456 E1.52931
G1 X59.516 Y67.237 E1.70731
G1 X59.384 Y66.744 E1.74280
G1 X59.290 Y66.150 E1.78456
G1 X59.258 Y65.550 E1.82632
G1 X59.290 Y64.950 E1.86808
G1 X59.384 Y64.356 E1.90983
G1 X59.516 Y63.863 E1.94532
G1 X60.070 Y62.903 E2.02232
G1 X60.797 Y61.644 E2.12333
G1 X61.158 Y61.283 E2.15882
G1 X61.625 Y60.905 E2.20058
G1 X62.129 Y60.578 E2.24233
G1 X62.665 Y60.305 E2.28409
G1 X63.226 Y60.089 E2.32585
G1 X63.719 Y59.957 E2.36134
G1 X66.281 Y59.957 E2.53934 F540.000
G1 X66.774 Y60.089 E2.57483
G1 X67.335 Y60.305 E2.61659
G1 X67.871 Y60.578 E2.65835
G1 X68.375 Y60.905 E2.70011
G1 X68.842 Y61.283 E2.74187
G1 X69.203 Y61.644 E2.77736
G1 X70.484 Y63.863 E2.95536
G1 X70.616 Y64.356 E2.99085
G1 X70.710 Y64.950 E3.03261
G1 X70.742 Y65.550 E3.07437
G1 X70.710 Y66.150 E3.11613
G1 X70.616 Y66.744 E3.15788
G1 X70.484 Y67.237 E3.19337
G1 X69.203 Y69.456 E3.37138
G1 X68.842 Y69.817 E3.40687
G1 X68.375 Y70.195 E3.44863
G1 X67.851 Y70.533 E3.49192
G1 X68.104 Y71.029 F7800.000
G1 X67.562 Y71.305 E3.53416 F378.000
G1 X66.947 Y71.541 E3.57998
G1 X66.354 Y71.700 E3.62259
G1 X63.646 Y71.700 E3.81079
G1 X63.053 Y71.541 E3.85340
G1 X62.438 Y71.305 E3.89922
G1 X61.850 Y71.006 E3.94503
G1 X61.297 Y70.646 E3.99085
G1 X60.785 Y70.232 E4.03666
G1 X60.351 Y69.798 E4.07928
G1 X58.997 Y67.452 E4.26747
G1 X58.838 Y66.860 E4.31009
G1 X58.735 Y66.208 E4.35590
G1 X58.697 Y65.481 E4.40651
G1 X58.735 Y64.892 E4.44756
G1 X58.838 Y64.240 E4.49338
G1 X58.997 Y63.648 E4.53599
G1 X60.351 Y61.302 E4.72419
G1 X60.785 Y60.868 E4.76680
G1 X61.297 Y60.454 E4.81262
G1 X61.850 Y60.094 E4.85843
G1 X62.438 Y59.795 E4.90425
G1 X63.053 Y59.559 E4.95006
G1 X63.646 Y59.400 E4.99268
G1 X66.354 Y59.400 E5.18087
G1 X66.898 Y59.546 E5.21997
G1 X67.562 Y59.795 E5.26928 F378.000
G1 X68.150 Y60.094 E5.31510
G1 X68.703 Y60.454 E5.36092
G1 X69.215 Y60.868 E5.40673
G1 X69.649 Y61.302 E5.44935
G1 X71.003 Y63.648 E5.63754
G1 X71.162 Y64.240 E5.68015
G1 X71.265 Y64.892 E5.72597
G1 X71.300 Y65.550 E5.77179
G1 X71.265 Y66.208 E5.81760
G1 X71.162 Y66.860 E5.86342
G1 X71.003 Y67.452 E5.90603
G1 X69.649 Y69.798 E6.09423
G1 X69.215 Y70.232 E6.13684
G1 X68.703 Y70.646 E6.18266
G1 X68.157 Y71.001 E6.22788
G1 X67.201 Y59.806 F7800.000
G1 X68.436 Y61.448 F7800.000
G1 X68.935 Y61.947 E6.27687 F1080.000
G1 X70.019 Y63.824 F7800.000
G1 X66.649 Y60.455 E6.60797 F1080.000
G1 X65.742 Y60.341 E6.67149
G1 X70.316 Y64.915 E7.12098
G1 X70.347 Y65.740 E7.17832
G1 X64.948 Y60.341 E7.70884
G1 X64.155 Y60.341 E7.76397
G1 X70.273 Y66.459 E8.36513
G1 X70.120 Y67.100 E8.41090
G1 X63.448 Y60.427 E9.06655
G1 X62.866 Y60.639 E9.10958
G1 X69.830 Y67.603 E9.79389
G1 X69.539 Y68.106 E9.83424
G1 X62.336 Y60.903 E10.54203
G1 X61.854 Y61.214 E10.58191
G1 X69.249 Y68.609 E11.30855
G1 X68.959 Y69.112 E11.34891
G1 X61.429 Y61.583 E12.08873
G1 X61.042 Y61.988 E12.12772
G1 X68.571 Y69.517 E12.86754
G1 X68.146 Y69.886 E12.90662
G1 X60.751 Y62.491 E13.63326
G1 X60.461 Y62.994 E13.67362
G1 X67.664 Y70.197 E14.38140
G1 X67.134 Y70.461 E14.42251
G1 X60.170 Y63.497 E15.10681
G1 X59.880 Y64.000 E15.14717
G1 X66.552 Y70.673 E15.80283
