; generated by Slic3r 1.1.7 on 2014-12-03 at 16:01:21

; perimeters extrusion width = 0.40mm
; infill extrusion width = 0.67mm
; solid infill extrusion width = 0.67mm
; top infill extrusion width = 0.67mm

G21 ; set units to millimeters
M107
M104 S215 ; set temperature
G28 ; home all axes
G29; calibrate bed leveling
G1 Z5 F5000 ; lift nozzle
G28 X ; Go to corner x
G28 Y ; Go to corner y

M109 S215 ; wait for temperature to be reached
G90 ; use absolute coordinates
G92 E0
M82 ; use absolute distances for extrusion
G1 F1800.000 E-1.00000
G1 Z0.500 F7800.000
G92 E0
G1 X56.107 Y64.566 F7800.000
G1 Z0.300 F7800.000
G1 E1.00000 F1800.000
G1 X56.592 Y64.173 E1.04339 F1080.000
G1 X57.246 Y63.694 E1.09972
G1 X57.770 Y63.354 E1.14314
G1 X58.470 Y62.946 E1.19946
G1 X58.981 Y62.685 E1.23933
G1 X59.766 Y62.329 E1.29920
G1 X61.119 Y61.851 E1.39891
G1 X61.765 Y61.678 E1.44536
G1 X63.606 Y61.436 E1.57440
G1 X86.394 Y61.436 E3.15772
G1 X88.235 Y61.678 E3.28676
G1 X88.818 Y61.834 E3.32868 F1080.000
G1 X89.589 Y62.081 E3.38493
G1 X90.173 Y62.305 E3.42839
G1 X90.914 Y62.632 E3.48470
G1 X92.175 Y63.318 E3.58439
G1 X93.356 Y64.132 E3.68409
G1 X93.752 Y64.452 E3.71947
G1 X94.447 Y65.065 E3.78381
G1 X94.919 Y65.537 E3.83026
G1 X96.050 Y67.011 E3.95928
G1 X97.444 Y69.426 E4.15305
G1 X98.155 Y71.141 E4.28206
G1 X98.482 Y72.515 E4.38018
G1 X98.580 Y73.132 E4.42363
G1 X98.668 Y73.938 E4.47994
G1 X98.701 Y74.562 E4.52337
G1 X98.704 Y75.372 E4.57964
G1 X98.672 Y75.997 E4.62309
G1 X98.590 Y76.803 E4.67939
G1 X98.493 Y77.421 E4.72290
G1 X98.328 Y78.213 E4.77912
G1 X98.155 Y78.859 E4.82557
G1 X97.445 Y80.574 E4.95452
G1 X96.049 Y82.991 E5.14844
G1 X94.919 Y84.463 E5.27736
G1 X93.893 Y85.434 E5.37551
G1 X92.754 Y86.306 E5.47521
G1 X91.530 Y87.054 E5.57490
G1 X90.973 Y87.338 E5.61832
G1 X90.234 Y87.671 E5.67465
G1 X89.650 Y87.895 E5.71809
G1 X88.881 Y88.149 E5.77438
G1 X88.235 Y88.322 E5.82087
G1 X86.394 Y88.564 E5.94988
G1 X63.606 Y88.564 E7.53320
G1 X61.765 Y88.322 E7.66224
G1 X60.411 Y87.919 E7.76040
G1 X59.828 Y87.695 E7.80379
G1 X59.086 Y87.368 E7.86014
G1 X57.825 Y86.682 E7.95984
G1 X57.302 Y86.342 E8.00324
G1 X56.644 Y85.868 E8.05957
G1 X55.553 Y84.935 E8.15928
G1 X55.081 Y84.462 E8.20573
G1 X53.950 Y82.989 E8.33477
G1 X52.555 Y80.574 E8.52858
G1 X51.846 Y78.859 E8.65749
G1 X51.690 Y78.277 E8.69937
G1 X51.518 Y77.485 E8.75568
G1 X51.332 Y76.062 E8.85539
G1 X51.299 Y75.438 E8.89879
G1 X51.296 Y74.628 E8.95512
G1 X51.328 Y74.004 E8.99852
G1 X51.410 Y73.197 E9.05485
G1 X51.507 Y72.580 E9.09827
G1 X51.672 Y71.787 E9.15459
G1 X51.846 Y71.140 E9.20109
G1 X52.556 Y69.425 E9.33008
G1 X53.950 Y67.011 E9.52377
G1 X55.081 Y65.538 E9.65281
G1 X56.063 Y64.608 E9.74680
G1 X56.445 Y65.011 F7800.000
G1 X56.943 Y64.606 E9.79133 F1080.000
G1 X57.549 Y64.161 E9.84361
G1 X58.073 Y63.821 E9.88703
G1 X58.723 Y63.442 E9.93930
G1 X59.234 Y63.181 E9.97917
G1 X59.966 Y62.849 E10.03499
G1 X61.263 Y62.389 E10.13064
G1 X61.909 Y62.216 E10.17709
G1 X63.606 Y61.993 E10.29603
G1 X86.394 Y61.993 E11.87935
G1 X88.091 Y62.216 E11.99828
G1 X88.674 Y62.372 E12.04020 F1080.000
G1 X89.389 Y62.601 E12.09240
G1 X89.973 Y62.825 E12.13586
G1 X90.662 Y63.128 E12.18812
G1 X91.871 Y63.785 E12.28376
G1 X93.006 Y64.565 E12.37941
G1 X93.402 Y64.885 E12.41479
G1 X94.053 Y65.459 E12.47508
G1 X94.525 Y65.931 E12.52153
G1 X95.567 Y67.289 E12.64045
G1 X96.962 Y69.704 E12.83421
G1 X97.617 Y71.285 E12.95312
G1 X97.932 Y72.602 E13.04719
G1 X98.030 Y73.219 E13.09064
G1 X98.112 Y73.967 E13.14290
G1 X98.145 Y74.591 E13.18632
G1 X98.148 Y75.343 E13.23855
G1 X98.115 Y75.967 E13.28200
G1 X98.040 Y76.716 E13.33425
G1 X97.942 Y77.334 E13.37775
G1 X97.790 Y78.069 E13.42992
G1 X97.616 Y78.715 E13.47637
G1 X96.962 Y80.295 E13.59523
G1 X95.567 Y82.712 E13.78913
G1 X94.525 Y84.069 E13.90795
G1 X93.543 Y85.001 E14.00206
G1 X92.451 Y85.839 E14.09770
G1 X91.277 Y86.558 E14.19335
G1 X90.720 Y86.842 E14.23677
G1 X90.034 Y87.151 E14.28904
G1 X89.451 Y87.375 E14.33248
G1 X88.737 Y87.611 E14.38472
G1 X88.090 Y87.784 E14.43121
G1 X86.394 Y88.007 E14.55011
G1 X63.606 Y88.007 E16.13344
G1 X61.909 Y87.784 E16.25237
G1 X60.611 Y87.399 E16.34648
G1 X60.028 Y87.175 E16.38987
G1 X59.339 Y86.872 E16.44217
G1 X58.129 Y86.215 E16.53782
G1 X57.605 Y85.875 E16.58122
G1 X56.994 Y85.435 E16.63350
G1 X55.947 Y84.541 E16.72916
G1 X55.474 Y84.069 E16.77561
G1 X54.432 Y82.711 E16.89455
G1 X53.038 Y80.295 E17.08834
G1 X52.384 Y78.715 E17.20716
G1 X52.228 Y78.133 E17.24904
G1 X52.068 Y77.398 E17.30130
G1 X51.888 Y76.033 E17.39695
G1 X51.855 Y75.409 E17.44035
G1 X51.852 Y74.657 E17.49264
G1 X51.885 Y74.033 E17.53604
G1 X51.960 Y73.284 E17.58831
G1 X52.058 Y72.667 E17.63173
G1 X52.211 Y71.931 E17.68401
G1 X52.384 Y71.284 E17.73050
G1 X53.039 Y69.704 E17.84939
G1 X54.432 Y67.289 E18.04308
G1 X55.474 Y65.931 E18.16201
G1 X56.402 Y65.052 E18.25080
G1 F1800.000 E17.25080
G1 Z0.500 F7800.000
G92 E0
G1 X80.347 Y73.016 F7800.000
G1 Z0.300 F7800.000
G1 E1.00000 F1800.000
G1 X80.596 Y72.457 E1.04244 F540.000
G1 X80.885 Y72.011 E1.07942
G1 X81.221 Y71.597 E1.11643
G1 X81.559 Y71.259 E1.14965
G1 X82.011 Y70.886 E1.19040
G1 X82.533 Y70.568 E1.23284
G1 X83.025 Y70.367 E1.26977
G1 X83.531 Y70.220 E1.30638
G1 X84.046 Y70.128 E1.34274
G1 X84.636 Y70.095 E1.38382
G1 X85.079 Y70.109 E1.41463 F540.000
G1 X85.587 Y70.180 E1.45021
G1 X86.080 Y70.303 E1.48552
G1 X86.554 Y70.475 E1.52058
G1 X87.003 Y70.696 E1.55538
G1 X87.424 Y70.960 E1.58990
G1 X87.812 Y71.265 E1.62418
G1 X88.163 Y71.606 E1.65818
G1 X88.474 Y71.979 E1.69193
G1 X88.741 Y72.380 E1.72543
G1 X88.963 Y72.803 E1.75863
G1 X89.273 Y73.612 E1.81876
G1 X89.395 Y74.066 E1.85145
G1 X89.468 Y74.531 E1.88416
G1 X89.493 Y74.999 E1.91675
G1 X89.468 Y75.470 E1.94949
G1 X89.418 Y75.790 E1.97201
G1 X89.273 Y76.389 E2.01480
G1 X89.104 Y76.828 E2.04747
G1 X88.891 Y77.246 E2.08014
G1 X88.635 Y77.641 E2.11281
G1 X88.339 Y78.006 E2.14549
G1 X88.212 Y78.134 E2.15800
G1 X88.006 Y78.339 E2.17816
G1 X87.641 Y78.635 E2.21085
G1 X87.247 Y78.891 E2.24351
G1 X86.958 Y79.038 E2.26602
G1 X86.388 Y79.273 E2.30883
G1 X85.934 Y79.395 E2.34150
G1 X85.470 Y79.468 E2.37417
G1 X85.000 Y79.493 E2.40685
G1 X84.530 Y79.468 E2.43952
G1 X84.066 Y79.395 E2.47220
G1 X83.236 Y79.158 E2.53218
G1 X82.793 Y78.982 E2.56531
G1 X82.367 Y78.759 E2.59868
G1 X81.965 Y78.490 E2.63234
G1 X81.590 Y78.177 E2.66625
G1 X81.247 Y77.825 E2.70039
G1 X80.941 Y77.435 E2.73482
G1 X80.676 Y77.012 E2.76953
G1 X80.455 Y76.560 E2.80447
G1 X80.281 Y76.084 E2.83966
G1 X80.158 Y75.589 E2.87514
G1 X80.087 Y75.078 E2.91095
G1 X80.070 Y74.562 E2.94686
G1 X80.107 Y74.041 E2.98314
G1 X80.200 Y73.524 E3.01964
G1 X80.332 Y73.074 E3.05226
G1 X80.870 Y73.217 F7800.000
G1 X81.079 Y72.736 E3.08869 F378.000
G1 X81.337 Y72.339 E3.12162
G1 X81.635 Y71.970 E3.15456
G1 X81.952 Y71.653 E3.18573
G1 X82.339 Y71.337 E3.22042
G1 X82.766 Y71.075 E3.25524
G1 X83.203 Y70.896 E3.28808
G1 X83.653 Y70.765 E3.32063
G1 X84.111 Y70.683 E3.35294
G1 X84.531 Y70.652 E3.38219
G1 X85.028 Y70.664 E3.41673 F378.000
G1 X85.477 Y70.727 E3.44825
G1 X85.914 Y70.836 E3.47950
G1 X86.333 Y70.988 E3.51050
G1 X86.730 Y71.182 E3.54124
G1 X87.102 Y71.415 E3.57170
G1 X87.444 Y71.684 E3.60192
G1 X87.753 Y71.984 E3.63186
G1 X88.026 Y72.313 E3.66155
G1 X88.261 Y72.665 E3.69098
G1 X88.456 Y73.037 E3.72014
G1 X88.609 Y73.424 E3.74905
G1 X88.742 Y73.784 E3.77574
G1 X88.849 Y74.182 E3.80437
G1 X88.914 Y74.589 E3.83300
G1 X88.935 Y75.000 E3.86159
G1 X88.913 Y75.411 E3.89023
G1 X88.867 Y75.703 E3.91071
G1 X88.742 Y76.216 E3.94743
G1 X88.595 Y76.601 E3.97605
G1 X88.408 Y76.968 E4.00466
G1 X88.184 Y77.313 E4.03328
G1 X87.818 Y77.740 E4.07234
G1 X87.633 Y77.924 E4.09048
G1 X87.313 Y78.184 E4.11910
G1 X86.968 Y78.408 E4.14771
G1 X86.705 Y78.542 E4.16819
G1 X86.216 Y78.742 E4.20492
G1 X85.818 Y78.849 E4.23354
G1 X85.411 Y78.914 E4.26215
G1 X85.000 Y78.935 E4.29078
G1 X84.589 Y78.914 E4.31939
G1 X84.182 Y78.849 E4.34801
G1 X83.415 Y78.629 E4.40347
G1 X83.026 Y78.475 E4.43253
G1 X82.652 Y78.279 E4.46185
G1 X82.298 Y78.042 E4.49143
G1 X81.968 Y77.767 E4.52128
G1 X81.667 Y77.456 E4.55138
G1 X81.397 Y77.113 E4.58175
G1 X81.163 Y76.739 E4.61238
G1 X80.968 Y76.339 E4.64327
G1 X80.814 Y75.918 E4.67441
G1 X80.705 Y75.479 E4.70583
G1 X80.643 Y75.027 E4.73753
G1 X80.628 Y74.569 E4.76943
G1 X80.662 Y74.106 E4.80164
G1 X80.745 Y73.647 E4.83409
G1 X80.854 Y73.275 E4.86100
G1 F1800.000 E3.86100
G1 Z0.500 F7800.000
G92 E0
G1 X84.655 Y70.272 F7800.000
G1 X85.283 Y69.407 F7800.000
G1 Z0.300 F7800.000
G1 E1.00000 F1800.000
G1 X86.281 Y69.407 E1.06934 F540.000
G1 X86.774 Y69.539 E1.10483
G1 X87.335 Y69.755 E1.14659
G1 X87.871 Y70.028 E1.18835
G1 X88.375 Y70.355 E1.23011
G1 X88.842 Y70.733 E1.27187
G1 X89.203 Y71.094 E1.30736
G1 X90.484 Y73.313 E1.48536
G1 X90.616 Y73.806 E1.52085
G1 X90.710 Y74.400 E1.56260
G1 X90.742 Y75.000 E1.60436
G1 X90.710 Y75.600 E1.64612
G1 X90.616 Y76.194 E1.68788
G1 X90.484 Y76.687 E1.72338
G1 X89.203 Y78.906 E1.90139
G1 X88.842 Y79.267 E1.93686
G1 X88.375 Y79.645 E1.97863
G1 X87.871 Y79.972 E2.02038
G1 X87.335 Y80.245 E2.06214
G1 X86.774 Y80.461 E2.10390
G1 X86.281 Y80.593 E2.13939
G1 X83.719 Y80.593 E2.31739
G1 X83.226 Y80.461 E2.35288
G1 X82.665 Y80.245 E2.39464
G1 X82.129 Y79.972 E2.43640
G1 X81.625 Y79.645 E2.47816
G1 X81.158 Y79.267 E2.51992
G1 X80.797 Y78.906 E2.55541
G1 X79.516 Y76.687 E2.73341
G1 X79.384 Y76.194 E2.76890
G1 X79.290 Y75.600 E2.81066
G1 X79.258 Y75.000 E2.85241
G1 X79.290 Y74.400 E2.89417
G1 X79.384 Y73.806 E2.93593
G1 X79.516 Y73.313 E2.97143
G1 X80.797 Y71.094 E3.14944
G1 X81.158 Y70.733 E3.18491
G1 X81.625 Y70.355 E3.22668
G1 X82.129 Y70.027 E3.26844
G1 X82.665 Y69.755 E3.31019
G1 X83.226 Y69.539 E3.35195
G1 X83.719 Y69.407 E3.38744
G1 X85.223 Y69.407 E3.49193 F540.000
G1 X85.223 Y68.850 F7800.000
G1 X86.354 Y68.850 E3.57054 F378.000
G1 X86.898 Y68.996 E3.60964
G1 X87.562 Y69.245 E3.65895 F378.000
G1 X88.150 Y69.544 E3.70477
G1 X88.739 Y69.927 E3.75359
G1 X89.215 Y70.319 E3.79642
G1 X89.649 Y70.752 E3.83903
G1 X91.003 Y73.098 E4.02723
G1 X91.162 Y73.690 E4.06984
G1 X91.265 Y74.341 E4.11565
G1 X91.300 Y75.000 E4.16147
G1 X91.265 Y75.658 E4.20729
G1 X91.162 Y76.310 E4.25310
G1 X91.003 Y76.902 E4.29573
G1 X89.649 Y79.248 E4.48393
G1 X89.215 Y79.682 E4.52653
G1 X88.703 Y80.096 E4.57234
G1 X88.150 Y80.456 E4.61816
G1 X87.562 Y80.755 E4.66397
G1 X86.947 Y80.991 E4.70979
G1 X86.354 Y81.150 E4.75240
G1 X83.646 Y81.150 E4.94060
G1 X83.053 Y80.991 E4.98321
G1 X82.438 Y80.755 E5.02903
G1 X81.850 Y80.456 E5.07484
G1 X81.297 Y80.096 E5.12066
G1 X80.785 Y79.681 E5.16648
G1 X80.351 Y79.248 E5.20909
G1 X78.997 Y76.902 E5.39729
G1 X78.838 Y76.310 E5.43990
G1 X78.735 Y75.659 E5.48571
G1 X78.700 Y75.000 E5.53153
G1 X78.735 Y74.342 E5.57735
G1 X78.838 Y73.690 E5.62316
G1 X78.997 Y73.098 E5.66579
G1 X80.351 Y70.752 E5.85397
G1 X80.785 Y70.318 E5.89659
G1 X81.297 Y69.904 E5.94240
G1 X81.850 Y69.544 E5.98822
G1 X82.438 Y69.245 E6.03403
G1 X83.053 Y69.009 E6.07985
G1 X83.646 Y68.850 E6.12246
G1 X85.163 Y68.850 E6.22788
G1 X87.004 Y69.381 F7800.000
G1 F1800.000 E5.22788
G1 Z0.500 F7800.000
G92 E0
G1 X79.700 Y75.347 F7800.000
G1 Z0.300 F7800.000
G1 E1.00000 F1800.000
G1 X79.735 Y75.664 E1.01665 F360.000
G1 X79.823 Y76.100 E1.03994
G1 X79.946 Y76.509 E1.06223
G1 X80.282 Y77.169 E1.10091
G1 X80.436 Y77.428 F7800.000
G1 X80.887 Y78.125 E1.14431 F360.000
G1 X81.227 Y78.576 E1.17380
G1 X81.618 Y78.924 E1.20118
G1 X81.907 Y79.135 E1.21984
G1 X81.897 Y79.151 F7800.000
G1 X82.564 Y79.529 E1.25986 F360.000
G1 X83.020 Y79.729 E1.28589
G1 X83.419 Y79.867 E1.30793
G1 X83.801 Y79.969 E1.32862
G1 X84.579 Y80.038 E1.36941
G1 X84.602 Y79.751 F7800.000
G1 X84.855 Y80.039 E1.38946 F360.000
G1 X84.986 Y80.043 E1.39632
G1 X85.145 Y80.039 E1.40465
G1 X85.398 Y79.751 E1.42470
G1 X85.421 Y80.038 F7800.000
G1 X86.199 Y79.969 E1.46550 F360.000
G1 X86.581 Y79.867 E1.48619
G1 X87.081 Y79.675 E1.51417
G1 X87.559 Y79.432 E1.54215
G1 X88.008 Y79.140 E1.57014
G1 X88.424 Y78.803 E1.59812
G1 X88.704 Y78.523 E1.61880
G1 X89.153 Y77.883 E1.65962
G1 X89.573 Y77.154 F7800.000
G1 X89.903 Y76.447 E1.70041 F360.000
G1 X90.005 Y76.064 E1.72111
G1 X90.089 Y75.535 E1.74909
G1 X90.117 Y75.000 E1.77707
G1 X90.089 Y74.465 E1.80506
G1 X90.005 Y73.936 E1.83303
G1 X89.903 Y73.554 E1.85372
G1 X89.588 Y72.840 E1.89448
G1 X89.574 Y72.846 F7800.000
G1 X89.198 Y72.128 E1.93682 F360.000
G1 X88.753 Y71.440 E1.97963
G1 X88.474 Y71.142 E2.00095
G1 X88.150 Y70.855 E2.02354
G1 X87.708 Y70.533 E2.05213
G1 X87.133 Y70.208 E2.08661
G1 X86.730 Y70.033 E2.10957
G1 X86.221 Y69.866 E2.13760
G1 X85.823 Y69.818 E2.15854
G1 F1800.000 E1.15854
G1 Z0.500 F7800.000
G92 E0
G1 X60.112 Y72.280 F7800.000
G1 Z0.300 F7800.000
G1 E1.00000 F1800.000
G1 X60.797 Y71.094 E1.09512 F540.000
G1 X61.158 Y70.733 E1.13061
G1 X61.625 Y70.355 E1.17237
G1 X62.129 Y70.028 E1.21413
G1 X62.665 Y69.755 E1.25589
G1 X63.226 Y69.539 E1.29765
G1 X63.719 Y69.407 E1.33314
G1 X66.281 Y69.407 E1.51114 F540.000
G1 X66.774 Y69.539 E1.54663
G1 X67.335 Y69.755 E1.58839
G1 X67.871 Y70.028 E1.63015
G1 X68.375 Y70.355 E1.67191
G1 X68.842 Y70.733 E1.71367
G1 X69.203 Y71.094 E1.74915
G1 X70.484 Y73.313 E1.92716
G1 X70.616 Y73.806 E1.96265
G1 X70.710 Y74.400 E2.00441
G1 X70.742 Y75.000 E2.04617
G1 X70.710 Y75.600 E2.08792
G1 X70.616 Y76.194 E2.12968
G1 X70.484 Y76.687 E2.16517
G1 X69.203 Y78.906 E2.34317
G1 X68.842 Y79.267 E2.37866
G1 X68.375 Y79.645 E2.42042
G1 X67.871 Y79.972 E2.46218
G1 X67.335 Y80.245 E2.50394
G1 X66.774 Y80.461 E2.54570
G1 X66.281 Y80.593 E2.58119
G1 X63.719 Y80.593 E2.75919
G1 X63.226 Y80.461 E2.79468
G1 X62.665 Y80.245 E2.83644
G1 X62.129 Y79.972 E2.87820
G1 X61.625 Y79.645 E2.91996
G1 X61.158 Y79.267 E2.96171
G1 X60.797 Y78.906 E2.99721
G1 X59.516 Y76.687 E3.17521
G1 X59.384 Y76.194 E3.21070
G1 X59.290 Y75.600 E3.25246
G1 X59.258 Y75.000 E3.29421
G1 X59.290 Y74.400 E3.33597
G1 X59.384 Y73.806 E3.37773
G1 X59.516 Y73.313 E3.41322
G1 X60.082 Y72.332 E3.49193
G1 X59.600 Y72.053 F7800.000
G1 X60.351 Y70.752 E3.59632 F378.000
G1 X60.785 Y70.318 E3.63893
G1 X61.346 Y69.872 E3.68881
G1 X61.850 Y69.544 E3.73055
G1 X62.438 Y69.245 E3.77636
G1 X63.053 Y69.009 E3.82218
G1 X63.646 Y68.850 E3.86479
G1 X66.354 Y68.850 E4.05299
G1 X66.898 Y68.996 E4.09208
G1 X67.562 Y69.245 E4.14140 F378.000
G1 X68.150 Y69.544 E4.18721
G1 X68.703 Y69.904 E4.23303
G1 X69.215 Y70.318 E4.27885
G1 X69.649 Y70.752 E4.32146
G1 X71.003 Y73.098 E4.50965
G1 X71.162 Y73.690 E4.55227
G1 X71.265 Y74.342 E4.59808
G1 X71.300 Y75.000 E4.64390
G1 X71.265 Y75.658 E4.68972
G1 X71.162 Y76.310 E4.73553
G1 X71.003 Y76.902 E4.77814
G1 X69.812 Y78.966 E4.94373
G1 X69.649 Y79.248 E4.96634
G1 X69.215 Y79.682 E5.00895
G1 X68.703 Y80.096 E5.05477
G1 X68.150 Y80.456 E5.10058
G1 X67.562 Y80.755 E5.14640
G1 X66.947 Y80.991 E5.19222
G1 X66.354 Y81.150 E5.23483
G1 X63.646 Y81.150 E5.42302
G1 X63.053 Y80.991 E5.46564
G1 X62.438 Y80.755 E5.51145
G1 X61.850 Y80.456 E5.55727
G1 X61.297 Y80.096 E5.60309
G1 X60.785 Y79.682 E5.64890
G1 X60.351 Y79.248 E5.69152
G1 X58.997 Y76.902 E5.87971
G1 X58.838 Y76.310 E5.92232
G1 X58.735 Y75.658 E5.96814
G1 X58.697 Y74.931 E6.01875
G1 X58.735 Y74.342 E6.05980
G1 X58.838 Y73.690 E6.10562
G1 X58.997 Y73.098 E6.14823
G1 X59.570 Y72.105 E6.22787
G1 X67.070 Y69.357 F7800.000
G1 X68.436 Y70.898 F7800.000
G1 X68.935 Y71.397 E6.27685 F1080.000
G1 X70.019 Y73.274 F7800.000
G1 X66.649 Y69.905 E6.60796 F1080.000
G1 X65.742 Y69.791 E6.67148
G1 X70.316 Y74.365 E7.12096
G1 X70.347 Y75.190 E7.17831
G1 X64.948 Y69.791 E7.70883
G1 X64.155 Y69.791 E7.76396
G1 X70.273 Y75.909 E8.36511
G1 X70.120 Y76.550 E8.41089
G1 X63.448 Y69.877 E9.06654
G1 X62.866 Y70.089 E9.10957
G1 X69.830 Y77.053 E9.79387
G1 X69.539 Y77.556 E9.83423
G1 X62.336 Y70.353 E10.54202
G1 X61.854 Y70.664 E10.58190
G1 X69.249 Y78.059 E11.30854
G1 X68.959 Y78.562 E11.34889
G1 X61.429 Y71.033 E12.08872
G1 X61.042 Y71.438 E12.12771
G1 X68.571 Y78.967 E12.86753
G1 X68.146 Y79.336 E12.90661
G1 X60.751 Y71.941 E13.63325
G1 X60.461 Y72.444 E13.67361
G1 X67.664 Y79.647 E14.38139
G1 X67.134 Y79.911 E14.42250
G1 X60.170 Y72.947 E15.10680
G1 X59.880 Y73.450 E15.14716
