; generated by Slic3r 1.1.7 on 2014-11-30 at 03:05:53

; perimeters extrusion width = 0.40mm
; infill extrusion width = 0.42mm
; solid infill extrusion width = 0.42mm
; top infill extrusion width = 0.42mm

G21 ; set units to millimeters
M107
M104 S215 ; set temperature
G28 ; home all axes
G1 Z5 F5000 ; lift nozzle

M109 S215 ; wait for temperature to be reached
G90 ; use absolute coordinates
G92 E0
M82 ; use absolute distances for extrusion
G1 F1800.000 E-1.00000
G92 E0
G1 Z0.400 F7800.000
G1 X51.424 Y51.089 F7800.000
G1 E1.00000 F1800.000
G1 X52.207 Y50.415 E1.12268 F1080.000
G1 X53.048 Y49.827 E1.24454
G1 X53.941 Y49.330 E1.36592
G1 X54.880 Y48.926 E1.48729
G1 X55.836 Y48.622 E1.60649
G1 X56.793 Y48.419 E1.72258
G1 X57.754 Y48.310 E1.83754
G1 X58.414 Y48.286 E1.91596
G1 X91.865 Y48.292 E5.88879
G1 X92.753 Y48.356 E5.99454 F1080.000
G1 X93.716 Y48.515 E6.11036
G1 X94.648 Y48.763 E6.22490
G1 X95.573 Y49.107 E6.34217
G1 X96.477 Y49.548 E6.46165
G1 X97.344 Y50.086 E6.58284
G1 X98.160 Y50.714 E6.70512
G1 X98.911 Y51.424 E6.82791
G1 X99.585 Y52.207 E6.95057
G1 X100.173 Y53.048 E7.07242
G1 X100.670 Y53.941 E7.19381
G1 X101.074 Y54.880 E7.31520
G1 X101.378 Y55.836 E7.43438
G1 X101.581 Y56.793 E7.55048
G1 X101.690 Y57.754 E7.66543
G1 X101.714 Y58.414 E7.74386
G1 X101.708 Y91.865 E11.71668
G1 X101.644 Y92.753 E11.82242
G1 X101.485 Y93.716 E11.93826
G1 X101.237 Y94.648 E12.05280
G1 X100.893 Y95.573 E12.17005
G1 X100.452 Y96.477 E12.28954
G1 X100.305 Y96.732 E12.32445
G1 X99.914 Y97.344 E12.41075
G1 X99.286 Y98.160 E12.53305
G1 X98.576 Y98.911 E12.65584
G1 X98.356 Y99.114 E12.69135
G1 X97.793 Y99.585 E12.77852
G1 X96.952 Y100.173 E12.90037
G1 X96.059 Y100.670 E13.02175
G1 X95.120 Y101.074 E13.14315
G1 X94.164 Y101.378 E13.26233
G1 X93.886 Y101.446 E13.29623
G1 X93.207 Y101.581 E13.37845
G1 X92.246 Y101.690 E13.49340
G1 X91.586 Y101.714 E13.57183
G1 X58.135 Y101.708 E17.54466
G1 X57.247 Y101.644 E17.65040
G1 X56.284 Y101.485 E17.76624
G1 X55.352 Y101.237 E17.88079
G1 X54.427 Y100.893 E17.99801
G1 X53.523 Y100.452 E18.11752
G1 X52.656 Y99.914 E18.23870
G1 X51.839 Y99.286 E18.36101
G1 X51.089 Y98.576 E18.48377
G1 X50.415 Y97.793 E18.60644
G1 X49.827 Y96.952 E18.72829
G1 X49.330 Y96.059 E18.84966
G1 X48.926 Y95.120 E18.97107
G1 X48.622 Y94.164 E19.09025
G1 X48.419 Y93.207 E19.20634
G1 X48.310 Y92.246 E19.32130
G1 X48.286 Y91.586 E19.39972
G1 X48.292 Y58.135 E23.37255
G1 X48.356 Y57.247 E23.47830
G1 X48.515 Y56.284 E23.59412
G1 X48.763 Y55.352 E23.70869
G1 X49.107 Y54.427 E23.82592
G1 X49.548 Y53.523 E23.94541
G1 X50.086 Y52.656 E24.06660
G1 X50.714 Y51.839 E24.18890
G1 X51.383 Y51.132 E24.30453
G1 F1800.000 E23.30453
G92 E0
G1 X53.313 Y53.137 F7800.000
G1 E1.00000 F1800.000
G1 X53.797 Y52.705 E1.07709 F1080.000
G1 X54.399 Y52.266 E1.16561
G1 X55.039 Y51.893 E1.25360
G1 X55.532 Y51.661 E1.31827
G1 X56.407 Y51.351 E1.42853
G1 X57.101 Y51.190 E1.51318
G1 X57.796 Y51.098 E1.59638
G1 X58.366 Y51.072 E1.66420
G1 X91.708 Y51.074 E5.62409
G1 X92.299 Y51.106 E5.69430 F1080.000
G1 X92.995 Y51.208 E5.77781
G1 X93.673 Y51.374 E5.86075
G1 X94.346 Y51.610 E5.94542
G1 X95.005 Y51.916 E6.03177
G1 X95.640 Y52.292 E6.11944
G1 X96.240 Y52.735 E6.20799
G1 X96.795 Y53.239 E6.29699
G1 X97.167 Y53.643 E6.36222
G1 X97.623 Y54.234 E6.45091
G1 X98.013 Y54.864 E6.53892
G1 X98.339 Y55.532 E6.62718
G1 X98.593 Y56.221 E6.71444
G1 X98.774 Y56.916 E6.79969
G1 X98.884 Y57.608 E6.88289
G1 X98.928 Y58.366 E6.97311
G1 X98.928 Y91.627 E10.92328
G1 X98.909 Y92.122 E10.98217
G1 X98.826 Y92.809 E11.06437
G1 X98.677 Y93.492 E11.14736
G1 X98.460 Y94.167 E11.23151
G1 X98.084 Y95.005 E11.34066
G1 X97.708 Y95.640 E11.42832
G1 X97.265 Y96.240 E11.51688
G1 X96.761 Y96.795 E11.60588
G1 X96.357 Y97.167 E11.67112
G1 X95.601 Y97.734 E11.78337
G1 X94.961 Y98.107 E11.87136
G1 X94.468 Y98.339 E11.93604
G1 X93.593 Y98.649 E12.04631
G1 X92.899 Y98.810 E12.13096
G1 X92.204 Y98.902 E12.21415
G1 X91.634 Y98.928 E12.28197
G1 X58.373 Y98.928 E16.23214
G1 X57.878 Y98.909 E16.29102
G1 X57.191 Y98.826 E16.37324
G1 X56.508 Y98.677 E16.45623
G1 X54.803 Y98.114 E16.66945
G1 X54.680 Y97.943 E16.69447
G1 X54.582 Y97.851 E16.71045
G1 X53.916 Y97.390 E16.80667
G1 X53.349 Y96.901 E16.89560
G1 X52.833 Y96.357 E16.98463
G1 X52.266 Y95.601 E17.09689
G1 X51.893 Y94.961 E17.18488
G1 X51.586 Y94.285 E17.27305
G1 X51.407 Y93.779 E17.33683
G1 X51.226 Y93.084 E17.42208
G1 X51.116 Y92.392 E17.50528
G1 X51.074 Y91.729 E17.58413
G1 X51.072 Y58.373 E21.54568
G1 X51.106 Y57.701 E21.62561
G1 X51.208 Y57.005 E21.70911
G1 X51.374 Y56.327 E21.79207
G1 X51.886 Y54.803 E21.98299
G1 X52.057 Y54.680 E22.00802
G1 X52.149 Y54.582 E22.02399
G1 X52.610 Y53.916 E22.12021
G1 X53.099 Y53.349 E22.20913
G1 X53.269 Y53.178 E22.23774
G1 X53.797 Y53.662 F7800.000
G1 X54.239 Y53.266 E22.30834 F1080.000
G1 X54.783 Y52.869 E22.38826
G1 X55.360 Y52.531 E22.46768
G1 X55.820 Y52.314 E22.52807
G1 X56.595 Y52.040 E22.62565
G1 X57.222 Y51.894 E22.70210
G1 X57.848 Y51.810 E22.77715
G1 X58.375 Y51.786 E22.83982
G1 X91.619 Y51.786 E26.78808
G1 X92.221 Y51.817 E26.85961 F1080.000
G1 X92.850 Y51.907 E26.93511
G1 X93.462 Y52.057 E27.00993
G1 X94.069 Y52.269 E27.08635
G1 X94.665 Y52.544 E27.16428
G1 X95.239 Y52.883 E27.24341
G1 X95.781 Y53.282 E27.32335
G1 X96.282 Y53.736 E27.40369
G1 X96.630 Y54.113 E27.46459
G1 X97.040 Y54.648 E27.54465
G1 X97.392 Y55.217 E27.62408
G1 X97.686 Y55.820 E27.70377
G1 X97.914 Y56.443 E27.78253
G1 X98.076 Y57.070 E27.85947
G1 X98.175 Y57.694 E27.93452
G1 X98.214 Y58.375 E28.01552
G1 X98.214 Y91.619 E31.96377
G1 X98.196 Y92.076 E32.01810
G1 X98.120 Y92.698 E32.09253
G1 X97.985 Y93.314 E32.16739
G1 X97.788 Y93.923 E32.24337
G1 X97.456 Y94.665 E32.33997
G1 X97.117 Y95.239 E32.41909
G1 X96.718 Y95.781 E32.49904
G1 X96.264 Y96.282 E32.57938
G1 X95.886 Y96.630 E32.64028
G1 X95.217 Y97.131 E32.73962
G1 X94.640 Y97.469 E32.81903
G1 X94.180 Y97.686 E32.87944
G1 X93.405 Y97.960 E32.97702
G1 X92.778 Y98.106 E33.05346
G1 X92.152 Y98.190 E33.12851
G1 X91.625 Y98.214 E33.19119
G1 X58.381 Y98.214 E37.13944
G1 X57.924 Y98.196 E37.19376
G1 X57.302 Y98.120 E37.26820
G1 X56.686 Y97.985 E37.34306
G1 X55.248 Y97.511 E37.52285
G1 X55.165 Y97.395 E37.53969
G1 X55.052 Y97.293 E37.55783
G1 X54.761 Y97.117 E37.59822
G1 X54.219 Y96.718 E37.67816
G1 X53.718 Y96.264 E37.75850
G1 X53.370 Y95.887 E37.81940
G1 X52.869 Y95.217 E37.91875
G1 X52.531 Y94.640 E37.99816
G1 X52.253 Y94.030 E38.07777
G1 X52.086 Y93.557 E38.13733
G1 X51.924 Y92.930 E38.21426
G1 X51.825 Y92.306 E38.28931
G1 X51.788 Y91.703 E38.36102
G1 X51.786 Y58.381 E42.31858
G1 X51.817 Y57.779 E42.39011
G1 X51.907 Y57.150 E42.46560
G1 X52.057 Y56.538 E42.54044
G1 X52.489 Y55.248 E42.70200
G1 X52.605 Y55.165 E42.71884
G1 X52.707 Y55.052 E42.73697
G1 X52.883 Y54.761 E42.77736
G1 X53.180 Y54.347 E42.83788
G1 X53.753 Y53.703 E42.94023
G1 X54.281 Y54.187 F7800.000
G1 X54.682 Y53.826 E43.00435 F1080.000
G1 X55.167 Y53.472 E43.07567
G1 X55.681 Y53.170 E43.14651
G1 X56.108 Y52.968 E43.20262
G1 X56.664 Y52.765 E43.27288
G1 X57.224 Y52.621 E43.34151
G1 X57.780 Y52.534 E43.40841
G1 X58.323 Y52.502 E43.47296
G1 X91.664 Y52.502 E47.43272
G1 X92.143 Y52.527 E47.48969 F1080.000
G1 X92.705 Y52.607 E47.55717
G1 X93.251 Y52.739 E47.62388
G1 X93.793 Y52.928 E47.69203
G1 X94.325 Y53.173 E47.76155
G1 X94.837 Y53.474 E47.83215
G1 X95.321 Y53.829 E47.90346
G1 X95.769 Y54.234 E47.97515
G1 X96.092 Y54.584 E48.03172
G1 X96.458 Y55.062 E48.10315
G1 X96.771 Y55.569 E48.17400
G1 X97.032 Y56.108 E48.24512
G1 X97.235 Y56.664 E48.31539
G1 X97.379 Y57.224 E48.38401
G1 X97.466 Y57.780 E48.45091
G1 X97.500 Y58.384 E48.52270
G1 X97.500 Y91.612 E52.46903
G1 X97.473 Y92.143 E52.53218
G1 X97.414 Y92.587 E52.58544
G1 X97.293 Y93.136 E52.65218
G1 X97.117 Y93.679 E52.72000
G1 X96.827 Y94.325 E52.80404
G1 X96.526 Y94.837 E52.87463
G1 X96.171 Y95.321 E52.94595
G1 X95.766 Y95.769 E53.01764
G1 X95.416 Y96.092 E53.07421
G1 X94.833 Y96.528 E53.16064
G1 X94.319 Y96.830 E53.23147
G1 X93.775 Y97.080 E53.30254
G1 X93.336 Y97.235 E53.35787
G1 X92.776 Y97.379 E53.42649
G1 X92.220 Y97.466 E53.49339
G1 X91.677 Y97.498 E53.55794
G1 X58.388 Y97.500 E57.51151
G1 X57.970 Y97.483 E57.56126
G1 X57.413 Y97.414 E57.62792
G1 X56.864 Y97.293 E57.69466
G1 X55.694 Y96.907 E57.84103
G1 X55.542 Y96.751 E57.86690
G1 X55.163 Y96.526 E57.91921
G1 X54.679 Y96.171 E57.99053
G1 X54.231 Y95.766 E58.06222
G1 X53.908 Y95.416 E58.11879
G1 X53.472 Y94.833 E58.20521
G1 X53.170 Y94.319 E58.27605
G1 X52.920 Y93.775 E58.34711
G1 X52.765 Y93.336 E58.40244
G1 X52.621 Y92.776 E58.47106
G1 X52.534 Y92.220 E58.53796
G1 X52.502 Y91.677 E58.60251
G1 X52.500 Y58.388 E62.55609
G1 X52.527 Y57.857 E62.61923
G1 X52.607 Y57.295 E62.68671
G1 X52.739 Y56.749 E62.75343
G1 X53.093 Y55.694 E62.88561
G1 X53.249 Y55.542 E62.91148
G1 X53.474 Y55.163 E62.96379
G1 X53.750 Y54.778 E63.02001
G1 X54.237 Y54.228 E63.10723
G1 X54.765 Y54.713 F7800.000
G1 X55.125 Y54.387 E63.16487 F1080.000
G1 X55.550 Y54.074 E63.22759
G1 X56.002 Y53.808 E63.28985
G1 X56.397 Y53.622 E63.34168
G1 X56.885 Y53.444 E63.40344
G1 X57.377 Y53.319 E63.46376
G1 X57.866 Y53.243 E63.52251
G1 X58.349 Y53.216 E63.57991
G1 X91.604 Y53.215 E67.52951
G1 X92.065 Y53.237 E67.58426 F1080.000
G1 X92.561 Y53.307 E67.64372
G1 X93.040 Y53.422 E67.70232
G1 X93.517 Y53.586 E67.76222
G1 X93.985 Y53.801 E67.82333
G1 X94.436 Y54.065 E67.88538
G1 X94.862 Y54.376 E67.94808
G1 X95.257 Y54.731 E68.01112
G1 X95.555 Y55.055 E68.06336
G1 X95.875 Y55.475 E68.12616
G1 X96.150 Y55.922 E68.18843
G1 X96.378 Y56.397 E68.25098
G1 X96.556 Y56.885 E68.31274
G1 X96.681 Y57.377 E68.37305
G1 X96.757 Y57.866 E68.43180
G1 X96.785 Y58.392 E68.49438
G1 X96.785 Y91.604 E72.43880
G1 X96.763 Y92.065 E72.49355
G1 X96.709 Y92.476 E72.54286
G1 X96.601 Y92.958 E72.60147
G1 X96.445 Y93.436 E72.66114
G1 X96.199 Y93.985 E72.73261
G1 X95.935 Y94.436 E72.79467
G1 X95.624 Y94.862 E72.85737
G1 X95.269 Y95.257 E72.92040
G1 X94.945 Y95.555 E72.97265
G1 X94.450 Y95.926 E73.04616
G1 X93.998 Y96.192 E73.10842
G1 X93.520 Y96.412 E73.17093
G1 X93.115 Y96.556 E73.22203
G1 X92.622 Y96.681 E73.28234
G1 X92.134 Y96.757 E73.34109
G1 X91.651 Y96.784 E73.39849
G1 X58.396 Y96.785 E77.34808
G1 X58.015 Y96.770 E77.39326
G1 X57.524 Y96.709 E77.45215
G1 X57.042 Y96.601 E77.51076
G1 X56.134 Y96.301 E77.62431
G1 X56.031 Y96.208 E77.64078
G1 X55.564 Y95.935 E77.70502
G1 X55.138 Y95.624 E77.76772
G1 X54.743 Y95.269 E77.83075
G1 X54.445 Y94.945 E77.88299
G1 X54.074 Y94.450 E77.95650
G1 X53.808 Y93.998 E78.01876
G1 X53.588 Y93.520 E78.08128
G1 X53.444 Y93.115 E78.13237
G1 X53.319 Y92.623 E78.19268
G1 X53.243 Y92.134 E78.25143
G1 X53.216 Y91.651 E78.30884
G1 X53.215 Y58.396 E82.25843
G1 X53.237 Y57.935 E82.31318
G1 X53.307 Y57.439 E82.37264
G1 X53.422 Y56.960 E82.43124
G1 X53.699 Y56.134 E82.53466
G1 X53.792 Y56.031 E82.55113
G1 X54.016 Y55.640 E82.60466
G1 X54.320 Y55.209 E82.66728
G1 X54.721 Y54.754 E82.73938
G1 X55.249 Y55.238 F7800.000
G1 X55.567 Y54.948 E82.79053 F1080.000
G1 X55.934 Y54.677 E82.84465
G1 X56.323 Y54.446 E82.89833
G1 X56.685 Y54.275 E82.94589
G1 X57.107 Y54.123 E82.99915
G1 X57.531 Y54.016 E83.05115
G1 X57.952 Y53.953 E83.10175
G1 X58.375 Y53.929 E83.15201
G1 X91.619 Y53.929 E87.10027
G1 X91.987 Y53.947 E87.14398 F1080.000
G1 X92.416 Y54.006 E87.19543
G1 X92.829 Y54.105 E87.24591
G1 X93.241 Y54.245 E87.29755
G1 X93.645 Y54.429 E87.35025
G1 X94.034 Y54.656 E87.40377
G1 X94.403 Y54.923 E87.45785
G1 X94.744 Y55.229 E87.51223
G1 X95.017 Y55.525 E87.56014
G1 X95.293 Y55.889 E87.61431
G1 X95.528 Y56.275 E87.66800
G1 X95.725 Y56.685 E87.72199
G1 X95.877 Y57.107 E87.77525
G1 X95.984 Y57.531 E87.82725
G1 X96.047 Y57.952 E87.87785
G1 X96.071 Y58.401 E87.93121
G1 X96.071 Y91.597 E91.87371
G1 X96.053 Y91.987 E91.92007
G1 X95.994 Y92.416 E91.97153
G1 X95.895 Y92.829 E92.02200
G1 X95.755 Y93.241 E92.07364
G1 X95.595 Y93.597 E92.12001
G1 X95.373 Y93.989 E92.17344
G1 X95.111 Y94.360 E92.22748
G1 X94.771 Y94.744 E92.28832
G1 X94.475 Y95.017 E92.33623
G1 X94.111 Y95.293 E92.39040
G1 X93.725 Y95.528 E92.44409
G1 X93.315 Y95.725 E92.49808
G1 X92.893 Y95.877 E92.55135
G1 X92.469 Y95.984 E92.60334
G1 X92.047 Y96.047 E92.65394
G1 X91.625 Y96.071 E92.70420
G1 X58.403 Y96.071 E96.64980
G1 X58.061 Y96.057 E96.69042
G1 X57.634 Y96.003 E96.74153
G1 X57.220 Y95.909 E96.79201
G1 X56.545 Y95.686 E96.87644
G1 X56.011 Y95.373 E96.94988
G1 X55.640 Y95.111 E97.00391
G1 X55.295 Y94.809 E97.05827
G1 X54.983 Y94.475 E97.11268
G1 X54.677 Y94.066 E97.17327
G1 X54.446 Y93.677 E97.22696
G1 X54.255 Y93.265 E97.28092
G1 X54.123 Y92.893 E97.32778
G1 X54.016 Y92.469 E97.37978
G1 X53.953 Y92.048 E97.43038
G1 X53.929 Y91.625 E97.48064
G1 X53.929 Y58.403 E101.42624
G1 X53.947 Y58.013 E101.47260
G1 X54.006 Y57.584 E101.52406
G1 X54.105 Y57.171 E101.57453
G1 X54.314 Y56.545 E101.65288
G1 X54.656 Y55.966 E101.73275
G1 X54.923 Y55.597 E101.78683
G1 X55.206 Y55.280 E101.83733
G1 X55.733 Y55.763 F7800.000
G1 X56.010 Y55.509 E101.88199 F1080.000
G1 X56.317 Y55.280 E101.92752
G1 X56.643 Y55.085 E101.97263
G1 X56.973 Y54.929 E102.01590
G1 X57.328 Y54.803 E102.06067
G1 X57.685 Y54.714 E102.10435
G1 X58.039 Y54.662 E102.14680
G1 X58.401 Y54.643 E102.18991
G1 X91.590 Y54.643 E106.13153
G1 X91.909 Y54.657 E106.16950 F1080.000
G1 X92.271 Y54.706 E106.21295
G1 X92.619 Y54.787 E106.25530
G1 X92.965 Y54.904 E106.29870
G1 X93.305 Y55.057 E106.34298
G1 X93.633 Y55.247 E106.38796
G1 X93.943 Y55.471 E106.43343
G1 X94.231 Y55.726 E106.47915
G1 X94.480 Y55.996 E106.52274
G1 X94.710 Y56.302 E106.56828
G1 X94.907 Y56.627 E106.61339
G1 X95.071 Y56.973 E106.65881
G1 X95.197 Y57.328 E106.70358
G1 X95.286 Y57.685 E106.74725
G1 X95.338 Y58.039 E106.78971
G1 X95.357 Y58.410 E106.83385
G1 X95.357 Y91.590 E110.77444
G1 X95.343 Y91.909 E110.81240
G1 X95.294 Y92.271 E110.85585
G1 X95.213 Y92.619 E110.89821
G1 X95.096 Y92.965 E110.94160
G1 X94.943 Y93.305 E110.98588
G1 X94.753 Y93.633 E111.03087
G1 X94.529 Y93.943 E111.07633
G1 X94.287 Y94.218 E111.11989
G1 X94.004 Y94.480 E111.16564
G1 X93.683 Y94.720 E111.21332
G1 X93.357 Y94.915 E111.25843
G1 X93.010 Y95.078 E111.30384
G1 X92.672 Y95.197 E111.34648
G1 X92.315 Y95.286 E111.39016
G1 X91.961 Y95.338 E111.43261
G1 X91.599 Y95.357 E111.47572
G1 X58.403 Y95.357 E115.41822
G1 X58.091 Y95.343 E115.45531
G1 X57.729 Y95.294 E115.49875
G1 X57.381 Y95.213 E115.54111
G1 X56.963 Y95.073 E115.59349
G1 X56.382 Y94.763 E115.67165
G1 X56.071 Y94.541 E115.71710
G1 X55.782 Y94.286 E115.76282
G1 X55.520 Y94.004 E115.80856
G1 X55.280 Y93.683 E115.85625
G1 X55.085 Y93.357 E115.90136
G1 X54.922 Y93.010 E115.94677
G1 X54.803 Y92.672 E115.98940
G1 X54.714 Y92.315 E116.03308
G1 X54.662 Y91.961 E116.07553
G1 X54.643 Y91.599 E116.11865
G1 X54.643 Y58.410 E120.06027
G1 X54.657 Y58.091 E120.09823
G1 X54.706 Y57.729 E120.14168
G1 X54.787 Y57.381 E120.18404
G1 X54.927 Y56.963 E120.23642
G1 X55.247 Y56.367 E120.31671
G1 X55.459 Y56.071 E120.36002
G1 X55.692 Y55.806 E120.40186
G1 F1800.000 E119.40186
G92 E0
G1 X93.739 Y93.694 F7800.000
G1 E1.00000 F1800.000
G1 X93.512 Y93.903 E1.03657 F378.000
G1 X93.267 Y94.087 E1.07296
G1 X93.007 Y94.243 E1.10897
G1 X92.731 Y94.374 E1.14531
G1 X92.447 Y94.474 E1.18109
G1 X92.161 Y94.544 E1.21598
G1 X91.880 Y94.585 E1.24979
G1 X91.576 Y94.600 E1.28588
G1 X58.165 Y94.589 E5.25397
G1 X57.873 Y94.550 E5.28899
G1 X57.596 Y94.486 E5.32273
G1 X57.319 Y94.393 E5.35739
G1 X57.047 Y94.272 E5.39278
G1 X56.785 Y94.121 E5.42872
G1 X56.536 Y93.943 E5.46506
G1 X56.306 Y93.739 E5.50161
G1 X56.097 Y93.512 E5.53817
G1 X55.913 Y93.267 E5.57456
G1 X55.757 Y93.007 E5.61058
G1 X55.626 Y92.731 E5.64692
G1 X55.526 Y92.447 E5.68270
G1 X55.456 Y92.161 E5.71758
G1 X55.415 Y91.880 E5.75139
G1 X55.400 Y91.576 E5.78749
G1 X55.400 Y58.423 E9.72497
G1 X55.450 Y57.873 E9.79055
G1 X55.514 Y57.596 E9.82429
G1 X55.607 Y57.319 E9.85896
G1 X55.728 Y57.047 E9.89434
G1 X55.879 Y56.785 E9.93029
G1 X56.057 Y56.536 E9.96662
G1 X56.261 Y56.306 E10.00317
G1 X56.488 Y56.097 E10.03974
G1 X56.733 Y55.913 E10.07613
G1 X56.993 Y55.757 E10.11214
G1 X57.269 Y55.626 E10.14848
G1 X57.553 Y55.526 E10.18426
G1 X57.839 Y55.456 E10.21915
