; generated by Slic3r 1.1.7 on 2014-11-30 at 16:43:25

; perimeters extrusion width = 0.40mm
; infill extrusion width = 0.67mm
; solid infill extrusion width = 0.67mm
; top infill extrusion width = 0.67mm

G21 ; set units to millimeters
M107
M104 S210 ; set temperature
G28 ; home all axes
G1 Z5 F5000 ; lift nozzle

M109 S210 ; wait for temperature to be reached
G90 ; use absolute coordinates
G92 E0
M82 ; use absolute distances for extrusion
G1 F1800.000 E-1.00000
G92 E0
G1 Z0.300 F7800.000
G1 X41.354 Y47.690 F7800.000
G1 E1.00000 F1800.000
G1 X42.027 Y47.174 E1.03481 F1080.000
G1 X43.456 Y46.349 E1.10251
G1 X44.240 Y46.024 E1.13732
G1 X45.834 Y45.597 E1.20502
G1 X47.500 Y45.432 E1.27372
G1 X84.250 Y45.432 E2.78145
G1 X86.454 Y45.829 E2.87335
G1 X87.626 Y46.409 E2.92697 F1080.000
G1 X107.688 Y59.081 E3.90052
G1 X108.790 Y59.963 E3.95839
G1 X109.561 Y60.737 E4.00323
G1 X110.719 Y62.335 E4.08420
G1 X111.215 Y63.309 E4.12905
G1 X111.823 Y65.187 E4.21003
G1 X111.985 Y66.212 E4.25262
G1 X112.071 Y67.253 E4.29547
G1 X112.022 Y95.546 E5.45623
G1 X111.911 Y96.417 E5.49225
G1 X111.501 Y97.993 E5.55908
G1 X111.194 Y98.769 E5.59329
G1 X110.430 Y100.158 E5.65833
G1 X109.913 Y100.868 E5.69435
G1 X108.828 Y102.023 E5.75939
G1 X108.185 Y102.554 E5.79361
G1 X106.812 Y103.431 E5.86042
G1 X106.018 Y103.804 E5.89644
G1 X104.509 Y104.293 E5.96149
G1 X103.647 Y104.457 E5.99751
G1 X102.065 Y104.555 E6.06254
G1 X100.844 Y104.468 E6.11275
G1 X45.834 Y97.910 E8.38562
G1 X44.240 Y97.483 E8.45332
G1 X43.456 Y97.158 E8.48813
G1 X42.027 Y96.333 E8.55584
G1 X41.354 Y95.817 E8.59065
G1 X40.187 Y94.650 E8.65835
G1 X39.670 Y93.977 E8.69316
G1 X38.845 Y92.547 E8.76086
G1 X38.520 Y91.764 E8.79567
G1 X38.093 Y90.170 E8.86337
G1 X37.929 Y88.503 E8.93207
G1 X37.983 Y54.178 E10.34031
G1 X38.093 Y53.337 E10.37512
G1 X38.520 Y51.743 E10.44282
G1 X38.845 Y50.959 E10.47763
G1 X39.670 Y49.530 E10.54534
G1 X40.187 Y48.857 E10.58015
G1 X41.311 Y47.733 E10.64539
G1 F1800.000 E9.64539
G92 E0
G1 X45.309 Y52.812 F7800.000
G1 E1.00000 F1800.000
G1 X45.951 Y52.320 E1.03319 F378.000
G1 X46.698 Y52.010 E1.06637
G1 X47.510 Y51.903 E1.09997
G1 X84.207 Y51.903 E2.60552
G1 X103.032 Y63.794 E3.51903
G1 X104.218 Y64.543 E3.57659 F378.000
G1 X104.961 Y65.289 E3.61976
G1 X105.435 Y66.221 E3.66266
G1 X105.600 Y67.265 E3.70604
G1 X105.600 Y94.744 E4.83340
G1 X105.493 Y95.587 E4.86825
G1 X105.184 Y96.367 E4.90270
G1 X104.690 Y97.047 E4.93716
G1 X104.043 Y97.582 E4.97162
G1 X103.283 Y97.939 E5.00608
G1 X102.458 Y98.096 E5.04053
G1 X101.623 Y98.042 E5.07486
G1 X84.277 Y91.603 E5.83395
G1 X47.510 Y91.603 E7.34238
G1 X46.698 Y91.496 E7.37597
G1 X45.951 Y91.187 E7.40916
G1 X45.309 Y90.694 E7.44235
G1 X44.816 Y90.053 E7.47554
G1 X44.507 Y89.305 E7.50872
G1 X44.400 Y88.494 E7.54232
G1 X44.400 Y55.013 E8.91591
G1 X44.507 Y54.201 E8.94950
G1 X44.816 Y53.454 E8.98269
G1 X45.272 Y52.860 E9.01341
G1 F1800.000 E8.01341
G92 E0
G1 X103.068 Y64.193 F7800.000
G1 X45.082 Y75.108 F7800.000
G1 E1.00000 F1800.000
G1 X45.244 Y75.987 E1.03666 F540.000
G1 X45.604 Y77.363 E1.09502
G1 X46.063 Y78.709 E1.15337
G1 X46.619 Y80.018 E1.21172
G1 X47.270 Y81.283 E1.27007
G1 X48.011 Y82.497 E1.32843
G1 X48.838 Y83.654 E1.38678
G1 X49.748 Y84.747 E1.44513
G1 X50.735 Y85.771 E1.50348
G1 X51.794 Y86.720 E1.56183
G1 X52.920 Y87.590 E1.62019
G1 X54.106 Y88.374 E1.67854
G1 X55.347 Y89.070 E1.73689
G1 X56.635 Y89.674 E1.79524
G1 X57.963 Y90.182 E1.85359
G1 X59.325 Y90.592 E1.91195
G1 X60.713 Y90.901 E1.97030
G1 X61.680 Y91.044 E2.01039
G1 X61.662 Y91.282 E2.02019
G1 X47.531 Y91.282 E2.59996
G1 X46.782 Y91.183 E2.63096
G1 X46.113 Y90.906 E2.66067
G1 X45.538 Y90.465 E2.69039
G1 X45.097 Y89.891 E2.72010
G1 X44.820 Y89.221 E2.74982
G1 X44.721 Y88.472 E2.78081
G1 X44.721 Y74.409 E3.35778
G1 X44.965 Y74.396 E3.36777 F540.000
G1 X45.071 Y75.049 E3.39493
G1 X45.104 Y68.280 F7800.000
G1 X44.965 Y69.111 E3.42949 F540.000
G1 X44.721 Y69.098 E3.43948
G1 X44.721 Y55.034 E4.01645
G1 X44.820 Y54.285 E4.04744
G1 X45.097 Y53.616 E4.07716
G1 X45.538 Y53.042 E4.10687
G1 X46.113 Y52.601 E4.13659
G1 X46.782 Y52.323 E4.16630
G1 X47.531 Y52.225 E4.19730
G1 X61.663 Y52.225 E4.77707 F540.000
G1 X61.680 Y52.463 E4.78688
G1 X60.713 Y52.605 E4.82697
G1 X59.325 Y52.915 E4.88532
G1 X57.963 Y53.325 E4.94367
G1 X56.635 Y53.833 E5.00202
G1 X55.347 Y54.436 E5.06037
G1 X54.106 Y55.132 E5.11873
G1 X52.920 Y55.917 E5.17708
G1 X51.794 Y56.786 E5.23543
G1 X50.735 Y57.736 E5.29378
G1 X49.748 Y58.759 E5.35213
G1 X48.838 Y59.853 E5.41049
G1 X48.011 Y61.009 E5.46884
G1 X47.270 Y62.224 E5.52719
G1 X46.619 Y63.488 E5.58554
G1 X46.063 Y64.797 E5.64389
G1 X45.604 Y66.144 E5.70225
G1 X45.244 Y67.520 E5.76060
G1 X45.115 Y68.221 E5.78986
G1 F1800.000 E4.78986
G92 E0
G1 X82.665 Y78.040 F7800.000
G1 E1.00000 F1800.000
G1 X82.896 Y77.363 E1.02934 F540.000
G1 X83.256 Y75.987 E1.08769
G1 X83.514 Y74.588 E1.14604
G1 X83.670 Y73.175 E1.20439
G1 X83.722 Y71.753 E1.26275
G1 X83.670 Y70.332 E1.32110
G1 X83.514 Y68.918 E1.37945
G1 X83.256 Y67.520 E1.43780
G1 X82.896 Y66.144 E1.49615
G1 X82.437 Y64.797 E1.55451
G1 X81.881 Y63.488 E1.61286
G1 X81.270 Y62.301 E1.66766
G1 X80.489 Y61.009 E1.72955
G1 X79.662 Y59.853 E1.78791
G1 X78.752 Y58.759 E1.84626
G1 X77.765 Y57.736 E1.90461
G1 X76.706 Y56.786 E1.96296
G1 X74.808 Y55.321 E2.06130
G1 X74.808 Y55.407 E2.06480
G1 X74.394 Y55.132 E2.08520
G1 X73.153 Y54.436 E2.14355
G1 X71.866 Y53.833 E2.20191
G1 X70.537 Y53.325 E2.26026
G1 X69.175 Y52.915 E2.31861
G1 X67.787 Y52.605 E2.37696
G1 X66.820 Y52.463 E2.41705
G1 X66.838 Y52.225 E2.42686
G1 X84.114 Y52.225 E3.13564 F540.000
G1 X104.016 Y64.796 E4.10142
G1 X104.698 Y65.480 E4.14103
G1 X105.125 Y66.321 E4.17975
G1 X105.279 Y67.290 E4.22001
G1 X105.279 Y94.724 E5.34551
G1 X105.180 Y95.506 E5.37786
G1 X104.900 Y96.211 E5.40898
G1 X104.454 Y96.825 E5.44010
G1 X103.869 Y97.308 E5.47123
G1 X103.183 Y97.631 E5.50235
G1 X102.438 Y97.772 E5.53347
G1 X101.690 Y97.725 E5.56420
G1 X84.335 Y91.282 E6.32371
G1 X66.838 Y91.282 E7.04156
G1 X66.820 Y91.044 E7.05137
G1 X67.787 Y90.901 E7.09146
G1 X69.175 Y90.592 E7.14981
G1 X70.537 Y90.182 E7.20816
G1 X71.866 Y89.674 E7.26652
G1 X73.153 Y89.070 E7.32487
G1 X74.394 Y88.374 E7.38322
G1 X75.580 Y87.590 E7.44157
G1 X76.706 Y86.720 E7.49992
G1 X77.765 Y85.771 E7.55828
G1 X78.752 Y84.747 E7.61663
G1 X79.662 Y83.654 E7.67498
G1 X80.489 Y82.497 E7.73333
G1 X81.230 Y81.283 E7.79168
G1 X81.881 Y80.018 E7.85004
G1 X82.437 Y78.709 E7.90839
G1 X82.646 Y78.097 E7.93494
G1 X100.712 Y93.636 F7800.000
G1 X101.038 Y93.288 E7.95449 F378.000
G1 X101.441 Y93.033 E7.97405
G1 X101.894 Y92.886 E7.99360
G1 X102.329 Y92.858 E8.01147
G1 X102.838 Y92.945 E8.03265 F378.000
G1 X103.269 Y93.148 E8.05221
G1 X103.636 Y93.452 E8.07176
G1 X103.916 Y93.837 E8.09131
G1 X104.091 Y94.281 E8.11086
G1 X104.151 Y94.753 E8.13041
G1 X104.076 Y95.264 E8.15159
G1 X103.916 Y95.669 E8.16947
G1 X103.636 Y96.055 E8.18902
G1 X103.269 Y96.359 E8.20857
G1 X102.837 Y96.562 E8.22812
G1 X102.329 Y96.648 E8.24930
G1 X101.894 Y96.621 E8.26718
G1 X101.441 Y96.474 E8.28673
G1 X101.038 Y96.218 E8.30628
G1 X100.712 Y95.871 E8.32583
G1 X100.482 Y95.453 E8.34539
G1 X100.364 Y94.992 E8.36494
G1 X100.364 Y94.515 E8.38449
G1 X100.482 Y94.053 E8.40404
G1 X100.683 Y93.688 E8.42113
G1 X102.501 Y92.497 F7800.000
G1 X102.490 Y92.552 F7800.000
G1 X102.938 Y92.637 E8.43982 F540.000
G1 X103.442 Y92.875 E8.46270 F540.000
G1 X103.872 Y93.230 E8.48559
G1 X104.200 Y93.681 E8.50847
G1 X104.405 Y94.200 E8.53135
G1 X104.416 Y94.281 E8.53470
G1 X104.475 Y94.753 E8.55424
G1 X104.405 Y95.307 E8.57712
G1 X104.200 Y95.825 E8.60001
G1 X103.872 Y96.277 E8.62289
G1 X103.442 Y96.632 E8.64577
G1 X102.938 Y96.870 E8.66866
G1 X102.470 Y96.959 E8.68820
G1 X102.390 Y96.974 E8.69154
G1 X101.833 Y96.939 E8.71443
G1 X101.303 Y96.767 E8.73731
G1 X100.900 Y96.512 E8.75685
G1 X100.832 Y96.468 E8.76019
G1 X100.450 Y96.061 E8.78308
G1 X100.181 Y95.573 E8.80596
G1 X100.042 Y95.032 E8.82885
G1 X100.042 Y94.474 E8.85173
G1 X100.181 Y93.934 E8.87461
G1 X100.450 Y93.445 E8.89750
G1 X100.832 Y93.039 E8.92038
G1 X101.303 Y92.740 E8.94327
G1 X101.833 Y92.568 E8.96615
G1 X102.239 Y92.542 E8.98282
G1 X102.239 Y92.504 E8.98439
G1 X102.431 Y92.540 E8.99245
G1 X82.091 Y88.226 F7800.000
G1 X81.916 Y88.669 E9.01200 F378.000
G1 X81.636 Y89.055 E9.03155
G1 X81.269 Y89.359 E9.05110
G1 X80.838 Y89.562 E9.07065
G1 X80.369 Y89.651 E9.09020
G1 X79.894 Y89.621 E9.10976
G1 X79.441 Y89.474 E9.12931
G1 X79.038 Y89.218 E9.14886
G1 X78.712 Y88.871 E9.16841
G1 X78.482 Y88.453 E9.18796
G1 X78.364 Y87.992 E9.20752
G1 X78.364 Y87.515 E9.22707
G1 X78.482 Y87.053 E9.24662
G1 X78.712 Y86.636 E9.26617
G1 X79.038 Y86.288 E9.28572
G1 X79.441 Y86.033 E9.30528
G1 X79.935 Y85.883 E9.32646
G1 X80.369 Y85.856 E9.34433 F378.000
G1 X80.838 Y85.945 E9.36388
G1 X81.269 Y86.148 E9.38343
G1 X81.636 Y86.452 E9.40299
G1 X81.916 Y86.837 E9.42254
G1 X82.091 Y87.281 E9.44209
G1 X82.151 Y87.753 E9.46164
G1 X82.099 Y88.167 E9.47873
G1 F1800.000 E8.47873
G92 E0
G1 X79.804 Y85.505 F7800.000
G1 X79.825 Y85.570 F7800.000
G1 E1.00000 F1800.000
G1 X80.390 Y85.533 E1.02321 F540.000
G1 X80.510 Y85.556 E1.02824
G1 X80.938 Y85.637 E1.04609 F540.000
G1 X81.442 Y85.875 E1.06897
G1 X81.872 Y86.230 E1.09186
G1 X82.200 Y86.681 E1.11474
G1 X82.405 Y87.200 E1.13763
G1 X82.475 Y87.753 E1.16051
G1 X82.405 Y88.307 E1.18339
G1 X82.200 Y88.825 E1.20628
G1 X81.872 Y89.277 E1.22916
G1 X81.442 Y89.632 E1.25205
G1 X80.938 Y89.870 E1.27493
G1 X80.390 Y89.974 E1.29781
G1 X79.833 Y89.939 E1.32070
G1 X79.303 Y89.767 E1.34358
G1 X78.832 Y89.468 E1.36647
G1 X78.450 Y89.061 E1.38935
G1 X78.181 Y88.573 E1.41224
G1 X78.042 Y88.032 E1.43512
G1 X78.042 Y87.474 E1.45800
G1 X78.181 Y86.934 E1.48089
G1 X78.450 Y86.445 E1.50377
G1 X78.832 Y86.039 E1.52666
G1 X79.303 Y85.740 E1.54954
G1 X79.768 Y85.589 E1.56963
G1 X100.712 Y68.371 F7800.000
G1 X100.482 Y67.953 E1.58918 F378.000
G1 X100.364 Y67.492 E1.60873
G1 X100.364 Y67.015 E1.62829
G1 X100.482 Y66.553 E1.64784
G1 X100.712 Y66.136 E1.66739
G1 X101.038 Y65.788 E1.68694
G1 X101.441 Y65.533 E1.70649
G1 X101.894 Y65.386 E1.72604
G1 X102.329 Y65.358 E1.74392
G1 X102.838 Y65.445 E1.76510 F378.000
G1 X103.269 Y65.648 E1.78465
G1 X103.636 Y65.952 E1.80420
G1 X103.916 Y66.337 E1.82376
G1 X104.091 Y66.781 E1.84331
G1 X104.151 Y67.253 E1.86286
G1 X104.091 Y67.726 E1.88241
G1 X103.916 Y68.169 E1.90196
G1 X103.636 Y68.555 E1.92151
G1 X103.269 Y68.859 E1.94107
G1 X102.837 Y69.062 E1.96062
G1 X102.369 Y69.151 E1.98017
G1 X101.894 Y69.121 E1.99972
G1 X101.441 Y68.974 E2.01927
G1 X101.038 Y68.718 E2.03883
G1 X100.753 Y68.415 E2.05592
G1 F1800.000 E1.05592
G92 E0
G1 X102.422 Y64.969 F7800.000
G1 X102.409 Y65.036 F7800.000
G1 E1.00000 F1800.000
G1 X102.938 Y65.137 E1.02208 F540.000
G1 X103.442 Y65.375 E1.04497 F540.000
G1 X103.809 Y65.678 E1.06451
G1 X103.872 Y65.730 E1.06785
G1 X104.200 Y66.181 E1.09074
G1 X104.405 Y66.700 E1.11362
G1 X104.416 Y66.781 E1.11696
G1 X104.475 Y67.253 E1.13650
G1 X104.405 Y67.807 E1.15939
G1 X104.200 Y68.325 E1.18227
G1 X103.920 Y68.711 E1.20181
G1 X103.872 Y68.777 E1.20516
G1 X103.442 Y69.132 E1.22804
G1 X102.938 Y69.370 E1.25092
G1 X102.470 Y69.459 E1.27047
G1 X102.390 Y69.474 E1.27381
G1 X101.833 Y69.439 E1.29669
G1 X101.303 Y69.267 E1.31958
G1 X100.832 Y68.968 E1.34246
G1 X100.450 Y68.561 E1.36534
G1 X100.181 Y68.073 E1.38823
G1 X100.042 Y67.532 E1.41111
G1 X100.042 Y66.974 E1.43400
G1 X100.181 Y66.434 E1.45688
G1 X100.450 Y65.945 E1.47976
G1 X100.832 Y65.539 E1.50265
G1 X101.303 Y65.240 E1.52553
G1 X101.833 Y65.068 E1.54842
G1 X102.239 Y65.042 E1.56509
G1 X102.239 Y65.004 E1.56666
G1 X102.350 Y65.025 E1.57131
G1 X81.916 Y56.669 F7800.000
G1 X81.636 Y57.055 E1.59086 F378.000
G1 X81.269 Y57.359 E1.61042
G1 X80.838 Y57.562 E1.62997
G1 X80.369 Y57.651 E1.64952
G1 X79.894 Y57.621 E1.66907
G1 X79.441 Y57.474 E1.68862
G1 X79.038 Y57.218 E1.70818
G1 X78.712 Y56.871 E1.72773
G1 X78.482 Y56.453 E1.74728
G1 X78.364 Y55.992 E1.76683
G1 X78.364 Y55.515 E1.78638
G1 X78.482 Y55.053 E1.80594
G1 X78.712 Y54.636 E1.82549
G1 X79.038 Y54.288 E1.84504
G1 X79.441 Y54.033 E1.86459
G1 X79.935 Y53.883 E1.88577
G1 X80.369 Y53.856 E1.90365 F378.000
G1 X80.838 Y53.945 E1.92320
G1 X81.269 Y54.148 E1.94275
G1 X81.636 Y54.452 E1.96230
G1 X81.916 Y54.837 E1.98185
G1 X82.091 Y55.281 E2.00141
G1 X82.151 Y55.753 E2.02096
G1 X82.091 Y56.226 E2.04051
G1 X81.938 Y56.613 E2.05760
G1 F1800.000 E1.05760
G92 E0
G1 X79.820 Y53.500 F7800.000
G1 X79.833 Y53.568 F7800.000
G1 E1.00000 F1800.000
G1 X80.390 Y53.533 E1.02288 F540.000
G1 X80.510 Y53.556 E1.02792
G1 X80.938 Y53.637 E1.04577 F540.000
G1 X81.442 Y53.875 E1.06865
G1 X81.872 Y54.230 E1.09154
G1 X82.200 Y54.681 E1.11442
G1 X82.230 Y54.757 E1.11776
G1 X82.405 Y55.200 E1.13730
G1 X82.475 Y55.753 E1.16019
G1 X82.405 Y56.307 E1.18307
G1 X82.200 Y56.825 E1.20596
G1 X81.872 Y57.277 E1.22884
G1 X81.442 Y57.632 E1.25172
G1 X80.938 Y57.870 E1.27461
G1 X80.390 Y57.974 E1.29749
G1 X79.833 Y57.939 E1.32038
G1 X79.303 Y57.767 E1.34326
G1 X78.832 Y57.468 E1.36614
G1 X78.450 Y57.061 E1.38903
G1 X78.411 Y56.990 E1.39237
G1 X78.181 Y56.573 E1.41191
G1 X78.042 Y56.032 E1.43480
G1 X78.042 Y55.474 E1.45768
G1 X78.181 Y54.934 E1.48057
G1 X78.450 Y54.445 E1.50345
G1 X78.832 Y54.039 E1.52633
G1 X79.303 Y53.740 E1.54922
G1 X79.776 Y53.586 E1.56964
G1 X76.604 Y57.127 F7800.000
G1 X77.542 Y57.967 E1.62131 F378.000
G1 X78.512 Y58.974 E1.67870
G1 X79.407 Y60.049 E1.73609
G1 X80.221 Y61.187 E1.79348
G1 X80.950 Y62.381 E1.85086
G1 X81.589 Y63.625 E1.90825
G1 X82.161 Y64.983 E1.96870
G1 X82.588 Y66.236 E2.02302
G1 X82.942 Y67.590 E2.08041
G1 X83.196 Y68.965 E2.13780
G1 X83.349 Y70.355 E2.19518
G1 X83.400 Y71.753 E2.25257
G1 X83.352 Y73.076 E2.30689
G1 X83.196 Y74.542 E2.36734
G1 X82.942 Y75.917 E2.42473
G1 X82.588 Y77.270 E2.48212
G1 X82.137 Y78.594 E2.53951
G1 X81.589 Y79.882 E2.59689
G1 X80.950 Y81.126 E2.65428
G1 X80.221 Y82.320 E2.71167
G1 X79.407 Y83.457 E2.76906
G1 X78.460 Y84.586 E2.82951
G1 X77.542 Y85.540 E2.88383
G1 X76.500 Y86.473 E2.94122
G1 X75.393 Y87.328 E2.99860
G1 X74.226 Y88.100 E3.05599
G1 X73.072 Y88.748 E3.11031
G1 X71.740 Y89.378 E3.17076
G1 X70.433 Y89.878 E3.22815
G1 X69.094 Y90.281 E3.28554
G1 X67.728 Y90.585 E3.34292
G1 X66.344 Y90.789 E3.40031
G1 X64.949 Y90.891 E3.45770
G1 X63.430 Y90.882 E3.52005
G1 X62.156 Y90.789 E3.57246
G1 X60.772 Y90.585 E3.62985
G1 X59.406 Y90.281 E3.68724
G1 X58.067 Y89.878 E3.74463
G1 X56.760 Y89.378 E3.80202
G1 X55.428 Y88.748 E3.86247
G1 X54.274 Y88.100 E3.91679
G1 X53.107 Y87.328 E3.97417
G1 X52.000 Y86.473 E4.03156
G1 X50.958 Y85.540 E4.08895
G1 X49.988 Y84.533 E4.14634
G1 X49.093 Y83.457 E4.20373
G1 X48.279 Y82.320 E4.26112
G1 X47.550 Y81.126 E4.31850
G1 X46.911 Y79.882 E4.37589
G1 X46.364 Y78.594 E4.43328
G1 X45.912 Y77.270 E4.49067
G1 X45.558 Y75.917 E4.54806
G1 X45.304 Y74.542 E4.60544
G1 X45.151 Y73.151 E4.66283
G1 X45.100 Y71.753 E4.72022
G1 X45.151 Y70.355 E4.77761
G1 X45.304 Y68.965 E4.83500
G1 X45.558 Y67.590 E4.89238
G1 X45.912 Y66.236 E4.94977
G1 X46.364 Y64.912 E5.00716
G1 X46.911 Y63.625 E5.06455
G1 X47.550 Y62.381 E5.12194
G1 X48.279 Y61.187 E5.17933
G1 X49.093 Y60.049 E5.23671
G1 X49.988 Y58.974 E5.29410
G1 X50.958 Y57.967 E5.35149
G1 X52.000 Y57.034 E5.40888
G1 X53.107 Y56.179 E5.46627
G1 X54.274 Y55.407 E5.52365
G1 X55.494 Y54.722 E5.58104
G1 X56.693 Y54.160 E5.63536
G1 X58.067 Y53.629 E5.69581
G1 X59.406 Y53.226 E5.75320
G1 X60.772 Y52.922 E5.81059
G1 X62.156 Y52.718 E5.86798
G1 X63.551 Y52.616 E5.92536
G1 X65.024 Y52.622 E5.98582
G1 X66.344 Y52.718 E6.04013 F378.000
G1 X67.728 Y52.922 E6.09752
G1 X69.094 Y53.226 E6.15491
G1 X70.433 Y53.629 E6.21230
G1 X71.740 Y54.129 E6.26968
G1 X73.006 Y54.722 E6.32707
G1 X74.226 Y55.407 E6.38446
G1 X75.130 Y56.005 E6.42892
G1 X75.130 Y55.976 E6.43011
G1 X76.559 Y57.087 E6.50437
G1 F1800.000 E5.50437
G92 E0
G1 X64.880 Y52.248 F7800.000
G1 X50.091 Y55.281 F7800.000
G1 E1.00000 F1800.000
G1 X50.151 Y55.753 E1.01955 F378.000
G1 X50.091 Y56.226 E1.03910
G1 X49.916 Y56.669 E1.05866
G1 X49.636 Y57.055 E1.07821
G1 X49.269 Y57.359 E1.09776
G1 X48.838 Y57.562 E1.11731
