; generated by Slic3r 1.1.7 on 2014-12-03 at 12:50:25

; perimeters extrusion width = 0.40mm
; infill extrusion width = 0.67mm
; solid infill extrusion width = 0.67mm
; top infill extrusion width = 0.67mm

G21 ; set units to millimeters
M107
M104 S215 ; set temperature
G28 ; home all axes
G29; calibrate bed leveling
G1 Z5 F5000 ; lift nozzle
G28 X ; Go to corner x
G28 Y ; Go to corner y

M109 S215 ; wait for temperature to be reached
G90 ; use absolute coordinates
G92 E0
M82 ; use absolute distances for extrusion
G1 F1800.000 E-1.00000
G1 Z0.500 F7800.000
G92 E0
G1 X74.678 Y70.647 F7800.000
G1 Z0.300 F7800.000
G1 E1.00000 F1800.000
G1 X75.322 Y70.647 E1.04470 F1080.000
G1 X76.341 Y68.881 E1.18641
G1 X76.564 Y68.551 E1.21407
G1 X76.767 Y68.309 E1.23604
G1 X77.804 Y67.272 E1.33794
G1 X78.047 Y67.069 E1.35991
G1 X79.248 Y66.227 E1.46182
G1 X79.522 Y66.069 E1.48379
G1 X80.851 Y65.449 E1.58569
G1 X81.148 Y65.341 E1.60766
G1 X82.038 Y65.103 E1.67168
G1 X82.565 Y64.962 E1.70957
G1 X82.876 Y64.907 E1.73155
G1 X83.273 Y64.879 E1.75915
G1 X85.718 Y64.879 E1.92903
G1 X86.115 Y64.907 E1.95672
G1 X86.426 Y64.962 E1.97865
G1 X87.843 Y65.341 E2.08055
G1 X88.140 Y65.449 E2.10252
G1 X89.469 Y66.069 E2.20443
G1 X89.743 Y66.227 E2.22640
G1 X90.944 Y67.069 E2.32830
G1 X91.186 Y67.272 E2.35027
G1 X92.224 Y68.309 E2.45218
G1 X92.427 Y68.551 E2.47414
G1 X92.649 Y68.881 E2.50180
G1 X93.871 Y70.998 E2.67162
G1 X94.046 Y71.356 E2.69928
G1 X94.154 Y71.653 E2.72127
G1 X94.534 Y73.069 E2.82317
G1 X94.589 Y73.381 E2.84514
G1 X94.716 Y74.842 E2.94704
G1 X94.716 Y75.158 E2.96901
G1 X94.589 Y76.619 E3.07092
G1 X94.534 Y76.931 E3.09289
G1 X94.154 Y78.348 E3.19482
G1 X94.046 Y78.645 E3.21684
G1 X93.872 Y79.002 E3.24442
G1 X92.649 Y81.119 E3.41425
G1 X92.427 Y81.449 E3.44193
G1 X92.223 Y81.691 E3.46388
G1 X91.186 Y82.728 E3.56578
G1 X90.944 Y82.931 E3.58775
G1 X89.743 Y83.773 E3.68966
G1 X89.469 Y83.931 E3.71163
G1 X88.140 Y84.551 E3.81353
G1 X87.843 Y84.659 E3.83550
G1 X86.426 Y85.038 E3.93738
G1 X86.116 Y85.093 E3.95931
G1 X85.717 Y85.121 E3.98710
G1 X83.273 Y85.121 E4.15685
G1 X82.877 Y85.093 E4.18447
G1 X82.566 Y85.039 E4.20640
G1 X81.148 Y84.659 E4.30839
G1 X80.851 Y84.551 E4.33036
G1 X79.522 Y83.931 E4.43227
G1 X79.248 Y83.773 E4.45424
G1 X78.047 Y82.931 E4.55615
G1 X77.804 Y82.728 E4.57812
G1 X76.767 Y81.691 E4.68002
G1 X76.564 Y81.449 E4.70198
G1 X76.341 Y81.119 E4.72964
G1 X75.322 Y79.353 E4.87136
G1 X74.678 Y79.353 E4.91606
G1 X73.565 Y81.282 E5.07082
G1 X73.276 Y81.658 E5.10380
G1 X72.200 Y82.734 E5.20948
G1 X71.958 Y82.937 E5.23145
G1 X70.756 Y83.779 E5.33344
G1 X70.482 Y83.937 E5.35541
G1 X69.151 Y84.557 E5.45741
G1 X68.854 Y84.665 E5.47938
G1 X67.385 Y85.059 E5.58507
G1 X66.914 Y85.121 E5.61804
G1 X64.095 Y85.121 E5.81396
G1 X63.624 Y85.059 E5.84694
G1 X62.155 Y84.665 E5.95263
G1 X61.858 Y84.557 E5.97460
G1 X60.527 Y83.937 E6.07659
G1 X60.254 Y83.779 E6.09856
G1 X59.051 Y82.937 E6.20055
G1 X58.809 Y82.734 E6.22252
G1 X57.733 Y81.658 E6.32821
G1 X57.444 Y81.281 E6.36118
G1 X56.166 Y79.068 E6.53878
G1 X56.035 Y78.840 E6.55710
G1 X55.853 Y78.401 E6.59008
G1 X55.459 Y76.932 E6.69577
G1 X55.404 Y76.620 E6.71774
G1 X55.276 Y75.158 E6.81973
G1 X55.276 Y74.842 E6.84170
G1 X55.404 Y73.380 E6.94369
G1 X55.459 Y73.068 E6.96566
G1 X55.853 Y71.599 E7.07135
G1 X56.035 Y71.160 E7.10433
G1 X57.444 Y68.719 E7.30024
G1 X57.733 Y68.342 E7.33322
G1 X58.809 Y67.266 E7.43891
G1 X59.051 Y67.063 E7.46088
G1 X60.254 Y66.221 E7.56287
G1 X60.527 Y66.063 E7.58484
G1 X61.858 Y65.443 E7.68683
G1 X62.155 Y65.335 E7.70880
G1 X63.624 Y64.941 E7.81449
G1 X64.095 Y64.879 E7.84747
G1 X66.914 Y64.879 E8.04339
G1 X67.385 Y64.941 E8.07637
G1 X68.854 Y65.335 E8.18206
G1 X69.151 Y65.443 E8.20403
G1 X70.482 Y66.063 E8.30602
G1 X70.756 Y66.221 E8.32799
G1 X71.958 Y67.063 E8.42998
G1 X72.200 Y67.266 E8.45195
G1 X73.276 Y68.342 E8.55764
G1 X73.565 Y68.719 E8.59062
G1 X74.648 Y70.595 E8.74120
G1 X75.355 Y71.795 F7800.000
G1 X75.608 Y71.266 E8.78194 F1080.000
G1 X76.890 Y69.057 E8.95939
G1 X77.178 Y68.686 E8.99210
G1 X78.181 Y67.683 E9.09062
G1 X78.386 Y67.511 E9.10921
G1 X79.548 Y66.698 E9.20774
G1 X79.779 Y66.564 E9.22633
G1 X81.064 Y65.965 E9.32485
G1 X81.316 Y65.873 E9.34344
G1 X82.686 Y65.506 E9.44197
G1 X83.150 Y65.442 E9.47454
G1 X85.705 Y65.436 E9.65210
G1 X86.042 Y65.460 E9.67557
G1 X86.305 Y65.506 E9.69412
G1 X87.675 Y65.873 E9.79265
G1 X87.926 Y65.965 E9.81124
G1 X89.212 Y66.564 E9.90976
G1 X89.443 Y66.698 E9.92835
G1 X90.605 Y67.511 E10.02688
G1 X90.810 Y67.683 E10.04547
G1 X91.812 Y68.686 E10.14399
G1 X92.101 Y69.057 E10.17667
G1 X93.383 Y71.266 E10.35411
G1 X93.531 Y71.569 E10.37755
G1 X93.622 Y71.821 E10.39616
G1 X93.989 Y73.190 E10.49467
G1 X94.036 Y73.454 E10.51326
G1 X94.159 Y74.866 E10.61179
G1 X94.159 Y75.134 E10.63038
G1 X94.036 Y76.546 E10.72890
G1 X93.989 Y76.810 E10.74749
G1 X93.622 Y78.180 E10.84604
G1 X93.530 Y78.432 E10.86467
G1 X93.383 Y78.734 E10.88804
G1 X92.173 Y80.830 E11.05618
G1 X91.984 Y81.110 E11.07963
G1 X91.812 Y81.314 E11.09821
G1 X90.810 Y82.317 E11.19673
G1 X90.605 Y82.489 E11.21532
G1 X89.443 Y83.302 E11.31385
G1 X89.212 Y83.436 E11.33244
G1 X88.216 Y83.900 E11.40875
G1 X87.926 Y84.035 E11.43096
G1 X87.675 Y84.127 E11.44955
G1 X86.306 Y84.494 E11.54806
G1 X85.837 Y84.558 E11.58095
G1 X83.286 Y84.564 E11.75819
G1 X82.950 Y84.540 E11.78160
G1 X82.687 Y84.494 E11.80015
G1 X81.316 Y84.127 E11.89875
G1 X81.064 Y84.035 E11.91734
G1 X79.779 Y83.436 E12.01587
G1 X79.548 Y83.302 E12.03446
G1 X78.386 Y82.489 E12.13299
G1 X78.181 Y82.317 E12.15158
G1 X77.178 Y81.314 E12.25010
G1 X77.007 Y81.109 E12.26868
G1 X76.818 Y80.830 E12.29212
G1 X75.608 Y78.734 E12.46024
G1 X75.354 Y78.205 E12.50103
G1 X74.628 Y78.221 E12.55153
G1 X74.474 Y78.593 E12.57948
G1 X74.365 Y78.782 E12.59465
G1 X73.100 Y80.971 E12.77034
G1 X72.856 Y81.290 E12.79824
G1 X71.823 Y82.322 E12.89970
G1 X71.619 Y82.494 E12.91829
G1 X70.456 Y83.309 E13.01690
G1 X70.224 Y83.442 E13.03549
G1 X68.938 Y84.042 E13.13410
G1 X68.687 Y84.134 E13.15269
G1 X67.276 Y84.512 E13.25415
G1 X66.878 Y84.564 E13.28206
G1 X64.131 Y84.564 E13.47290
G1 X63.733 Y84.512 E13.50080
G1 X62.323 Y84.134 E13.60226
G1 X62.071 Y84.042 E13.62085
G1 X60.785 Y83.442 E13.71947
G1 X60.553 Y83.308 E13.73806
G1 X59.391 Y82.494 E13.83667
G1 X59.186 Y82.322 E13.85526
G1 X58.153 Y81.290 E13.95672
G1 X57.909 Y80.971 E13.98462
G1 X56.535 Y78.593 E14.17546
G1 X56.382 Y78.222 E14.20337
G1 X56.004 Y76.811 E14.30483
G1 X55.957 Y76.548 E14.32342
G1 X55.834 Y75.134 E14.42203
G1 X55.834 Y74.866 E14.44062
G1 X55.957 Y73.452 E14.53923
G1 X56.004 Y73.189 E14.55782
G1 X56.382 Y71.778 E14.65929
G1 X56.535 Y71.407 E14.68719
G1 X57.909 Y69.029 E14.87803
G1 X58.153 Y68.710 E14.90594
G1 X59.186 Y67.678 E15.00740
G1 X59.391 Y67.506 E15.02599
G1 X60.553 Y66.692 E15.12460
G1 X60.785 Y66.558 E15.14319
G1 X61.782 Y66.093 E15.21967
G1 X62.071 Y65.958 E15.24180
G1 X62.323 Y65.866 E15.26039
G1 X63.733 Y65.488 E15.36185
G1 X64.131 Y65.436 E15.38976
G1 X66.878 Y65.436 E15.58060
G1 X67.276 Y65.488 E15.60851
G1 X68.687 Y65.866 E15.70997
G1 X68.938 Y65.958 E15.72856
G1 X70.224 Y66.558 E15.82717
G1 X70.456 Y66.692 E15.84576
G1 X71.619 Y67.506 E15.94437
G1 X71.823 Y67.678 E15.96296
G1 X72.856 Y68.710 E16.06442
G1 X73.101 Y69.029 E16.09233
G1 X74.474 Y71.407 E16.28317
G1 X74.628 Y71.779 E16.31113
G1 X75.295 Y71.794 E16.35747
G1 X75.431 Y73.739 F7800.000
G1 X75.900 Y71.988 E16.48344 F1080.000
G1 X75.975 Y71.782 E16.49866
G1 X76.096 Y71.534 E16.51783
G1 X77.294 Y69.459 E16.68429
G1 X77.449 Y69.230 E16.70352
G1 X77.590 Y69.062 E16.71872
G1 X78.558 Y68.094 E16.81386
G1 X78.725 Y67.953 E16.82907
G1 X79.847 Y67.168 E16.92422
G1 X80.037 Y67.059 E16.93943
G1 X81.278 Y66.480 E17.03458
G1 X81.484 Y66.405 E17.04979
G1 X82.806 Y66.050 E17.14494
G1 X83.187 Y65.998 E17.17162
G1 X85.693 Y65.993 E17.34578
G1 X85.969 Y66.013 E17.36502
G1 X86.292 Y66.079 E17.38791
G1 X87.507 Y66.405 E17.47532
G1 X87.713 Y66.480 E17.49053
G1 X88.954 Y67.059 E17.58568
G1 X89.144 Y67.168 E17.60089
G1 X90.265 Y67.953 E17.69603
G1 X90.433 Y68.094 E17.71124
G1 X91.401 Y69.062 E17.80639
G1 X91.542 Y69.230 E17.82159
G1 X91.697 Y69.459 E17.84081
G1 X92.894 Y71.534 E18.00725
G1 X93.016 Y71.782 E18.02647
G1 X93.091 Y71.988 E18.04169
G1 X93.445 Y73.311 E18.13683
G1 X93.483 Y73.526 E18.15204
G1 X93.602 Y74.891 E18.24718
G1 X93.602 Y75.109 E18.26239
G1 X93.483 Y76.474 E18.35754
G1 X93.445 Y76.689 E18.37275
G1 X93.090 Y78.012 E18.46791
G1 X93.015 Y78.218 E18.48316
G1 X92.894 Y78.466 E18.50232
G1 X91.697 Y80.541 E18.66876
G1 X91.542 Y80.770 E18.68799
G1 X91.401 Y80.938 E18.70319
G1 X90.433 Y81.906 E18.79833
G1 X90.265 Y82.047 E18.81354
G1 X89.144 Y82.832 E18.90869
G1 X88.954 Y82.941 E18.92390
G1 X87.713 Y83.520 E19.01904
G1 X87.507 Y83.595 E19.03425
G1 X86.185 Y83.949 E19.12938
G1 X85.970 Y83.987 E19.14456
G1 X85.692 Y84.007 E19.16387
G1 X83.298 Y84.007 E19.33026
G1 X83.022 Y83.988 E19.34945
G1 X82.807 Y83.950 E19.36463
G1 X81.484 Y83.595 E19.45984
G1 X81.278 Y83.520 E19.47505
G1 X80.037 Y82.941 E19.57019
G1 X79.847 Y82.832 E19.58540
G1 X78.725 Y82.047 E19.68055
G1 X78.558 Y81.906 E19.69576
G1 X77.590 Y80.938 E19.79090
G1 X77.449 Y80.770 E19.80610
G1 X77.294 Y80.541 E19.82532
G1 X76.097 Y78.466 E19.99175
G1 X75.975 Y78.218 E20.01095
G1 X75.900 Y78.011 E20.02623
G1 X75.431 Y76.261 E20.15216
G1 X74.576 Y76.261 E20.21156
G1 X74.099 Y78.042 E20.33969
G1 X73.973 Y78.346 E20.36252
G1 X72.636 Y80.661 E20.54830
G1 X72.436 Y80.922 E20.57113
G1 X71.447 Y81.911 E20.66836
G1 X71.279 Y82.052 E20.68357
G1 X70.156 Y82.838 E20.77880
G1 X69.967 Y82.948 E20.79401
G1 X68.725 Y83.527 E20.88925
G1 X68.519 Y83.602 E20.90446
G1 X67.167 Y83.964 E21.00169
G1 X66.841 Y84.007 E21.02452
G1 X64.168 Y84.007 E21.21029
G1 X63.842 Y83.964 E21.23312
G1 X62.490 Y83.602 E21.33035
G1 X62.285 Y83.527 E21.34556
G1 X61.042 Y82.948 E21.44080
G1 X60.853 Y82.838 E21.45601
G1 X59.730 Y82.052 E21.55124
G1 X59.562 Y81.911 E21.56645
G1 X58.573 Y80.922 E21.66368
G1 X58.373 Y80.661 E21.68651
G1 X57.036 Y78.346 E21.87228
G1 X56.910 Y78.042 E21.89511
G1 X56.548 Y76.690 E21.99235
G1 X56.510 Y76.475 E22.00756
G1 X56.391 Y75.109 E22.10279
G1 X56.391 Y74.891 E22.11800
G1 X56.510 Y73.525 E22.21323
G1 X56.548 Y73.310 E22.22844
G1 X56.910 Y71.958 E22.32567
G1 X57.036 Y71.654 E22.34850
G1 X58.373 Y69.339 E22.53427
G1 X58.573 Y69.078 E22.55710
G1 X59.562 Y68.089 E22.65434
G1 X59.730 Y67.948 E22.66955
G1 X60.853 Y67.162 E22.76478
G1 X61.042 Y67.052 E22.77999
G1 X62.285 Y66.473 E22.87522
G1 X62.490 Y66.398 E22.89043
G1 X63.842 Y66.036 E22.98767
G1 X64.168 Y65.993 E23.01050
G1 X66.841 Y65.993 E23.19626
G1 X67.167 Y66.036 E23.21910
G1 X68.519 Y66.398 E23.31633
G1 X68.725 Y66.473 E23.33154
G1 X69.967 Y67.052 E23.42677
G1 X70.156 Y67.162 E23.44198
G1 X71.279 Y67.948 E23.53721
G1 X71.447 Y68.089 E23.55242
G1 X72.436 Y69.078 E23.64966
G1 X72.636 Y69.339 E23.67249
G1 X73.973 Y71.654 E23.85825
G1 X74.099 Y71.958 E23.88109
G1 X74.576 Y73.739 E24.00923
G1 X75.371 Y73.739 E24.06446
G1 X76.037 Y73.869 F7800.000
G1 X76.090 Y73.432 E24.09509 F1080.000
G1 X76.432 Y72.156 E24.18687
G1 X76.585 Y71.802 E24.21363
G1 X77.770 Y69.748 E24.37840
G1 X77.891 Y69.569 E24.39340
G1 X78.001 Y69.439 E24.40522
G1 X78.935 Y68.505 E24.49699
G1 X79.065 Y68.396 E24.50882
G1 X80.147 Y67.638 E24.60058
G1 X80.294 Y67.553 E24.61241
G1 X81.491 Y66.995 E24.70418
G1 X81.651 Y66.937 E24.71601
G1 X82.927 Y66.595 E24.80778
G1 X83.309 Y66.550 E24.83453
G1 X85.681 Y66.550 E24.99932
G1 X85.897 Y66.565 E25.01433
G1 X86.064 Y66.595 E25.02613
G1 X87.340 Y66.937 E25.11790
G1 X87.500 Y66.995 E25.12973
G1 X88.697 Y67.553 E25.22150
G1 X88.844 Y67.638 E25.23333
G1 X89.926 Y68.396 E25.32509
G1 X90.056 Y68.505 E25.33692
G1 X90.990 Y69.439 E25.42869
G1 X91.100 Y69.569 E25.44051
G1 X91.220 Y69.748 E25.45550
G1 X92.406 Y71.802 E25.62026
G1 X92.559 Y72.156 E25.64706
G1 X92.901 Y73.432 E25.73882
G1 X92.930 Y73.599 E25.75064
G1 X93.045 Y74.915 E25.84241
G1 X93.045 Y75.085 E25.85424
G1 X92.930 Y76.401 E25.94601
G1 X92.901 Y76.568 E25.95784
G1 X92.559 Y77.844 E26.04962
G1 X92.500 Y78.005 E26.06147
G1 X92.406 Y78.198 E26.07642
G1 X91.220 Y80.252 E26.24118
G1 X90.990 Y80.561 E26.26797
G1 X90.056 Y81.495 E26.35973
G1 X89.926 Y81.604 E26.37156
G1 X88.844 Y82.362 E26.46333
G1 X88.697 Y82.447 E26.47515
G1 X87.500 Y83.005 E26.56692
G1 X87.340 Y83.063 E26.57875
G1 X86.064 Y83.405 E26.67050
G1 X85.808 Y83.442 E26.68848
G1 X83.310 Y83.450 E26.86206
G1 X83.095 Y83.435 E26.87703
G1 X82.928 Y83.405 E26.88884
G1 X81.651 Y83.063 E26.98065
G1 X81.491 Y83.005 E26.99248
G1 X80.294 Y82.447 E27.08425
G1 X80.147 Y82.362 E27.09608
G1 X79.065 Y81.604 E27.18784
G1 X78.935 Y81.495 E27.19967
G1 X78.001 Y80.561 E27.29144
G1 X77.891 Y80.431 E27.30326
G1 X77.771 Y80.252 E27.31825
G1 X76.585 Y78.198 E27.48300
G1 X76.432 Y77.844 E27.50983
G1 X76.090 Y76.568 E27.60156
G1 X76.061 Y76.401 E27.61339
G1 X75.946 Y75.085 E27.70516
G1 X75.946 Y74.915 E27.71699
G1 X76.032 Y73.929 E27.78575
G1 X76.592 Y73.918 F7800.000
G1 X76.635 Y73.552 E27.81133 F1080.000
G1 X76.964 Y72.323 E27.89972
G1 X77.073 Y72.070 E27.91889
G1 X78.334 Y69.909 E28.09272
G1 X79.404 Y68.838 E28.19793
G1 X80.552 Y68.048 E28.29474
G1 X81.705 Y67.510 E28.38313
G1 X83.048 Y67.139 E28.47994
G1 X83.322 Y67.107 E28.49911
G1 X85.824 Y67.118 E28.67295
G1 X87.286 Y67.510 E28.77816
G1 X88.544 Y68.109 E28.87496
G1 X89.680 Y68.916 E28.97177
G1 X90.657 Y69.909 E29.06857
G1 X91.917 Y72.070 E29.24238
G1 X92.027 Y72.324 E29.26158
G1 X92.356 Y73.552 E29.34996
G1 X92.488 Y74.939 E29.44677
G1 X92.377 Y76.328 E29.54358
G1 X91.985 Y77.791 E29.64883
G1 X90.744 Y79.963 E29.82261
G1 X90.579 Y80.184 E29.84180
G1 X89.586 Y81.162 E29.93861
G1 X88.439 Y81.952 E30.03541
G1 X87.172 Y82.531 E30.13222
G1 X85.943 Y82.861 E30.22060
G1 X85.761 Y82.887 E30.23341
G1 X83.168 Y82.882 E30.41359
G1 X81.819 Y82.531 E30.51042
G1 X80.552 Y81.952 E30.60722
G1 X79.404 Y81.162 E30.70403
G1 X78.334 Y80.091 E30.80925
G1 X77.074 Y77.930 E30.98305
G1 X76.964 Y77.676 E31.00227
G1 X76.614 Y76.328 E31.09906
G1 X76.503 Y75.061 E31.18744
G1 X76.587 Y73.978 E31.26294
G1 X77.147 Y73.966 F7800.000
G1 X77.179 Y73.673 E31.28345 F1080.000
G1 X77.496 Y72.491 E31.36846
G1 X77.562 Y72.338 E31.38005
G1 X78.776 Y70.248 E31.54796
G1 X79.744 Y69.281 E31.64307
G1 X80.809 Y68.542 E31.73313
G1 X81.918 Y68.025 E31.81813
G1 X82.759 Y67.793 E31.87875
G1 X83.168 Y67.684 E31.90819
G1 X83.334 Y67.664 E31.91978
G1 X85.751 Y67.671 E32.08771
G1 X87.073 Y68.025 E32.18280
G1 X88.245 Y68.579 E32.27286
G1 X89.303 Y69.327 E32.36292
G1 X90.215 Y70.248 E32.45297
G1 X91.429 Y72.338 E32.62088
G1 X91.495 Y72.491 E32.63249
G1 X91.812 Y73.673 E32.71749
G1 X91.931 Y74.964 E32.80755
G1 X91.824 Y76.255 E32.89760
G1 X91.470 Y77.578 E32.99273
G1 X90.268 Y79.673 E33.16062
G1 X90.168 Y79.807 E33.17222
G1 X89.247 Y80.719 E33.26228
G1 X88.182 Y81.458 E33.35233
G1 X87.004 Y82.000 E33.44239
G1 X85.712 Y82.332 E33.53509
G1 X83.240 Y82.329 E33.70685
G1 X81.987 Y82.000 E33.79691
G1 X80.809 Y81.458 E33.88697
G1 X79.744 Y80.719 E33.97703
G1 X78.776 Y79.752 E34.07213
G1 X77.562 Y77.662 E34.24003
G1 X77.496 Y77.509 E34.25166
G1 X77.166 Y76.255 E34.34170
G1 X77.060 Y75.036 E34.42671
G1 X77.142 Y74.026 E34.49714
G1 X77.702 Y74.015 F7800.000
G1 X77.723 Y73.794 E34.51259 F1080.000
G1 X78.050 Y72.606 E34.59818
G1 X79.218 Y70.588 E34.76019
G1 X80.083 Y69.723 E34.84518
G1 X81.067 Y69.037 E34.92849
G1 X82.131 Y68.540 E35.01011
G1 X82.903 Y68.331 E35.06568
G1 X83.346 Y68.221 E35.09739
G1 X85.678 Y68.224 E35.25940
G1 X86.859 Y68.540 E35.34439
G1 X87.945 Y69.049 E35.42770
G1 X88.926 Y69.739 E35.51101
G1 X89.773 Y70.588 E35.59432
G1 X90.963 Y72.659 E35.76031
G1 X91.267 Y73.794 E35.84193
G1 X91.374 Y74.988 E35.92524
G1 X91.272 Y76.182 E36.00855
G1 X90.955 Y77.364 E36.09355
G1 X89.791 Y79.384 E36.25555
G1 X88.908 Y80.277 E36.34282
G1 X87.924 Y80.963 E36.42613
G1 X86.837 Y81.468 E36.50944
G1 X85.664 Y81.777 E36.59372
G1 X83.313 Y81.776 E36.75706
G1 X82.131 Y81.460 E36.84206
G1 X81.046 Y80.951 E36.92537
G1 X80.065 Y80.261 E37.00867
G1 X79.218 Y79.412 E37.09198
G1 X78.028 Y77.341 E37.25797
