; generated by Slic3r 1.1.7 on 2014-12-01 at 21:05:39

; perimeters extrusion width = 0.40mm
; infill extrusion width = 0.42mm
; solid infill extrusion width = 0.42mm
; top infill extrusion width = 0.42mm

G21 ; set units to millimeters
M107
M104 S215 ; set temperature
G28 ; home all axes
G1 Z5 F5000 ; lift nozzle

M109 S215 ; wait for temperature to be reached
G90 ; use absolute coordinates
G92 E0
M82 ; use absolute distances for extrusion
G1 F1800.000 E-1.00000
G92 E0
G1 Z0.400 F5400.000
G1 X71.623 Y71.623 F5400.000
G1 E1.00000 F1800.000
G1 X74.630 Y68.616 E1.27811 F504.000
G1 X81.097 Y62.372 E1.86595
G1 X87.673 Y56.244 E2.45380
G1 X94.356 Y50.231 E3.04165
G1 X101.144 Y44.338 E3.62949
G1 X108.034 Y38.564 E4.21734
G1 X115.025 Y32.913 E4.80519
G1 X122.114 Y27.386 E5.39303
G1 X129.299 Y21.984 E5.98088
G1 X136.732 Y16.598 E6.58115
G1 X134.252 Y13.111 E6.86098
G1 X130.754 Y15.621 E7.14255
G1 X129.217 Y13.499 E7.31388
G1 X132.579 Y11.087 E7.58445
G1 X135.755 Y8.846 E7.83860
G1 X137.296 Y11.050 E8.01447
G1 X141.212 Y16.647 E8.46115 F504.000
G1 X138.097 Y18.845 E8.71044
G1 X130.855 Y24.092 E9.29524
G1 X123.707 Y29.466 E9.88007
G1 X116.654 Y34.965 E10.46490
G1 X109.699 Y40.587 E11.04973
G1 X102.844 Y46.331 E11.63457
G1 X96.091 Y52.194 E12.21940
G1 X89.443 Y58.176 E12.80423
G1 X82.901 Y64.273 E13.38906
G1 X76.466 Y70.485 E13.97389
G1 X70.143 Y76.808 E14.55873
G1 X63.931 Y83.243 E15.14356
G1 X58.079 Y89.522 E15.70491
G1 X51.852 Y96.433 E16.31322
G1 X45.989 Y103.186 E16.89805
G1 X40.245 Y110.041 E17.48288
G1 X34.623 Y116.996 E18.06772
G1 X29.124 Y124.049 E18.65255
G1 X23.750 Y131.197 E19.23738
G1 X18.503 Y138.439 E19.82218
G1 X16.585 Y141.155 E20.03959
G1 X8.789 Y135.690 E20.66215
G1 X10.744 Y132.921 E20.88382
G1 X13.157 Y129.559 E21.15440
G1 X15.279 Y131.096 E21.32574
G1 X12.769 Y134.594 E21.60731
G1 X16.256 Y137.074 E21.88715
G1 X21.642 Y129.641 E22.48742
G1 X27.044 Y122.456 E23.07527
G1 X32.571 Y115.367 E23.66311
G1 X37.997 Y108.655 E24.22756
G1 X43.996 Y101.486 E24.83880
G1 X49.889 Y94.698 E25.42665
G1 X55.901 Y88.016 E26.01449
G1 X62.030 Y81.439 E26.60234
G1 X68.274 Y74.972 E27.19019
G1 X71.581 Y71.665 E27.49600
G1 F1800.000 E26.49600
G92 E0
G1 X137.349 Y11.447 F5400.000
G1 X109.187 Y38.126 F5400.000
G1 E1.00000 F1800.000
G1 X115.264 Y33.214 E1.51098 F720.000
G1 X122.348 Y27.691 E2.09838
G1 X129.527 Y22.293 E2.68579
G1 X137.266 Y16.685 E3.31075
G1 X134.342 Y12.574 E3.64072
G1 X130.841 Y15.086 E3.92250
G1 X129.755 Y13.586 E4.04357
G1 X132.802 Y11.400 E4.28881
G1 X135.661 Y9.383 E4.51763 F720.000
G1 X140.677 Y16.554 E5.08992
G1 X137.873 Y18.532 E5.31433
G1 X130.627 Y23.783 E5.89951
G1 X123.473 Y29.161 E6.48479
G1 X116.415 Y34.664 E7.07006
G1 X109.455 Y40.290 E7.65533
G1 X102.595 Y46.039 E8.24061
G1 X95.837 Y51.906 E8.82588
G1 X89.183 Y57.892 E9.41116
G1 X82.636 Y63.994 E9.99643
G1 X76.197 Y70.211 E10.58170
G1 X69.869 Y76.539 E11.16698
G1 X63.652 Y82.978 E11.75225
G1 X57.797 Y89.260 E12.31383
G1 X51.564 Y96.179 E12.92280
G1 X45.697 Y102.937 E13.50807
G1 X39.948 Y109.797 E14.09335
G1 X34.322 Y116.757 E14.67862
G1 X28.819 Y123.815 E15.26390
G1 X23.441 Y130.969 E15.84917
G1 X18.190 Y138.215 E16.43435
G1 X16.492 Y140.620 E16.62686
G1 X9.326 Y135.597 E17.19916
G1 X11.057 Y133.144 E17.39553
G1 X13.244 Y130.097 E17.64077
G1 X14.744 Y131.183 E17.76184
G1 X12.231 Y134.683 E18.04363
G1 X16.343 Y137.608 E18.37361
G1 X21.951 Y129.870 E18.99857
G1 X27.349 Y122.690 E19.58598
G1 X32.872 Y115.606 E20.17338
G1 X38.519 Y108.620 E20.76079
G1 X44.288 Y101.735 E21.34819
G1 X50.177 Y94.953 E21.93559
G1 X56.185 Y88.275 E22.52300
G1 X62.309 Y81.704 E23.11040
G1 X68.548 Y75.242 E23.69781
G1 X74.900 Y68.890 E24.28521
G1 X81.362 Y62.651 E24.87262
G1 X87.933 Y56.527 E25.46002
G1 X94.611 Y50.519 E26.04743
G1 X101.393 Y44.630 E26.63483
G1 X108.278 Y38.861 E27.22223
G1 X109.141 Y38.164 E27.29473
G1 F1800.000 E26.29473
G92 E0
G1 X131.137 Y14.555 F5400.000
G1 E1.00000 F1800.000
G1 X130.188 Y13.606 E1.08777 F1200.000
G1 X130.497 Y13.372 E1.11314
G1 X131.453 Y14.328 E1.20156
G1 X131.770 Y14.101 E1.22703
G1 X130.814 Y13.145 E1.31545
G1 X131.130 Y12.918 E1.34092
G1 X132.086 Y13.874 E1.42934
G1 X132.403 Y13.647 E1.45481
G1 X131.447 Y12.690 E1.54323
G1 X131.763 Y12.463 E1.56869
G1 X132.719 Y13.419 E1.65712
G1 X133.036 Y13.192 E1.68258
G1 X132.080 Y12.236 E1.77100
G1 X132.396 Y12.009 E1.79647
G1 X133.352 Y12.965 E1.88489
G1 X133.668 Y12.738 E1.91036
G1 X132.712 Y11.782 E1.99878
G1 X133.029 Y11.556 E2.02426
G1 X133.985 Y12.511 E2.11263
G1 X134.301 Y12.284 E2.13810
G1 X133.348 Y11.331 E2.22626
G1 X133.667 Y11.106 E2.25176
G1 X139.575 Y17.015 E2.79820
G1 X139.894 Y16.790 E2.82370
G1 X133.985 Y10.881 E3.37014
G1 X134.304 Y10.656 E3.39565
G1 X140.212 Y16.564 E3.94200
G1 X139.470 Y15.279 F5400.000
G1 X134.623 Y10.432 E4.39025 F1200.000
G1 X134.941 Y10.207 E4.41575
G1 X138.205 Y13.470 E4.71753
G1 X136.939 Y11.661 F5400.000
G1 X135.260 Y9.982 E4.87284 F1200.000
G1 X135.674 Y9.853 E4.90122
G1 X135.579 Y9.757 E4.91006
G1 X134.827 Y12.810 F5400.000
G1 X139.257 Y17.239 E5.31974 F1200.000
G1 X138.938 Y17.464 E5.34525
G1 X136.166 Y14.692 E5.60164
G1 X137.505 Y16.574 F5400.000
G1 X138.619 Y17.689 E5.70473 F1200.000
G1 X138.301 Y17.914 E5.73023
G1 X137.339 Y16.952 E5.81918
G1 X137.024 Y17.181 E5.84463
G1 X137.982 Y18.139 E5.93324
G1 X137.664 Y18.364 E5.95874
G1 X136.709 Y17.409 E6.04709
G1 X136.393 Y17.637 E6.07254
G1 X137.349 Y18.593 E6.16088
G1 X137.034 Y18.821 E6.18633
G1 X136.078 Y17.866 E6.27468
G1 X135.763 Y18.094 E6.30013
G1 X136.718 Y19.049 E6.38848
G1 X136.403 Y19.278 E6.41393
G1 X135.448 Y18.322 E6.50228
G1 X135.133 Y18.551 E6.52773
G1 X136.088 Y19.506 E6.61608
G1 X135.773 Y19.734 E6.64153
G1 X134.818 Y18.779 E6.72988
G1 X134.503 Y19.007 E6.75533
G1 X135.458 Y19.963 E6.84368
G1 X135.143 Y20.191 E6.86913
G1 X134.187 Y19.236 E6.95747
G1 X133.872 Y19.464 E6.98292
G1 X134.828 Y20.419 E7.07127
G1 X134.513 Y20.648 E7.09672
G1 X133.557 Y19.692 E7.18507
G1 X133.242 Y19.921 E7.21052
G1 X134.197 Y20.876 E7.29887
G1 X133.882 Y21.104 E7.32432
G1 X132.927 Y20.149 E7.41267
G1 X132.612 Y20.377 E7.43812
G1 X133.567 Y21.333 E7.52647
G1 X133.252 Y21.561 E7.55192
G1 X132.297 Y20.606 E7.64027
G1 X131.981 Y20.834 E7.66572
G1 X132.937 Y21.789 E7.75406
G1 X132.622 Y22.018 E7.77951
G1 X131.666 Y21.063 E7.86786
G1 X131.351 Y21.291 E7.89331
G1 X132.307 Y22.246 E7.98166
G1 X131.991 Y22.475 E8.00711
G1 X131.036 Y21.519 E8.09546
G1 X130.721 Y21.748 E8.12091
G1 X131.676 Y22.703 E8.20926
G1 X131.361 Y22.931 E8.23471
G1 X130.406 Y21.976 E8.32306
G1 X130.091 Y22.204 E8.34851
G1 X131.046 Y23.160 E8.43686
G1 X130.731 Y23.388 E8.46231
G1 X129.776 Y22.433 E8.55065
G1 X129.464 Y22.664 E8.57606
G1 X130.417 Y23.617 E8.66417
G1 X130.106 Y23.850 E8.68955
G1 X129.154 Y22.898 E8.77767
G1 X128.843 Y23.131 E8.80305
G1 X129.796 Y24.084 E8.89117
G1 X129.486 Y24.317 E8.91655
G1 X128.533 Y23.364 E9.00466
G1 X128.223 Y23.597 E9.03005
G1 X129.176 Y24.550 E9.11816
G1 X128.865 Y24.783 E9.14354
G1 X127.913 Y23.831 E9.23166
G1 X127.602 Y24.064 E9.25704
G1 X128.555 Y25.017 E9.34515
G1 X128.245 Y25.250 E9.37054
G1 X127.292 Y24.297 E9.45865
G1 X126.982 Y24.530 E9.48403
G1 X127.935 Y25.483 E9.57215
G1 X127.624 Y25.716 E9.59753
G1 X126.672 Y24.764 E9.68565
G1 X126.361 Y24.997 E9.71103
G1 X127.314 Y25.950 E9.79914
G1 X127.004 Y26.183 E9.82453
G1 X126.051 Y25.230 E9.91264
G1 X125.741 Y25.463 E9.93802
G1 X126.694 Y26.416 E10.02614
G1 X126.383 Y26.649 E10.05152
G1 X125.431 Y25.697 E10.13964
G1 X125.120 Y25.930 E10.16502
G1 X126.073 Y26.883 E10.25313
G1 X125.763 Y27.116 E10.27851
G1 X124.810 Y26.163 E10.36663
G1 X124.500 Y26.396 E10.39201
G1 X125.453 Y27.349 E10.48013
G1 X125.142 Y27.582 E10.50551
G1 X124.190 Y26.630 E10.59362
G1 X123.879 Y26.863 E10.61901
G1 X124.832 Y27.816 E10.70712
G1 X124.522 Y28.049 E10.73250
G1 X123.569 Y27.096 E10.82062
G1 X123.259 Y27.329 E10.84600
G1 X124.212 Y28.282 E10.93411
G1 X123.901 Y28.515 E10.95950
G1 X122.949 Y27.563 E11.04761
G1 X122.638 Y27.796 E11.07299
G1 X123.591 Y28.749 E11.16111
G1 X123.281 Y28.982 E11.18648
G1 X122.331 Y28.032 E11.27439
G1 X122.025 Y28.270 E11.29972
G1 X122.976 Y29.220 E11.38763
G1 X122.671 Y29.459 E11.41295
G1 X121.720 Y28.508 E11.50086
G1 X121.415 Y28.746 E11.52618
G1 X122.365 Y29.697 E11.61409
G1 X122.060 Y29.935 E11.63941
G1 X121.109 Y28.984 E11.72732
G1 X120.804 Y29.222 E11.75265
G1 X121.755 Y30.173 E11.84055
G1 X121.449 Y30.411 E11.86588
G1 X120.499 Y29.460 E11.95379
G1 X120.193 Y29.699 E11.97911
G1 X121.144 Y30.649 E12.06702
G1 X120.838 Y30.887 E12.09234
G1 X119.888 Y29.937 E12.18025
G1 X119.582 Y30.175 E12.20557
G1 X120.533 Y31.125 E12.29348
G1 X120.228 Y31.363 E12.31881
G1 X119.277 Y30.413 E12.40672
G1 X118.972 Y30.651 E12.43204
G1 X119.922 Y31.602 E12.51995
G1 X119.617 Y31.840 E12.54527
G1 X118.666 Y30.889 E12.63318
G1 X118.361 Y31.127 E12.65850
G1 X119.311 Y32.078 E12.74641
G1 X119.006 Y32.316 E12.77174
G1 X118.056 Y31.365 E12.85964
G1 X117.750 Y31.603 E12.88497
G1 X118.701 Y32.554 E12.97288
G1 X118.395 Y32.792 E12.99820
G1 X117.445 Y31.842 E13.08611
G1 X117.139 Y32.080 E13.11143
G1 X118.090 Y33.030 E13.19934
G1 X117.785 Y33.268 E13.22466
G1 X116.834 Y32.318 E13.31257
G1 X116.529 Y32.556 E13.33790
G1 X117.479 Y33.506 E13.42581
G1 X117.174 Y33.745 E13.45113
G1 X116.223 Y32.794 E13.53904
G1 X115.918 Y33.032 E13.56436
G1 X116.868 Y33.983 E13.65227
G1 X116.563 Y34.221 E13.67759
G1 X115.612 Y33.270 E13.76550
G1 X115.309 Y33.510 E13.79080
G1 X116.258 Y34.459 E13.87854
G1 X115.957 Y34.702 E13.90381
G1 X115.008 Y33.753 E13.99155
G1 X114.708 Y33.996 E14.01682
G1 X115.657 Y34.945 E14.10455
G1 X115.356 Y35.188 E14.12982
G1 X114.407 Y34.239 E14.21755
G1 X114.107 Y34.482 E14.24282
G1 X115.055 Y35.431 E14.33056
G1 X114.755 Y35.674 E14.35583
G1 X113.806 Y34.725 E14.44356
G1 X113.506 Y34.968 E14.46883
G1 X114.454 Y35.916 E14.55656
G1 X114.154 Y36.159 E14.58184
G1 X113.205 Y35.211 E14.66957
G1 X112.905 Y35.454 E14.69484
G1 X113.853 Y36.402 E14.78257
G1 X113.553 Y36.645 E14.80784
G1 X112.604 Y35.697 E14.89557
G1 X112.304 Y35.940 E14.92085
G1 X113.252 Y36.888 E15.00858
G1 X112.952 Y37.131 E15.03385
G1 X112.003 Y36.183 E15.12158
G1 X111.702 Y36.426 E15.14685
G1 X112.651 Y37.374 E15.23459
G1 X112.351 Y37.617 E15.25986
G1 X111.402 Y36.669 E15.34759
G1 X111.101 Y36.911 E15.37286
G1 X112.050 Y37.860 E15.46059
G1 X111.750 Y38.103 E15.48587
G1 X110.801 Y37.154 E15.57360
G1 X110.500 Y37.397 E15.59887
G1 X111.449 Y38.346 E15.68660
G1 X111.148 Y38.589 E15.71187
G1 X110.200 Y37.640 E15.79960
G1 X109.899 Y37.883 E15.82488
G1 X110.848 Y38.832 E15.91261
G1 X110.547 Y39.075 E15.93788
G1 X109.599 Y38.126 E16.02561
G1 X109.298 Y38.369 E16.05088
G1 X110.247 Y39.318 E16.13862
G1 X109.946 Y39.561 E16.16389
G1 X108.998 Y38.612 E16.25162
G1 X108.697 Y38.855 E16.27689
G1 X109.646 Y39.804 E16.36462
G1 X109.345 Y40.047 E16.38990
G1 X108.397 Y39.099 E16.47756
G1 X108.102 Y39.347 E16.50279
G1 X109.049 Y40.294 E16.59037
G1 X108.753 Y40.541 E16.61560
G1 X107.806 Y39.594 E16.70318
G1 X107.510 Y39.842 E16.72841
G1 X108.457 Y40.789 E16.81599
G1 X108.161 Y41.037 E16.84122
G1 X107.214 Y40.090 E16.92880
G1 X106.919 Y40.338 E16.95403
G1 X107.866 Y41.285 E17.04161
G1 X107.570 Y41.532 E17.06684
G1 X106.623 Y40.585 E17.15442
G1 X106.327 Y40.833 E17.17965
G1 X107.274 Y41.780 E17.26724
G1 X106.979 Y42.028 E17.29246
G1 X106.032 Y41.081 E17.38005
G1 X105.736 Y41.329 E17.40528
G1 X106.683 Y42.276 E17.49286
G1 X106.387 Y42.524 E17.51809
G1 X105.440 Y41.577 E17.60567
G1 X105.144 Y41.824 E17.63090
G1 X106.091 Y42.771 E17.71848
G1 X105.796 Y43.019 E17.74371
G1 X104.849 Y42.072 E17.83129
G1 X104.553 Y42.320 E17.85652
G1 X105.500 Y43.267 E17.94410
G1 X105.204 Y43.515 E17.96933
G1 X104.257 Y42.568 E18.05691
G1 X103.962 Y42.815 E18.08214
G1 X104.909 Y43.762 E18.16972
G1 X104.613 Y44.010 E18.19495
G1 X103.666 Y43.063 E18.28253
G1 X103.370 Y43.311 E18.30776
G1 X104.317 Y44.258 E18.39534
G1 X104.021 Y44.506 E18.42057
G1 X103.074 Y43.559 E18.50816
G1 X102.779 Y43.807 E18.53338
G1 X103.726 Y44.754 E18.62097
G1 X103.430 Y45.001 E18.64620
G1 X102.483 Y44.054 E18.73378
G1 X102.187 Y44.302 E18.75901
G1 X103.134 Y45.249 E18.84659
G1 X102.839 Y45.497 E18.87182
G1 X101.892 Y44.550 E18.95940
G1 X101.596 Y44.798 E18.98463
G1 X102.543 Y45.745 E19.07221
G1 X102.250 Y45.995 E19.09742
G1 X101.304 Y45.050 E19.18488
G1 X101.014 Y45.302 E19.21007
G1 X101.959 Y46.248 E19.29753
G1 X101.668 Y46.501 E19.32272
G1 X100.723 Y45.555 E19.41018
G1 X100.432 Y45.807 E19.43538
G1 X101.377 Y46.753 E19.52284
G1 X101.087 Y47.006 E19.54803
G1 X100.141 Y46.060 E19.63549
G1 X99.850 Y46.313 E19.66068
G1 X100.796 Y47.258 E19.74814
G1 X100.505 Y47.511 E19.77334
G1 X99.559 Y46.565 E19.86080
G1 X99.268 Y46.818 E19.88599
G1 X100.214 Y47.764 E19.97345
G1 X99.923 Y48.016 E19.99864
G1 X98.977 Y47.070 E20.08610
G1 X98.686 Y47.323 E20.11130
G1 X99.632 Y48.269 E20.19876
G1 X99.341 Y48.521 E20.22395
G1 X98.395 Y47.576 E20.31141
G1 X98.105 Y47.828 E20.33660
G1 X99.050 Y48.774 E20.42406
G1 X98.759 Y49.026 E20.44926
G1 X97.814 Y48.081 E20.53672
G1 X97.523 Y48.333 E20.56191
G1 X98.468 Y49.279 E20.64937
G1 X98.178 Y49.532 E20.67456
G1 X97.232 Y48.586 E20.76202
G1 X96.941 Y48.839 E20.78722
G1 X97.887 Y49.784 E20.87468
G1 X97.596 Y50.037 E20.89987
G1 X96.650 Y49.091 E20.98733
G1 X96.359 Y49.344 E21.01252
G1 X97.305 Y50.289 E21.09998
G1 X97.014 Y50.542 E21.12518
G1 X96.068 Y49.596 E21.21264
G1 X95.777 Y49.849 E21.23783
G1 X96.723 Y50.795 E21.32529
G1 X96.432 Y51.047 E21.35048
G1 X95.486 Y50.102 E21.43794
G1 X95.196 Y50.354 E21.46314
G1 X96.141 Y51.300 E21.55060
G1 X95.850 Y51.552 E21.57579
G1 X94.905 Y50.607 E21.66325
G1 X94.616 Y50.862 E21.68843
G1 X95.561 Y51.807 E21.77579
G1 X95.275 Y52.064 E21.80096
G1 X94.330 Y51.119 E21.88832
G1 X94.044 Y51.377 E21.91349
G1 X94.989 Y52.322 E22.00085
G1 X94.703 Y52.579 E22.02602
G1 X93.758 Y51.634 E22.11339
G1 X93.472 Y51.892 E22.13855
G1 X94.417 Y52.836 E22.22592
G1 X94.131 Y53.094 E22.25108
G1 X93.186 Y52.149 E22.33845
G1 X92.900 Y52.406 E22.36361
G1 X93.845 Y53.351 E22.45098
G1 X93.558 Y53.608 E22.47615
G1 X92.614 Y52.664 E22.56351
G1 X92.328 Y52.921 E22.58868
G1 X93.272 Y53.866 E22.67604
G1 X92.986 Y54.123 E22.70121
G1 X92.042 Y53.179 E22.78857
G1 X91.755 Y53.436 E22.81374
G1 X92.700 Y54.381 E22.90110
G1 X92.414 Y54.638 E22.92627
G1 X91.469 Y53.693 E23.01364
G1 X91.183 Y53.951 E23.03880
G1 X92.128 Y54.895 E23.12617
G1 X91.842 Y55.153 E23.15133
G1 X90.897 Y54.208 E23.23870
G1 X90.611 Y54.466 E23.26386
G1 X91.556 Y55.410 E23.35123
G1 X91.270 Y55.668 E23.37640
G1 X90.325 Y54.723 E23.46376
G1 X90.039 Y54.980 E23.48893
G1 X90.984 Y55.925 E23.57629
G1 X90.697 Y56.182 E23.60146
G1 X89.753 Y55.238 E23.68882
G1 X89.467 Y55.495 E23.71399
G1 X90.411 Y56.440 E23.80136
G1 X90.125 Y56.697 E23.82652
G1 X89.181 Y55.752 E23.91389
G1 X88.894 Y56.010 E23.93905
G1 X89.839 Y56.955 E24.02642
G1 X89.553 Y57.212 E24.05158
G1 X88.608 Y56.267 E24.13895
G1 X88.322 Y56.525 E24.16412
G1 X89.267 Y57.469 E24.25148
G1 X88.981 Y57.727 E24.27665
G1 X88.037 Y56.783 E24.36394
G1 X87.756 Y57.045 E24.38909
G1 X88.700 Y57.989 E24.47639
G1 X88.419 Y58.252 E24.50153
G1 X87.475 Y57.308 E24.58883
G1 X87.193 Y57.570 E24.61398
G1 X88.137 Y58.514 E24.70128
G1 X87.856 Y58.776 E24.72642
G1 X86.912 Y57.832 E24.81372
G1 X86.631 Y58.094 E24.83887
G1 X87.575 Y59.038 E24.92616
G1 X87.293 Y59.300 E24.95131
G1 X86.349 Y58.356 E25.03861
G1 X86.068 Y58.618 E25.06376
G1 X87.012 Y59.562 E25.15105
G1 X86.731 Y59.825 E25.17620
G1 X85.787 Y58.881 E25.26350
G1 X85.506 Y59.143 E25.28864
G1 X86.449 Y60.087 E25.37594
G1 X86.168 Y60.349 E25.40109
G1 X85.224 Y59.405 E25.48839
G1 X84.943 Y59.667 E25.51353
G1 X85.887 Y60.611 E25.60083
G1 X85.606 Y60.873 E25.62598
G1 X84.662 Y59.929 E25.71327
G1 X84.380 Y60.192 E25.73842
G1 X85.324 Y61.135 E25.82572
G1 X85.043 Y61.398 E25.85087
G1 X84.099 Y60.454 E25.93816
G1 X83.818 Y60.716 E25.96331
G1 X84.762 Y61.660 E26.05061
G1 X84.480 Y61.922 E26.07575
G1 X83.536 Y60.978 E26.16305
G1 X83.255 Y61.240 E26.18820
G1 X84.199 Y62.184 E26.27550
G1 X83.918 Y62.446 E26.30064
G1 X82.974 Y61.502 E26.38794
G1 X82.692 Y61.765 E26.41309
G1 X83.636 Y62.709 E26.50038
