; generated by Slic3r 1.1.7 on 2015-01-20 at 17:40:44

; perimeters extrusion width = 0.40mm
; infill extrusion width = 0.42mm
; solid infill extrusion width = 0.42mm
; top infill extrusion width = 0.42mm

G21 ; set units to millimeters
M107
M190 S35 ; wait for bed temperature to be reached
M104 S195 ; set temperature
G28 ; home all axes
G29 ;
G1 Z5 F5000 ; lift nozzle

M109 S195 ; wait for temperature to be reached
G90 ; use absolute coordinates
G92 E0
M82 ; use absolute distances for extrusion
G1 F1800.000 E-1.00000
G92 E0
G1 Z0.350 F7800.000
G1 X72.768 Y17.876 F7800.000
G1 E1.00000 F1800.000
G1 X73.694 Y16.946 E1.12138 F1080.000
G1 X80.640 Y16.911 E1.76388
G1 X86.668 Y16.911 E2.32139
G1 X87.599 Y17.842 E2.44315
G1 X87.599 Y34.158 E3.95227 F1080.000
G1 X86.668 Y35.089 E4.07402
G1 X83.639 Y35.089 E4.35418
G1 X83.267 Y35.461 E4.40288
G1 X83.267 Y75.570 E8.11255
G1 X83.340 Y75.751 E8.13065
G1 X83.261 Y78.202 E8.35741
G1 X83.283 Y79.924 E8.51675
G1 X83.382 Y81.658 E8.67741
G1 X83.559 Y83.372 E8.83675
G1 X83.809 Y85.062 E8.99477
G1 X84.141 Y86.767 E9.15543
G1 X84.545 Y88.442 E9.31477
G1 X85.020 Y90.083 E9.47279
G1 X85.573 Y91.715 E9.63213
G1 X86.198 Y93.320 E9.79147
G1 X86.894 Y94.896 E9.95081
G1 X87.660 Y96.439 E10.11016
G1 X88.495 Y97.946 E10.26949
G1 X89.404 Y99.426 E10.43015
G1 X90.371 Y100.852 E10.58950
G1 X91.401 Y102.233 E10.74884
G1 X92.492 Y103.566 E10.90818
G1 X93.655 Y104.864 E11.06937
G1 X94.847 Y106.080 E11.22686
G1 X96.096 Y107.246 E11.38488
G1 X97.407 Y108.364 E11.54422
G1 X98.767 Y109.422 E11.70356
G1 X100.172 Y110.417 E11.86290
G1 X101.621 Y111.349 E12.02224
G1 X103.111 Y112.215 E12.18158
G1 X104.650 Y113.020 E12.34224
G1 X106.198 Y113.743 E12.50026
G1 X107.790 Y114.401 E12.65961
G1 X109.424 Y114.992 E12.82026
G1 X111.055 Y115.501 E12.97829
G1 X111.954 Y115.738 E13.06429
G1 X112.424 Y115.435 E13.11606
G1 X112.519 Y114.918 E13.16465
G1 X112.736 Y114.209 E13.23321
G1 X113.078 Y113.439 E13.31115
G1 X113.515 Y112.718 E13.38909
G1 X114.041 Y112.060 E13.46703
G1 X114.646 Y111.473 E13.54498
G1 X115.321 Y110.969 E13.62292
G1 X116.147 Y110.512 E13.71024
G1 X116.933 Y110.207 E13.78818
G1 X117.751 Y110.005 E13.86613
G1 X118.588 Y109.909 E13.94407
G1 X119.431 Y109.921 E14.02201
G1 X120.265 Y110.040 E14.09995
G1 X120.981 Y110.232 E14.16851
G1 X121.763 Y110.546 E14.24645
G1 X122.498 Y110.958 E14.32439
G1 X123.175 Y111.460 E14.40233
G1 X123.782 Y112.044 E14.48027
G1 X124.310 Y112.702 E14.55822
G1 X124.796 Y113.511 E14.64554
G1 X125.128 Y114.285 E14.72348
G1 X125.336 Y114.997 E14.79204
G1 X125.463 Y115.756 E14.86320
G1 X125.484 Y115.929 E14.87938
G1 X125.505 Y116.670 E14.94792
G1 X125.428 Y117.509 E15.02586
G1 X125.216 Y118.429 E15.11320
G1 X124.917 Y119.217 E15.19114
G1 X124.519 Y119.960 E15.26908
G1 X124.031 Y120.647 E15.34703
G1 X123.458 Y121.265 E15.42496
G1 X122.893 Y121.745 E15.49351
G1 X122.190 Y122.209 E15.57146
G1 X121.339 Y122.618 E15.65878
G1 X120.537 Y122.877 E15.73673
G1 X119.709 Y123.032 E15.81467
G1 X118.712 Y123.089 E15.90699
G1 X15.427 Y123.089 E25.45997
G1 X14.496 Y122.158 E25.58173
G1 X14.496 Y117.842 E25.98096
G1 X15.427 Y116.911 E26.10271
G1 X16.176 Y116.911 E26.17203
G1 X21.765 Y116.630 E26.68957
G1 X27.252 Y115.801 E27.20286
G1 X32.603 Y114.439 E27.71358
G1 X37.828 Y112.542 E28.22771
G1 X42.845 Y110.132 E28.74247
G1 X47.632 Y107.217 E29.26085
G1 X52.089 Y103.857 E29.77714
G1 X56.179 Y100.090 E30.29141
G1 X59.909 Y95.911 E30.80945
G1 X63.217 Y91.381 E31.32834
G1 X66.074 Y86.542 E31.84804
G1 X68.450 Y81.442 E32.36846
G1 X70.322 Y76.128 E32.88950
G1 X71.673 Y70.654 E33.41101
G1 X72.490 Y65.071 E33.93287
G1 X72.768 Y59.343 E34.46334
G1 X72.768 Y17.936 E38.29312
G1 X73.404 Y18.138 F7800.000
G1 X73.959 Y17.580 E38.36595 F1080.000
G1 X80.902 Y17.547 E39.00812
G1 X86.405 Y17.547 E39.51708
G1 X86.963 Y18.105 E39.59013 F1080.000
G1 X86.963 Y33.895 E41.05055
G1 X86.405 Y34.453 E41.12360
G1 X83.003 Y34.453 E41.43819
G1 X82.631 Y34.826 E41.48690
G1 X82.631 Y75.827 E45.27915
G1 X82.697 Y75.989 E45.29528
G1 X82.625 Y78.195 E45.49948
G1 X82.647 Y79.947 E45.66146
G1 X82.749 Y81.709 E45.82475
G1 X82.926 Y83.437 E45.98541
G1 X83.182 Y85.170 E46.14739
G1 X83.519 Y86.903 E46.31069
G1 X83.931 Y88.605 E46.47267
G1 X84.414 Y90.273 E46.63333
G1 X84.975 Y91.932 E46.79530
G1 X85.610 Y93.564 E46.95728
G1 X86.318 Y95.166 E47.11926
G1 X87.104 Y96.747 E47.28256
G1 X87.953 Y98.279 E47.44453
G1 X88.870 Y99.771 E47.60651
G1 X89.853 Y101.220 E47.76849
G1 X90.900 Y102.624 E47.93047
G1 X92.009 Y103.980 E48.09245
G1 X93.177 Y105.284 E48.25443
G1 X94.403 Y106.535 E48.41640
G1 X95.684 Y107.730 E48.57838
G1 X97.044 Y108.887 E48.74353
G1 X98.399 Y109.940 E48.90234
G1 X99.817 Y110.944 E49.06300
G1 X101.290 Y111.892 E49.22498
G1 X102.804 Y112.772 E49.38695
G1 X104.368 Y113.590 E49.55025
G1 X105.942 Y114.325 E49.71091
G1 X107.561 Y114.994 E49.87289
G1 X109.221 Y115.595 E50.03618
G1 X110.879 Y116.112 E50.19684
G1 X112.481 Y116.534 E50.35009
G1 X112.962 Y116.202 E50.40412
G1 X113.001 Y115.834 E50.43831
G1 X113.119 Y115.144 E50.50310
G1 X113.338 Y114.415 E50.57353
G1 X113.649 Y113.720 E50.64395
G1 X114.081 Y113.020 E50.72000
G1 X114.563 Y112.431 E50.79042
G1 X115.117 Y111.908 E50.86084
G1 X115.733 Y111.460 E50.93127
G1 X116.400 Y111.095 E51.00169
G1 X117.052 Y110.837 E51.06647
G1 X117.737 Y110.658 E51.13201
G1 X118.544 Y110.548 E51.20728
G1 X119.305 Y110.549 E51.27771
G1 X120.060 Y110.647 E51.34813
G1 X120.796 Y110.840 E51.41855
G1 X121.557 Y111.153 E51.49461
G1 X122.217 Y111.534 E51.56503
G1 X122.822 Y111.995 E51.63545
G1 X123.364 Y112.530 E51.70587
G1 X123.798 Y113.080 E51.77066
G1 X124.194 Y113.730 E51.84108
G1 X124.503 Y114.426 E51.91150
G1 X124.720 Y115.156 E51.98193
G1 X124.849 Y115.968 E52.05798
G1 X124.867 Y116.729 E52.12840
G1 X124.788 Y117.486 E52.19882
G1 X124.613 Y118.227 E52.26925
G1 X124.344 Y118.940 E52.33967
G1 X124.019 Y119.560 E52.40446
G1 X123.616 Y120.143 E52.46999
G1 X123.075 Y120.752 E52.54526
G1 X122.498 Y121.247 E52.61568
G1 X121.861 Y121.665 E52.68611
G1 X121.120 Y122.021 E52.76216
G1 X120.396 Y122.257 E52.83259
G1 X119.708 Y122.391 E52.89737
G1 X118.966 Y122.442 E52.96624
G1 X15.690 Y122.453 E62.51830
G1 X15.131 Y121.895 E62.59135
G1 X15.131 Y118.105 E62.94188
G1 X15.690 Y117.547 E63.01493
G1 X16.192 Y117.546 E63.06137
G1 X21.828 Y117.263 E63.58330
G1 X27.378 Y116.425 E64.10246
G1 X32.791 Y115.048 E64.61903
G1 X38.075 Y113.128 E65.13901
G1 X43.149 Y110.692 E65.65960
G1 X47.989 Y107.744 E66.18381
G1 X52.473 Y104.365 E66.70301
G1 X56.531 Y100.630 E67.21312
G1 X56.655 Y100.514 E67.22884
G1 X60.404 Y96.311 E67.74976
G1 X63.749 Y91.731 E68.27440
G1 X66.637 Y86.838 E68.79983
G1 X69.039 Y81.682 E69.32597
G1 X70.932 Y76.311 E69.85271
G1 X72.298 Y70.776 E70.37992
G1 X73.123 Y65.133 E70.90746
G1 X73.404 Y59.358 E71.44220
G1 X73.404 Y18.198 E75.24913
G1 X74.039 Y18.401 F7800.000
G1 X74.224 Y18.215 E75.27341 F1080.000
G1 X81.164 Y18.182 E75.91524
G1 X86.142 Y18.182 E76.37565
G1 X86.328 Y18.368 E76.40000
G1 X86.328 Y33.632 E77.81171
G1 X86.142 Y33.818 E77.83606
G1 X82.368 Y33.818 E78.18509
G1 X81.996 Y34.190 E78.23380
G1 X81.996 Y76.084 E82.10864
G1 X82.053 Y76.226 E82.12280
G1 X81.989 Y78.203 E82.30575
G1 X82.012 Y79.983 E82.47037
G1 X82.114 Y81.746 E82.63367
G1 X82.295 Y83.516 E82.79828
G1 X82.556 Y85.277 E82.96290
G1 X82.898 Y87.038 E83.12883
G1 X83.316 Y88.768 E83.29345
G1 X83.811 Y90.477 E83.45806
G1 X84.383 Y92.163 E83.62268
G1 X84.918 Y93.537 E83.75908
G1 X84.909 Y93.551 E83.76056
G1 X85.749 Y95.449 E83.95255
G1 X86.541 Y97.043 E84.11717
G1 X87.397 Y98.587 E84.28047
G1 X88.336 Y100.116 E84.44640
G1 X89.327 Y101.577 E84.60970
G1 X90.390 Y103.004 E84.77431
G1 X91.516 Y104.382 E84.93893
G1 X92.703 Y105.709 E85.10354
G1 X93.959 Y106.990 E85.26948
G1 X95.250 Y108.195 E85.43278
G1 X96.604 Y109.349 E85.59739
G1 X98.020 Y110.451 E85.76333
G1 X99.461 Y111.471 E85.92662
G1 X100.958 Y112.434 E86.09124
G1 X102.496 Y113.329 E86.25585
G1 X104.074 Y114.154 E86.42047
G1 X105.686 Y114.907 E86.58509
G1 X107.331 Y115.587 E86.74970
G1 X109.004 Y116.193 E86.91432
G1 X110.703 Y116.723 E87.07893
G1 X112.425 Y117.176 E87.24355
G1 X113.134 Y117.330 E87.31068
G1 X113.609 Y116.937 E87.36770
G1 X113.602 Y116.601 E87.39879
G1 X113.629 Y115.942 E87.45981
G1 X113.742 Y115.271 E87.52271
G1 X113.940 Y114.620 E87.58562
G1 X114.219 Y114.000 E87.64852
G1 X114.575 Y113.421 E87.71142
G1 X115.003 Y112.892 E87.77433
G1 X115.509 Y112.408 E87.83911
G1 X116.058 Y112.007 E87.90201
G1 X116.654 Y111.678 E87.96491
G1 X117.267 Y111.435 E88.02594
G1 X117.926 Y111.266 E88.08884
G1 X118.601 Y111.182 E88.15174
G1 X119.281 Y111.185 E88.21465
G1 X119.955 Y111.274 E88.27755
G1 X120.612 Y111.449 E88.34045
G1 X121.242 Y111.707 E88.40335
G1 X121.833 Y112.042 E88.46625
G1 X122.392 Y112.464 E88.53103
G1 X122.864 Y112.925 E88.59206
G1 X123.287 Y113.458 E88.65496
G1 X123.638 Y114.040 E88.71786
G1 X123.912 Y114.663 E88.78077
G1 X124.105 Y115.315 E88.84367
G1 X124.212 Y115.986 E88.90657
G1 X124.232 Y116.687 E88.97135
G1 X124.164 Y117.363 E89.03426
G1 X124.009 Y118.026 E89.09716
G1 X123.772 Y118.663 E89.16006
G1 X123.465 Y119.247 E89.22109
G1 X123.076 Y119.805 E89.28399
G1 X122.605 Y120.323 E89.34877
G1 X122.085 Y120.762 E89.41167
G1 X121.514 Y121.131 E89.47458
G1 X120.901 Y121.424 E89.53748
G1 X120.255 Y121.637 E89.60038
G1 X119.587 Y121.766 E89.66328
G1 X118.698 Y121.818 E89.74565
G1 X15.953 Y121.818 E99.24860
G1 X15.767 Y121.632 E99.27295
G1 X15.767 Y118.368 E99.57477
G1 X15.953 Y118.182 E99.59912
G1 X21.891 Y117.897 E100.14898
G1 X27.504 Y117.049 E100.67401
G1 X32.978 Y115.656 E101.19644
G1 X38.351 Y113.703 E101.72518
G1 X43.480 Y111.236 E102.25159
G1 X48.321 Y108.288 E102.77581
G1 X52.904 Y104.834 E103.30661
G1 X57.108 Y100.961 E103.83533
G1 X60.918 Y96.687 E104.36489
G1 X64.281 Y92.080 E104.89240
G1 X67.200 Y87.135 E105.42357
G1 X69.628 Y81.922 E105.95542
G1 X71.542 Y76.493 E106.48787
G1 X72.922 Y70.899 E107.02078
G1 X73.757 Y65.194 E107.55401
G1 X74.039 Y59.373 E108.09301
G1 X74.039 Y18.461 E111.87708
G1 F1800.000 E110.87708
G92 E0
G1 X114.569 Y118.322 F7800.000
G1 E1.00000 F1800.000
G1 X114.322 Y117.188 E1.10738 F378.000
G1 X114.270 Y116.596 E1.16237
G1 X114.295 Y116.002 E1.21737
G1 X114.395 Y115.416 E1.27236
G1 X114.569 Y114.847 E1.32736
G1 X114.814 Y114.305 E1.38235
G1 X115.126 Y113.799 E1.43735
G1 X115.501 Y113.338 E1.49234
G1 X115.931 Y112.927 E1.54734
G1 X116.410 Y112.575 E1.60233
G1 X116.930 Y112.287 E1.65733
G1 X117.483 Y112.068 E1.71232
G1 X118.059 Y111.921 E1.76731
G1 X118.649 Y111.848 E1.82231
G1 X119.244 Y111.852 E1.87730
G1 X119.833 Y111.932 E1.93230
G1 X120.408 Y112.086 E1.98729
G1 X120.958 Y112.312 E2.04229
G1 X121.474 Y112.606 E2.09728
G1 X121.949 Y112.964 E2.15228
G1 X122.374 Y113.380 E2.20727
G1 X122.743 Y113.846 E2.26227
G1 X123.049 Y114.356 E2.31726
G1 X123.287 Y114.901 E2.37226
G1 X123.455 Y115.471 E2.42725
G1 X123.547 Y116.059 E2.48225
G1 X123.565 Y116.653 E2.53724
G1 X123.506 Y117.245 E2.59224
G1 X123.372 Y117.824 E2.64723
G1 X123.165 Y118.381 E2.70223
G1 X122.889 Y118.908 E2.75722
G1 X122.548 Y119.395 E2.81222
G1 X122.148 Y119.835 E2.86721
G1 X121.694 Y120.219 E2.92221
G1 X121.196 Y120.543 E2.97720
G1 X120.660 Y120.801 E3.03220
G1 X120.095 Y120.988 E3.08719
G1 X119.512 Y121.101 E3.14219
G1 X118.686 Y121.150 E3.21864
G1 X16.435 Y121.150 E12.67598
G1 X16.435 Y118.839 E12.88972
G1 X21.942 Y118.564 E13.39973
G1 X27.621 Y117.708 E13.93093
G1 X33.190 Y116.291 E14.46245
G1 X38.596 Y114.326 E14.99442
G1 X43.786 Y111.832 E15.52698
G1 X48.710 Y108.833 E16.06022
G1 X53.321 Y105.358 E16.59422
G1 X57.574 Y101.441 E17.12903
G1 X61.429 Y97.120 E17.66466
G1 X64.849 Y92.435 E18.20109
G1 X67.800 Y87.433 E18.73828
G1 X70.254 Y82.160 E19.27615
G1 X72.187 Y76.669 E19.81460
G1 X73.582 Y71.012 E20.35350
G1 X74.424 Y65.243 E20.89271
G1 X74.707 Y59.397 E21.43406
G1 X74.707 Y18.880 E25.18152
G1 X85.660 Y18.850 E26.19457
G1 X85.660 Y33.150 E27.51719
G1 X81.328 Y33.150 E27.91788
G1 X81.328 Y76.750 E31.95048
G1 X81.368 Y76.750 E31.95420
G1 X81.321 Y78.190 E32.08743
G1 X81.344 Y79.999 E32.25482
G1 X81.448 Y81.806 E32.42220
G1 X81.633 Y83.606 E32.58959
G1 X81.898 Y85.397 E32.75698
G1 X82.260 Y87.242 E32.93089
G1 X82.668 Y88.932 E33.09175
G1 X83.172 Y90.671 E33.25913
G1 X83.778 Y92.451 E33.43305
G1 X84.409 Y94.071 E33.59390
G1 X85.141 Y95.726 E33.76129
G1 X85.946 Y97.347 E33.92868
G1 X86.823 Y98.930 E34.09606
G1 X87.771 Y100.472 E34.26345
G1 X88.786 Y101.970 E34.43084
G1 X89.868 Y103.421 E34.59823
G1 X91.013 Y104.822 E34.76561
G1 X92.221 Y106.170 E34.93300
G1 X93.487 Y107.463 E35.10039
G1 X94.810 Y108.698 E35.26778
G1 X96.188 Y109.872 E35.43516
G1 X97.616 Y110.983 E35.60255
G1 X99.093 Y112.029 E35.76994
G1 X100.615 Y113.008 E35.93733
G1 X102.180 Y113.917 E36.10471
G1 X103.784 Y114.756 E36.27210
G1 X105.489 Y115.548 E36.44602
G1 X107.096 Y116.213 E36.60687
G1 X108.798 Y116.828 E36.77426
G1 X110.526 Y117.367 E36.94164
G1 X112.276 Y117.828 E37.10903
G1 X114.510 Y118.310 E37.32045
G1 X114.968 Y118.294 F7800.000
G1 F1800.000 E36.32045
G92 E0
G1 X80.692 Y32.514 F7800.000
G1 E1.00000 F1800.000
G1 X80.692 Y77.386 E5.15018 F540.000
G1 X80.711 Y77.386 E5.15197
G1 X80.686 Y78.183 E5.22580
G1 X80.709 Y80.022 E5.39583
G1 X80.814 Y81.857 E5.56585
G1 X81.002 Y83.686 E5.73588
G1 X81.272 Y85.504 E5.90590
G1 X81.623 Y87.308 E6.07593
G1 X82.054 Y89.095 E6.24595
G1 X82.565 Y90.861 E6.41598
G1 X83.155 Y92.602 E6.58600
G1 X83.822 Y94.315 E6.75603
G1 X84.565 Y95.997 E6.92605
G1 X85.383 Y97.643 E7.09608
G1 X86.274 Y99.251 E7.26610
G1 X87.237 Y100.817 E7.43613
G1 X88.268 Y102.339 E7.60615
G1 X89.367 Y103.813 E7.77618
G1 X90.530 Y105.236 E7.94620
G1 X91.816 Y106.666 E8.12407
G1 X93.043 Y107.918 E8.28624
G1 X94.387 Y109.172 E8.45627
G1 X95.786 Y110.365 E8.62629
G1 X97.237 Y111.494 E8.79632
G1 X98.809 Y112.602 E8.97419
G1 X100.284 Y113.550 E9.13636
G1 X101.873 Y114.474 E9.30639
G1 X103.502 Y115.326 E9.47641
G1 X105.168 Y116.103 E9.64643
G1 X106.867 Y116.805 E9.81646
G1 X108.595 Y117.431 E9.98649
G1 X110.350 Y117.978 E10.15651
G1 X112.128 Y118.446 E10.32653
G1 X115.401 Y119.152 E10.63619
G1 X115.383 Y119.072 E10.64381
G1 X115.728 Y118.892 E10.67979
G1 X116.218 Y119.424 E10.74663
G1 X116.738 Y119.829 E10.80757
G1 X117.296 Y120.131 E10.86629
G1 X117.199 Y120.514 E10.90290
G1 X17.070 Y120.514 E20.16386
G1 X17.070 Y119.444 E20.26288
G1 X22.006 Y119.197 E20.71990
G1 X27.747 Y118.332 E21.25696
G1 X33.378 Y116.899 E21.79433
G1 X38.843 Y114.912 E22.33215
G1 X44.089 Y112.391 E22.87054
G1 X49.067 Y109.359 E23.40960
G1 X53.728 Y105.847 E23.94941
G1 X58.028 Y101.888 E24.49000
G1 X61.924 Y97.520 E25.03140
G1 X65.380 Y92.785 E25.57358
G1 X68.363 Y87.729 E26.11650
G1 X70.843 Y82.401 E26.66009
G1 X72.797 Y76.851 E27.20424
G1 X74.207 Y71.134 E27.74884
G1 X75.058 Y65.305 E28.29374
G1 X75.343 Y59.413 E28.83936
G1 X75.343 Y19.513 E32.52970
G1 X85.024 Y19.486 E33.42517
G1 X85.024 Y32.514 E34.63021
G1 X80.752 Y32.514 E35.02535
G1 X80.056 Y31.879 F7800.000
G1 X80.050 Y78.177 E39.30754 F540.000
G1 X80.073 Y80.044 E39.48020
G1 X80.181 Y81.908 E39.65286
G1 X80.371 Y83.765 E39.82552
G1 X80.664 Y85.709 E40.00735
G1 X81.001 Y87.444 E40.17084
G1 X81.439 Y89.258 E40.34350
G1 X81.958 Y91.052 E40.51616
G1 X82.557 Y92.820 E40.68882
G1 X83.235 Y94.559 E40.86149
G1 X83.990 Y96.267 E41.03415
G1 X84.821 Y97.938 E41.20681
G1 X85.725 Y99.571 E41.37948
G1 X86.702 Y101.162 E41.55214
G1 X87.750 Y102.707 E41.72480
G1 X88.866 Y104.204 E41.89746
G1 X90.047 Y105.649 E42.07012
G1 X91.362 Y107.111 E42.25195
G1 X92.599 Y108.373 E42.41544
G1 X93.964 Y109.647 E42.58810
G1 X95.385 Y110.858 E42.76077
G1 X96.858 Y112.004 E42.93343
G1 X98.382 Y113.083 E43.10609
G1 X99.952 Y114.093 E43.27875
G1 X101.566 Y115.031 E43.45142
G1 X103.220 Y115.895 E43.62408
G1 X104.912 Y116.685 E43.79674
G1 X106.637 Y117.398 E43.96940
G1 X108.392 Y118.033 E44.14207
G1 X110.175 Y118.589 E44.31473
G1 X111.980 Y119.064 E44.48739
G1 X113.648 Y119.424 E44.64522
G1 X113.599 Y119.879 E44.68750
G1 X24.907 Y119.879 E52.89075
G1 X24.872 Y119.408 E52.93439
G1 X27.873 Y118.956 E53.21516
G1 X33.565 Y117.507 E53.75839
G1 X39.090 Y115.499 E54.30206
G1 X44.393 Y112.950 E54.84628
